%
(Header)
(Generated by gcodetools from Inkscape.)
(Using default header. To add your own header create file "header" in the output dir.)
M3
(Header end.)
G21 (All units in mm)

(Start cutting path id: path12093)
(Change tool to Default tool)
M05
G00 Z0.100000
G00 X82.794047 Y-1.074102
M03 S35
G01 Z-1.000000 F800.0(Penetrate)
G02 X42.783881 Y8.704576 Z-1.000000 I-1.757822 J79.549325 F2500.000000
G02 X13.023400 Y37.178242 Z-1.000000 I38.252344 J69.770647
G02 X1.486900 Y76.717402 Z-1.000000 I68.012826 J41.296981
G02 X11.265578 Y116.727568 Z-1.000000 I79.549325 J1.757822
G02 X39.739245 Y146.488049 Z-1.000000 I69.770647 J-38.252344
G02 X79.278404 Y158.024548 Z-1.000000 I41.296981 J-68.012826
G00 Z0.100000
M05
(End cutting path id: path12093)


(Start cutting path id: path12047)
(Change tool to Default tool)

G00 Z0.100000
G00 X80.493273 Y75.879099
M03 S35
G01 Z-1.000000 F800.0(Penetrate)
G02 X78.816916 Y77.023527 Z-1.000000 I0.543450 J2.596023 F2500.000000
G02 X78.440599 Y79.018088 Z-1.000000 I2.219807 J1.451595
G02 X79.584714 Y80.694658 Z-1.000000 I2.596124 J-0.542966
G02 X81.579204 Y81.071347 Z-1.000000 I1.452009 J-2.219536
G00 Z0.100000
M05
(End cutting path id: path12047)


(Start cutting path id: path12051)
(Change tool to Default tool)

G00 Z0.100000
G00 X85.322397 Y75.349942
M03 S35
G01 Z-1.000000 F800.0(Penetrate)
G02 X83.438848 Y73.745946 Z-1.000000 I-4.286168 J3.125277 F2500.000000
G02 X81.032692 Y73.170637 Z-1.000000 I-2.402618 J4.729273
G02 X78.627307 Y73.749154 Z-1.000000 I0.003537 J5.304581
G02 X76.745897 Y75.355660 Z-1.000000 I2.408922 J4.726065
G00 Z0.100000
M05
(End cutting path id: path12051)


(Start cutting path id: path12053)
(Change tool to Default tool)

G00 Z0.100000
G00 X85.864186 Y72.150437
M03 S35
G01 Z-1.000000 F800.0(Penetrate)
G02 X81.030909 Y70.518339 Z-1.000000 I-4.827948 J6.324774 F2500.000000
G02 X76.199823 Y72.156911 Z-1.000000 I0.005330 J7.956872
G00 Z0.100000
M05
(End cutting path id: path12053)


(Start cutting path id: path12055)
(Change tool to Default tool)

G00 Z0.100000
G00 X87.182650 Y69.827924
M03 S35
G01 Z-1.000000 F800.0(Penetrate)
G02 X81.029133 Y67.866073 Z-1.000000 I-6.146411 J8.647313 F2500.000000
G02 X74.878249 Y69.836165 Z-1.000000 I0.007106 J10.609163
G00 Z0.100000
M05
(End cutting path id: path12055)


(Start cutting path id: path12059)
(Change tool to Default tool)

G00 Z0.100000
G00 X86.260495 Y63.443440
M03 S35
G01 Z-1.000000 F800.0(Penetrate)
G02 X81.025580 Y62.561480 Z-1.000000 I-5.224256 J15.031784 F2500.000000
G02 X75.791850 Y63.450452 Z-1.000000 I0.010659 J15.913744
G00 Z0.100000
M05
(End cutting path id: path12059)


(Start cutting path id: path12065)
(Change tool to Default tool)

G00 Z0.100000
G00 X80.368005 Y49.307674
M03 S35
G01 Z-1.000000 F800.0(Penetrate)
G02 X59.945465 Y58.326430 Z-1.000000 I0.677877 J29.167328 F2500.000000
G02 X51.878331 Y79.143236 Z-1.000000 I21.100417 J20.148572
G02 X60.890335 Y99.568757 Z-1.000000 I29.167551 J-0.668234
G02 X81.704473 Y107.642772 Z-1.000000 I20.155547 J-21.093754
G00 Z0.100000
M05
(End cutting path id: path12065)


(Start cutting path id: path12057)
(Change tool to Default tool)

G00 Z0.100000
G00 X93.728275 Y74.630951
M03 S35
G01 Z-1.000000 F800.0(Penetrate)
G02 X87.291020 Y66.789654 Z-1.000000 I-12.689073 J3.854044 F2500.000000
G02 X77.194942 Y65.792955 Z-1.000000 I-6.251818 J11.695341
G02 X69.348685 Y72.224163 Z-1.000000 I3.844260 J12.692041
G02 X68.344202 Y82.319469 Z-1.000000 I11.690518 J6.260832
G00 Z0.100000
M05
(End cutting path id: path12057)


(Start cutting path id: path12061)
(Change tool to Default tool)

G00 Z0.100000
G00 X59.870060 Y76.988442
M03 S35
G01 Z-1.000000 F800.0(Penetrate)
G02 X65.018726 Y92.389804 Z-1.000000 I21.166276 J1.485406 F2500.000000
G02 X79.549554 Y99.640027 Z-1.000000 I16.017610 J-13.915956
G02 X94.951251 Y94.492362 Z-1.000000 I1.486781 J-21.166179
G02 X102.202418 Y79.962005 Z-1.000000 I-13.914915 J-16.018514
G00 Z0.100000
M05
(End cutting path id: path12061)


(Start cutting path id: path12063)
(Change tool to Default tool)

G00 Z0.100000
G00 X104.550829 Y74.367835
M03 S35
G01 Z-1.000000 F800.0(Penetrate)
G02 X99.346778 Y63.160826 Z-1.000000 I-23.514591 J4.107388 F2500.000000
G02 X89.236432 Y56.057296 Z-1.000000 I-18.310539 J15.314398
G02 X76.928851 Y54.960633 Z-1.000000 I-8.200193 J22.417927
G02 X65.721841 Y60.164684 Z-1.000000 I4.107388 J23.514591
G02 X58.618312 Y70.275030 Z-1.000000 I15.314398 J18.310539
G02 X57.521648 Y82.582611 Z-1.000000 I22.417927 J8.200193
G00 Z0.100000
M05
(End cutting path id: path12063)


(Start cutting path id: path12069)
(Change tool to Default tool)

G00 Z0.100000
G00 X57.319802 Y49.903884
M03 S35
G01 Z-1.000000 F800.0(Penetrate)
G02 X44.078409 Y75.039326 Z-1.000000 I23.732625 J28.557901 F2500.000000
G02 X52.481084 Y102.178226 Z-1.000000 I36.974018 J3.422460
G02 X77.609018 Y115.433858 Z-1.000000 I28.571343 J-23.716441
G02 X104.752676 Y107.046562 Z-1.000000 I3.443409 J-36.972073
G00 Z0.100000
M05
(End cutting path id: path12069)


(Start cutting path id: path12071)
(Change tool to Default tool)

G00 Z0.100000
G00 X115.552299 Y58.690435
M03 S35
G01 Z-1.000000 F800.0(Penetrate)
G02 X101.035629 Y44.083064 Z-1.000000 I-34.516060 J19.784789 F2500.000000
G02 X81.160139 Y38.691044 Z-1.000000 I-19.999391 J34.392160
G02 X61.251450 Y43.959163 Z-1.000000 I-0.123901 J39.784179
G02 X46.644079 Y58.475832 Z-1.000000 I19.784789 J34.516060
G02 X41.252060 Y78.351323 Z-1.000000 I34.392160 J19.999391
G02 X46.520179 Y98.260012 Z-1.000000 I39.784179 J0.123901
G00 Z0.100000
M05
(End cutting path id: path12071)


(Start cutting path id: path12067)
(Change tool to Default tool)

G00 Z0.100000
G00 X91.715688 Y48.492901
M03 S35
G01 Z-1.000000 F800.0(Penetrate)
G02 X81.014921 Y46.647722 Z-1.000000 I-10.679449 J29.982309 F2500.000000
G02 X70.316635 Y48.507235 Z-1.000000 I0.021318 J31.827488
G00 Z0.100000
M05
(End cutting path id: path12067)


(Start cutting path id: path12073)
(Change tool to Default tool)

G00 Z0.100000
G00 X106.765611 Y44.728078
M03 S35
G01 Z-1.000000 F800.0(Penetrate)
G02 X86.444957 Y36.384652 Z-1.000000 I-25.729373 J33.747145 F2500.000000
G02 X64.675040 Y39.319360 Z-1.000000 I-5.408718 J42.090571
G02 X47.289094 Y52.745851 Z-1.000000 I16.361199 J39.155863
G02 X38.945668 Y73.066505 Z-1.000000 I33.747145 J25.729373
G02 X41.880376 Y94.836422 Z-1.000000 I42.090571 J5.408718
G02 X55.306866 Y112.222368 Z-1.000000 I39.155863 J-16.361199
G00 Z0.100000
M05
(End cutting path id: path12073)


(Start cutting path id: path12075)
(Change tool to Default tool)

G00 Z0.100000
G00 X115.632065 Y49.559097
M03 S35
G01 Z-1.000000 F800.0(Penetrate)
G02 X85.053513 Y33.571138 Z-1.000000 I-34.590814 J28.922122 F2500.000000
G02 X52.125124 Y43.885393 Z-1.000000 I-4.012262 J44.910081
G02 X36.131866 Y74.461173 Z-1.000000 I28.916127 J34.595827
G02 X46.440413 Y107.391350 Z-1.000000 I44.909385 J4.020046
G00 Z0.100000
M05
(End cutting path id: path12075)


(Start cutting path id: path12077)
(Change tool to Default tool)

G00 Z0.100000
G00 X125.201411 Y54.207009
M03 S35
G01 Z-1.000000 F800.0(Penetrate)
G02 X106.678559 Y35.093425 Z-1.000000 I-44.165173 J24.268207 F2500.000000
G02 X81.002485 Y28.081692 Z-1.000000 I-25.642320 J43.381791
G02 X55.335827 Y35.127814 Z-1.000000 I0.033754 J50.393523
G02 X36.838596 Y54.266194 Z-1.000000 I25.700412 J43.347401
G00 Z0.100000
M05
(End cutting path id: path12077)


(Start cutting path id: path12091)
(Change tool to Default tool)

G00 Z0.100000
G00 X118.903468 Y11.525878
M03 S35
G01 Z-1.000000 F800.0(Penetrate)
G02 X60.477380 Y4.367235 Z-1.000000 I-37.855373 J66.956039 F2500.000000
G02 X14.098762 Y40.614686 Z-1.000000 I20.570715 J74.114681
G02 X6.929772 Y99.039505 Z-1.000000 I66.949333 J37.867230
G02 X43.169009 Y145.424542 Z-1.000000 I74.118323 J-20.557589
G00 Z0.100000
M05
(End cutting path id: path12091)


(Start cutting path id: path12079)
(Change tool to Default tool)

G00 Z0.100000
G00 X134.653728 Y63.393919
M03 S35
G01 Z-1.000000 F800.0(Penetrate)
G02 X119.929694 Y38.605686 Z-1.000000 I-53.617489 J15.081304 F2500.000000
G02 X94.784191 Y24.500464 Z-1.000000 I-38.893456 J39.869537
G02 X65.954935 Y24.857734 Z-1.000000 I-13.747952 J53.974760
G02 X41.166702 Y39.581768 Z-1.000000 I15.081304 J53.617489
G02 X27.061479 Y64.727271 Z-1.000000 I39.869537 J38.893456
G02 X27.418750 Y93.556527 Z-1.000000 I53.974760 J13.747952
G00 Z0.100000
M05
(End cutting path id: path12079)


(Start cutting path id: path12081)
(Change tool to Default tool)

G00 Z0.100000
G00 X130.650553 Y47.763833
M03 S35
G01 Z-1.000000 F800.0(Penetrate)
G02 X109.415886 Y27.491256 Z-1.000000 I-49.614314 J30.711399 F2500.000000
G02 X80.997155 Y20.124837 Z-1.000000 I-28.379648 J50.983976
G02 X52.588318 Y27.529320 Z-1.000000 I0.039083 J58.350396
G02 X31.380828 Y47.830324 Z-1.000000 I28.447921 J50.945912
G00 Z0.100000
M05
(End cutting path id: path12081)


(Start cutting path id: path12083)
(Change tool to Default tool)

G00 Z0.100000
G00 X128.888832 Y32.575496
M03 S35
G01 Z-1.000000 F800.0(Penetrate)
G02 X107.027054 Y17.474132 Z-1.000000 I-47.852594 J45.899728 F2500.000000
G02 X80.991826 Y12.167956 Z-1.000000 I-25.990815 J61.001092
G02 X54.963730 Y17.509004 Z-1.000000 I0.044413 J66.307268
G02 X33.122200 Y32.639641 Z-1.000000 I26.072509 J60.966220
G00 Z0.100000
M05
(End cutting path id: path12083)


(Start cutting path id: path12089)
(Change tool to Default tool)

G00 Z0.100000
G00 X127.281801 Y20.367463
M03 S35
G01 Z-1.000000 F800.0(Penetrate)
G02 X80.986501 Y4.211080 Z-1.000000 I-46.245579 J58.107757 F2500.000000
G02 X34.712877 Y20.429440 Z-1.000000 I0.049721 J74.264140
G00 Z0.100000
M05
(End cutting path id: path12089)


(Start cutting path id: path12085)
(Change tool to Default tool)

G00 Z0.100000
G00 X138.962163 Y41.058523
M03 S35
G01 Z-1.000000 F800.0(Penetrate)
G02 X95.539805 Y11.076299 Z-1.000000 I-57.912268 J37.437843 F2500.000000
G02 X43.633193 Y20.570437 Z-1.000000 I-14.489909 J67.420066
G02 X13.635122 Y63.981850 Z-1.000000 I37.416703 J57.925929
G02 X23.110314 Y115.891923 Z-1.000000 I67.414773 J14.514516
G00 Z0.100000
M05
(End cutting path id: path12085)


(Start cutting path id: path12087)
(Change tool to Default tool)

G00 Z0.100000
G00 X139.910500 Y37.706585
M03 S35
G01 Z-1.000000 F800.0(Penetrate)
G02 X114.247071 Y15.029957 Z-1.000000 I-58.874261 J40.768623 F2500.000000
G02 X80.988273 Y6.863359 Z-1.000000 I-33.210832 J63.445251
G02 X47.740444 Y15.074503 Z-1.000000 I0.047966 J71.611849
G02 X22.107417 Y37.785490 Z-1.000000 I33.295795 J63.400704
G00 Z0.100000
M05
(End cutting path id: path12087)


(Footer)
M5
G00 X0.0000 Y0.0000
M2
(Using default footer. To add your own footer create file "footer" in the output dir.)
(end)
%