%
(Header)
(Generated by gcodetools from Inkscape.)
(Using default header. To add your own header create file "header" in the output dir.)
M3
(Header end.)
G21 (All units in mm)
M05
(Start cutting path id: path11404)
(Change tool to Default tool)

G00 Z0.100000
G00 X35.767660 Y14.661043
M03 S35
G01 Z-1.000000 F800.0(Penetrate)
G02 X3.928286 Y65.374291 Z-1.000000 I45.302114 J63.793598 F2500.000000
G02 X17.270426 Y123.748657 Z-1.000000 I77.141488 J13.080350
G02 X67.979632 Y155.594468 Z-1.000000 I63.799348 J-45.294016
G02 X126.355691 Y142.259737 Z-1.000000 I13.090141 J-77.139827
G00 Z0.100000
M05
(End cutting path id: path11404)


(Start cutting path id: path11374)
(Change tool to Default tool)

G00 Z0.100000
G00 X110.202420 Y69.452148
M03 S35
G01 Z-1.000000 F800.0(Penetrate)
G02 X95.293019 Y51.507055 Z-1.000000 I-29.131712 J9.037461 F2500.000000
G02 X72.062462 Y49.348850 Z-1.000000 I-14.222311 J26.982554
G02 X54.102428 Y64.240251 Z-1.000000 I9.008246 J29.140759
G02 X51.920931 Y87.468632 Z-1.000000 I26.968280 J14.249358
G00 Z0.100000
M05
(End cutting path id: path11374)


(Start cutting path id: path11364)
(Change tool to Default tool)

G00 Z0.100000
G00 X72.286852 Y66.807058
M03 S35
G01 Z-1.000000 F800.0(Penetrate)
G02 X66.632185 Y76.422726 Z-1.000000 I8.791706 J11.640620 F2500.000000
G02 X69.425213 Y87.222511 Z-1.000000 I14.446374 J2.024951
G02 X79.032680 Y92.891103 Z-1.000000 I11.653345 J-8.774833
G02 X89.836499 Y90.113723 Z-1.000000 I2.045878 J-14.443425
G00 Z0.100000
M05
(End cutting path id: path11364)


(Start cutting path id: path11360)
(Change tool to Default tool)

G00 Z0.100000
G00 X79.924100 Y74.648058
M03 S35
G01 Z-1.000000 F800.0(Penetrate)
G02 X77.563549 Y76.569476 Z-1.000000 I1.140218 J3.811544 F2500.000000
G02 X77.251985 Y79.597177 Z-1.000000 I3.500769 J1.890126
G02 X79.171766 Y81.959060 Z-1.000000 I3.812333 J-1.137576
G02 X82.199251 Y82.272722 Z-1.000000 I1.892552 J-3.499458
G00 Z0.100000
M05
(End cutting path id: path11360)


(Start cutting path id: path11366)
(Change tool to Default tool)

G00 Z0.100000
G00 X97.128070 Y72.208600
M03 S35
G01 Z-1.000000 F800.0(Penetrate)
G02 X90.789167 Y64.226987 Z-1.000000 I-16.066394 J6.251793 F2500.000000
G02 X81.050128 Y61.220503 Z-1.000000 I-9.727492 J14.233406
G02 X71.315126 Y64.240031 Z-1.000000 I0.011547 J17.239890
G02 X64.986921 Y72.230129 Z-1.000000 I9.746550 J14.220362
G00 Z0.100000
M05
(End cutting path id: path11366)


(Start cutting path id: path11368)
(Change tool to Default tool)

G00 Z0.100000
G00 X82.617807 Y58.629169
M03 S35
G01 Z-1.000000 F800.0(Penetrate)
G02 X72.488930 Y60.503560 Z-1.000000 I-1.568195 J19.830274 F2500.000000
G02 X64.655617 Y67.192857 Z-1.000000 I8.560681 J17.955883
G02 X61.218387 Y76.903312 Z-1.000000 I16.393994 J11.266586
G02 X63.098939 Y87.031047 Z-1.000000 I19.831225 J1.556131
G02 X69.793001 Y94.860289 Z-1.000000 I17.950672 J-8.571603
G02 X79.505545 Y98.291611 Z-1.000000 I11.256611 J-16.400845
G00 Z0.100000
M05
(End cutting path id: path11368)


(Start cutting path id: path11370)
(Change tool to Default tool)

G00 Z0.100000
G00 X98.562004 Y64.248006
M03 S35
G01 Z-1.000000 F800.0(Penetrate)
G02 X83.387533 Y56.041179 Z-1.000000 I-17.495923 J14.217808 F2500.000000
G02 X66.853695 Y60.965485 Z-1.000000 I-2.321453 J22.424635
G02 X58.642166 Y76.137412 Z-1.000000 I14.212385 J17.500329
G02 X63.561348 Y92.672774 Z-1.000000 I22.423915 J2.328402
G00 Z0.100000
M05
(End cutting path id: path11370)


(Start cutting path id: path11382)
(Change tool to Default tool)

G00 Z0.100000
G00 X45.333195 Y58.124454
M03 S35
G01 Z-1.000000 F800.0(Penetrate)
G02 X39.951935 Y78.713193 Z-1.000000 I35.728481 J20.335936 F2500.000000
G02 X45.585998 Y99.234194 Z-1.000000 I41.109741 J-0.252803
G02 X60.725739 Y114.188871 Z-1.000000 I35.475678 J-20.773804
G02 X81.314479 Y119.570131 Z-1.000000 I20.335936 J-35.728481
G02 X101.835480 Y113.936068 Z-1.000000 I-0.252803 J-41.109741
G02 X116.790157 Y98.796326 Z-1.000000 I-20.773804 J-35.475678
G00 Z0.100000
M05
(End cutting path id: path11382)


(Start cutting path id: path11380)
(Change tool to Default tool)

G00 Z0.100000
G00 X117.482631 Y66.109310
M03 S35
G01 Z-1.000000 F800.0(Penetrate)
G02 X106.427608 Y49.553563 Z-1.000000 I-36.420956 J12.351080 F2500.000000
G02 X88.575804 Y40.743377 Z-1.000000 I-25.365933 J28.906827
G02 X68.710595 Y42.039435 Z-1.000000 I-7.514128 J37.717013
G02 X52.154849 Y53.094458 Z-1.000000 I12.351080 J36.420956
G02 X43.344663 Y70.946262 Z-1.000000 I28.906827 J25.365933
G02 X44.640720 Y90.811470 Z-1.000000 I37.717013 J7.514128
G00 Z0.100000
M05
(End cutting path id: path11380)


(Start cutting path id: path11396)
(Change tool to Default tool)

G00 Z0.100000
G00 X14.604414 Y65.901982
M03 S35
G01 Z-1.000000 F800.0(Penetrate)
G02 X25.192124 Y116.569022 Z-1.000000 I66.458440 J12.552176 F2500.000000
G02 X68.504445 Y144.911420 Z-1.000000 I55.870729 J-38.114865
G02 X119.172478 Y134.328461 Z-1.000000 I12.558409 J-66.457262
G02 X147.518938 Y91.018799 Z-1.000000 I-38.109625 J-55.874304
G00 Z0.100000
M05
(End cutting path id: path11396)


(Start cutting path id: path11400)
(Change tool to Default tool)

G00 Z0.100000
G00 X152.645940 Y64.473004
M03 S35
G01 Z-1.000000 F800.0(Penetrate)
G02 X127.409514 Y22.141370 Z-1.000000 I-71.584262 J13.987382 F2500.000000
G02 X81.012811 Y5.522392 Z-1.000000 I-46.347835 J56.319016
G02 X34.638418 Y22.203526 Z-1.000000 I0.048868 J72.937994
G02 X9.458738 Y64.568938 Z-1.000000 I46.423260 J56.256860
G00 Z0.100000
M05
(End cutting path id: path11400)


(Start cutting path id: path11376)
(Change tool to Default tool)

G00 Z0.100000
G00 X67.520340 Y48.198269
M03 S35
G01 Z-1.000000 F800.0(Penetrate)
G02 X50.098395 Y66.637843 Z-1.000000 I13.554314 J30.256314 F2500.000000
G02 X50.812530 Y91.995920 Z-1.000000 I30.976258 J11.816740
G02 X69.244631 Y109.425771 Z-1.000000 I30.262124 J-13.541337
G02 X94.603011 Y108.722511 Z-1.000000 I11.830023 J-30.971188
G00 Z0.100000
M05
(End cutting path id: path11376)


(Start cutting path id: path11372)
(Change tool to Default tool)

G00 Z0.100000
G00 X103.614389 Y62.121939
M03 S35
G01 Z-1.000000 F800.0(Penetrate)
G02 X93.713530 Y53.651111 Z-1.000000 I-22.552714 J16.338457 F2500.000000
G02 X81.043022 Y50.611344 Z-1.000000 I-12.651854 J24.809286
G02 X68.376598 Y53.668082 Z-1.000000 I0.018653 J27.849052
G02 X58.487095 Y62.152166 Z-1.000000 I12.685078 J24.792315
G00 Z0.100000
M05
(End cutting path id: path11372)


(Start cutting path id: path11378)
(Change tool to Default tool)

G00 Z0.100000
G00 X88.165912 Y43.366314
M03 S35
G01 Z-1.000000 F800.0(Penetrate)
G02 X81.037706 Y42.654475 Z-1.000000 I-7.104223 J35.094085 F2500.000000
G02 X73.910460 Y43.375862 Z-1.000000 I0.023983 J35.805925
G00 Z0.100000
M05
(End cutting path id: path11378)


(Start cutting path id: path11392)
(Change tool to Default tool)

G00 Z0.100000
G00 X72.891171 Y24.705817
M03 S35
G01 Z-1.000000 F800.0(Penetrate)
G02 X47.108525 Y35.992816 Z-1.000000 I8.170505 J53.754573 F2500.000000
G02 X30.423597 Y58.658968 Z-1.000000 I33.953151 J42.467574
G02 X27.307102 Y86.630895 Z-1.000000 I50.638078 J19.801422
G02 X38.594102 Y112.413541 Z-1.000000 I53.754573 J-8.170505
G02 X61.260254 Y129.098469 Z-1.000000 I42.467574 J-33.953151
G02 X89.232180 Y132.214963 Z-1.000000 I19.801422 J-50.638078
G00 Z0.100000
M05
(End cutting path id: path11392)


(Start cutting path id: path11384)
(Change tool to Default tool)

G00 Z0.100000
G00 X107.753550 Y43.780028
M03 S35
G01 Z-1.000000 F800.0(Penetrate)
G02 X86.837336 Y35.080378 Z-1.000000 I-26.691875 J34.680362 F2500.000000
G02 X64.373538 Y38.004368 Z-1.000000 I-5.775660 J43.380012
G02 X46.381313 Y51.768516 Z-1.000000 I16.688138 J40.456023
G02 X37.681664 Y72.684730 Z-1.000000 I34.680362 J26.691875
G02 X40.605653 Y95.148528 Z-1.000000 I43.380012 J5.775660
G02 X54.369801 Y113.140752 Z-1.000000 I40.456023 J-16.688138
G00 Z0.100000
M05
(End cutting path id: path11384)


(Start cutting path id: path11388)
(Change tool to Default tool)

G00 Z0.100000
G00 X86.896921 Y29.741200
M03 S35
G01 Z-1.000000 F800.0(Penetrate)
G02 X81.028810 Y29.393003 Z-1.000000 I-5.835245 J48.719181 F2500.000000
G02 X75.161171 Y29.749060 Z-1.000000 I0.032866 J49.067378
G00 Z0.100000
M05
(End cutting path id: path11388)


(Start cutting path id: path11394)
(Change tool to Default tool)

G00 Z0.100000
G00 X84.871243 Y18.905557
M03 S35
G01 Z-1.000000 F800.0(Penetrate)
G02 X41.652752 Y33.660647 Z-1.000000 I-3.795248 J59.555749 F2500.000000
G02 X21.521160 Y74.651739 Z-1.000000 I39.423243 J44.800659
G02 X36.265858 Y117.873776 Z-1.000000 I59.554835 J3.809567
G02 X77.252109 Y138.015223 Z-1.000000 I44.810136 J-39.412470
G00 Z0.100000
M05
(End cutting path id: path11394)


(Start cutting path id: path11386)
(Change tool to Default tool)

G00 Z0.100000
G00 X106.027589 Y39.331566
M03 S35
G01 Z-1.000000 F800.0(Penetrate)
G02 X71.049854 Y33.143787 Z-1.000000 I-24.959097 J39.133173 F2500.000000
G02 X41.939667 Y53.498825 Z-1.000000 I10.018638 J45.320952
G02 X35.745796 Y88.475482 Z-1.000000 I39.128825 J24.965914
G02 X56.095762 Y117.589214 Z-1.000000 I45.322697 J-10.010743
G00 Z0.100000
M05
(End cutting path id: path11386)


(Start cutting path id: path11390)
(Change tool to Default tool)

G00 Z0.100000
G00 X115.344619 Y39.735635
M03 S35
G01 Z-1.000000 F800.0(Penetrate)
G02 X81.027029 Y26.740715 Z-1.000000 I-34.282928 J38.724749 F2500.000000
G02 X46.726888 Y39.781622 Z-1.000000 I0.034662 J51.719669
G00 Z0.100000
M05
(End cutting path id: path11390)


(Start cutting path id: path11402)
(Change tool to Default tool)

G00 Z0.100000
G00 X135.720940 Y26.246805
M03 S35
G01 Z-1.000000 F800.0(Penetrate)
G02 X110.762572 Y8.949597 Z-1.000000 I-54.659264 J52.213586 F2500.000000
G02 X81.011045 Y2.870106 Z-1.000000 I-29.700896 J69.510794
G02 X51.267689 Y8.989447 Z-1.000000 I0.050631 J75.590285
G02 X26.332515 Y26.320074 Z-1.000000 I29.793987 J69.470944
G00 Z0.100000
M05
(End cutting path id: path11402)


(Start cutting path id: path11398)
(Change tool to Default tool)

G00 Z0.100000
G00 X144.820041 Y48.880781
M03 S35
G01 Z-1.000000 F800.0(Penetrate)
G02 X118.864170 Y19.206243 Z-1.000000 I-63.758365 J29.579608 F2500.000000
G02 X81.014598 Y8.174685 Z-1.000000 I-37.802495 J59.254146
G02 X43.179838 Y19.256937 Z-1.000000 I0.047078 J70.285704
G02 X17.263742 Y48.966218 Z-1.000000 I37.881838 J59.203452
G00 Z0.100000
M05
(End cutting path id: path11398)


(Footer)
M5
G00 X0.0000 Y0.0000
M2
(Using default footer. To add your own footer create file "footer" in the output dir.)
(end)
%