%
(Header)
(Generated by gcodetools from Inkscape.)
(Using default header. To add your own header create file "header" in the output dir.)
M3
(Header end.)
G21 (All units in mm)

(Start cutting path id: path23155)
(Change tool to Default tool)
M05
G00 Z0.100000
G00 X212.104078 Y160.737150
M03 S35
G01 Z-1.000000 F800.0(Penetrate)
G01 X218.749565 Y160.732699 Z-1.000000 F2500.000000
G00 Z0.100000
M05
(End cutting path id: path23155)


(Start cutting path id: path23153)
(Change tool to Default tool)

G00 Z0.100000
G00 X209.337062 Y162.122372
M03 S35
G01 Z-1.000000 F800.0(Penetrate)
G01 X221.518434 Y162.114213 Z-1.000000 F2500.000000
G00 Z0.100000
M05
(End cutting path id: path23153)


(Start cutting path id: path23151)
(Change tool to Default tool)

G00 Z0.100000
G00 X207.726400 Y163.506819
M03 S35
G01 Z-1.000000 F800.0(Penetrate)
G01 X223.130948 Y163.496501 Z-1.000000 F2500.000000
G00 Z0.100000
M05
(End cutting path id: path23151)


(Start cutting path id: path22809)
(Change tool to Default tool)

G00 Z0.100000
G00 X207.977084 Y157.167471
M03 S35
G01 Z-1.000000 F800.0(Penetrate)
G01 X222.871773 Y157.157494 Z-1.000000 F2500.000000
G00 Z0.100000
M05
(End cutting path id: path22809)


(Start cutting path id: path22811)
(Change tool to Default tool)

G00 Z0.100000
G00 X206.787578 Y155.784899
M03 S35
G01 Z-1.000000 F800.0(Penetrate)
G01 X224.059425 Y155.773330 Z-1.000000 F2500.000000
G00 Z0.100000
M05
(End cutting path id: path22811)


(Start cutting path id: path22813)
(Change tool to Default tool)

G00 Z0.100000
G00 X205.942709 Y154.402096
M03 S35
G01 Z-1.000000 F800.0(Penetrate)
G01 X224.902442 Y154.389397 Z-1.000000 F2500.000000
G00 Z0.100000
M05
(End cutting path id: path22813)


(Start cutting path id: path22835)
(Change tool to Default tool)

G00 Z0.100000
G00 X213.081443 Y139.180277
M03 S35
G01 Z-1.000000 F800.0(Penetrate)
G01 X217.743322 Y139.177155 Z-1.000000 F2500.000000
G00 Z0.100000
M05
(End cutting path id: path22835)


(Start cutting path id: path22833)
(Change tool to Default tool)

G00 Z0.100000
G00 X209.734725 Y140.565870
M03 S35
G01 Z-1.000000 F800.0(Penetrate)
G01 X221.091893 Y140.558263 Z-1.000000 F2500.000000
G00 Z0.100000
M05
(End cutting path id: path22833)


(Start cutting path id: path22831)
(Change tool to Default tool)

G00 Z0.100000
G00 X207.982428 Y141.950412
M03 S35
G01 Z-1.000000 F800.0(Penetrate)
G01 X222.846044 Y141.940456 Z-1.000000 F2500.000000
G00 Z0.100000
M05
(End cutting path id: path22831)


(Start cutting path id: path22829)
(Change tool to Default tool)

G00 Z0.100000
G00 X206.790200 Y143.334579
M03 S35
G01 Z-1.000000 F800.0(Penetrate)
G01 X224.040125 Y143.323025 Z-1.000000 F2500.000000
G00 Z0.100000
M05
(End cutting path id: path22829)


(Start cutting path id: path22827)
(Change tool to Default tool)

G00 Z0.100000
G00 X205.943991 Y144.718533
M03 S35
G01 Z-1.000000 F800.0(Penetrate)
G01 X224.888187 Y144.705844 Z-1.000000 F2500.000000
G00 Z0.100000
M05
(End cutting path id: path22827)


(Start cutting path id: path22825)
(Change tool to Default tool)

G00 Z0.100000
G00 X205.356010 Y146.102295
M03 S35
G01 Z-1.000000 F800.0(Penetrate)
G01 X225.478021 Y146.088817 Z-1.000000 F2500.000000
G00 Z0.100000
M05
(End cutting path id: path22825)


(Start cutting path id: path22823)
(Change tool to Default tool)

G00 Z0.100000
G00 X204.982452 Y147.485896
M03 S35
G01 Z-1.000000 F800.0(Penetrate)
G01 X225.853432 Y147.471917 Z-1.000000 F2500.000000
G00 Z0.100000
M05
(End cutting path id: path22823)


(Start cutting path id: path22821)
(Change tool to Default tool)

G00 Z0.100000
G00 X204.800561 Y148.869387
M03 S35
G01 Z-1.000000 F800.0(Penetrate)
G01 X226.037176 Y148.855162 Z-1.000000 F2500.000000
G00 Z0.100000
M05
(End cutting path id: path22821)


(Start cutting path id: path22815)
(Change tool to Default tool)

G00 Z0.100000
G00 X205.355411 Y153.019139
M03 S35
G01 Z-1.000000 F800.0(Penetrate)
G01 X225.487886 Y153.005654 Z-1.000000 F2500.000000
G00 Z0.100000
M05
(End cutting path id: path22815)


(Start cutting path id: path22817)
(Change tool to Default tool)

G00 Z0.100000
G00 X204.982199 Y151.636020
M03 S35
G01 Z-1.000000 F800.0(Penetrate)
G01 X225.859245 Y151.622036 Z-1.000000 F2500.000000
G00 Z0.100000
M05
(End cutting path id: path22817)


(Start cutting path id: path22819)
(Change tool to Default tool)

G00 Z0.100000
G00 X204.800513 Y150.252755
M03 S35
G01 Z-1.000000 F800.0(Penetrate)
G01 X226.039078 Y150.238530 Z-1.000000 F2500.000000
G00 Z0.100000
M05
(End cutting path id: path22819)


(Start cutting path id: path23149)
(Change tool to Default tool)

G00 Z0.100000
G00 X206.613361 Y164.890934
M03 S35
G01 Z-1.000000 F800.0(Penetrate)
G01 X224.245841 Y164.879123 Z-1.000000 F2500.000000
G00 Z0.100000
M05
(End cutting path id: path23149)


(Start cutting path id: path23147)
(Change tool to Default tool)

G00 Z0.100000
G00 X205.823267 Y166.274831
M03 S35
G01 Z-1.000000 F800.0(Penetrate)
G01 X225.037788 Y166.261961 Z-1.000000 F2500.000000
G00 Z0.100000
M05
(End cutting path id: path23147)


(Start cutting path id: path23125)
(Change tool to Default tool)

G00 Z0.100000
G00 X215.440720 Y181.485445
M03 S35
G01 Z-1.000000 F800.0(Penetrate)
G01 X215.440720 Y181.485445 Z-1.000000 F2500.000000
G00 Z0.100000
M05
(End cutting path id: path23125)


(Start cutting path id: path23127)
(Change tool to Default tool)

G00 Z0.100000
G00 X210.193086 Y180.105591
M03 S35
G01 Z-1.000000 F800.0(Penetrate)
G01 X220.686501 Y180.098563 Z-1.000000 F2500.000000
G00 Z0.100000
M05
(End cutting path id: path23127)


(Start cutting path id: path23129)
(Change tool to Default tool)

G00 Z0.100000
G00 X208.281462 Y178.723503
M03 S35
G01 Z-1.000000 F800.0(Penetrate)
G01 X222.596271 Y178.713915 Z-1.000000 F2500.000000
G00 Z0.100000
M05
(End cutting path id: path23129)


(Start cutting path id: path23131)
(Change tool to Default tool)

G00 Z0.100000
G00 X207.005762 Y177.340989
M03 S35
G01 Z-1.000000 F800.0(Penetrate)
G01 X223.870118 Y177.329693 Z-1.000000 F2500.000000
G00 Z0.100000
M05
(End cutting path id: path23131)


(Start cutting path id: path23133)
(Change tool to Default tool)

G00 Z0.100000
G00 X206.101745 Y175.958226
M03 S35
G01 Z-1.000000 F800.0(Penetrate)
G01 X224.772283 Y175.945720 Z-1.000000 F2500.000000
G00 Z0.100000
M05
(End cutting path id: path23133)


(Start cutting path id: path23135)
(Change tool to Default tool)

G00 Z0.100000
G00 X205.467856 Y174.575281
M03 S35
G01 Z-1.000000 F800.0(Penetrate)
G01 X225.404318 Y174.561928 Z-1.000000 F2500.000000
G00 Z0.100000
M05
(End cutting path id: path23135)


(Start cutting path id: path23137)
(Change tool to Default tool)

G00 Z0.100000
G00 X205.054580 Y173.192190
M03 S35
G01 Z-1.000000 F800.0(Penetrate)
G01 X225.815741 Y173.178284 Z-1.000000 F2500.000000
G00 Z0.100000
M05
(End cutting path id: path23137)


(Start cutting path id: path23139)
(Change tool to Default tool)

G00 Z0.100000
G00 X204.836127 Y171.808967
M03 S35
G01 Z-1.000000 F800.0(Penetrate)
G01 X226.032341 Y171.794770 Z-1.000000 F2500.000000
G00 Z0.100000
M05
(End cutting path id: path23139)


(Start cutting path id: path23145)
(Change tool to Default tool)

G00 Z0.100000
G00 X205.280317 Y167.658564
M03 S35
G01 Z-1.000000 F800.0(Penetrate)
G01 X225.582591 Y167.644965 Z-1.000000 F2500.000000
G00 Z0.100000
M05
(End cutting path id: path23145)


(Start cutting path id: path23143)
(Change tool to Default tool)

G00 Z0.100000
G00 X204.945990 Y169.042156
M03 S35
G01 Z-1.000000 F800.0(Penetrate)
G01 X225.918772 Y169.028109 Z-1.000000 F2500.000000
G00 Z0.100000
M05
(End cutting path id: path23143)


(Start cutting path id: path23141)
(Change tool to Default tool)

G00 Z0.100000
G00 X204.800528 Y170.425622
M03 S35
G01 Z-1.000000 F800.0(Penetrate)
G01 X226.066087 Y170.411379 Z-1.000000 F2500.000000
G00 Z0.100000
M05
(End cutting path id: path23141)


(Start cutting path id: path23123)
(Change tool to Default tool)

G00 Z0.100000
G00 X194.479084 Y160.222175
M03 S35
G01 Z-1.000000 F800.0(Penetrate)
G01 X200.725325 Y162.490884 Z-1.000000 F2500.000000
G00 Z0.100000
M05
(End cutting path id: path23123)


(Start cutting path id: path23121)
(Change tool to Default tool)

G00 Z0.100000
G00 X191.405157 Y160.577472
M03 S35
G01 Z-1.000000 F800.0(Penetrate)
G01 X202.854698 Y164.736102 Z-1.000000 F2500.000000
G00 Z0.100000
M05
(End cutting path id: path23121)


(Start cutting path id: path23119)
(Change tool to Default tool)

G00 Z0.100000
G00 X189.418131 Y161.327560
M03 S35
G01 Z-1.000000 F800.0(Penetrate)
G01 X203.897188 Y166.586528 Z-1.000000 F2500.000000
G00 Z0.100000
M05
(End cutting path id: path23119)


(Start cutting path id: path23117)
(Change tool to Default tool)

G00 Z0.100000
G00 X187.898833 Y162.247525
M03 S35
G01 Z-1.000000 F800.0(Penetrate)
G01 X204.471968 Y168.267078 Z-1.000000 F2500.000000
G00 Z0.100000
M05
(End cutting path id: path23117)


(Start cutting path id: path23115)
(Change tool to Default tool)

G00 Z0.100000
G00 X186.683064 Y163.277725
M03 S35
G01 Z-1.000000 F800.0(Penetrate)
G01 X204.743221 Y169.837392 Z-1.000000 F2500.000000
G00 Z0.100000
M05
(End cutting path id: path23115)


(Start cutting path id: path23093)
(Change tool to Default tool)

G00 Z0.100000
G00 X190.518170 Y180.860379
M03 S35
G01 Z-1.000000 F800.0(Penetrate)
G01 X190.518170 Y180.860379 Z-1.000000 F2500.000000
G00 Z0.100000
M05
(End cutting path id: path23093)


(Start cutting path id: path23095)
(Change tool to Default tool)

G00 Z0.100000
G00 X186.058939 Y177.768965
M03 S35
G01 Z-1.000000 F800.0(Penetrate)
G01 X195.921937 Y181.351314 Z-1.000000 F2500.000000
G00 Z0.100000
M05
(End cutting path id: path23095)


(Start cutting path id: path23097)
(Change tool to Default tool)

G00 Z0.100000
G00 X184.735308 Y175.816411
M03 S35
G01 Z-1.000000 F800.0(Penetrate)
G01 X198.190103 Y180.703354 Z-1.000000 F2500.000000
G00 Z0.100000
M05
(End cutting path id: path23097)


(Start cutting path id: path23099)
(Change tool to Default tool)

G00 Z0.100000
G00 X184.009384 Y174.080947
M03 S35
G01 Z-1.000000 F800.0(Penetrate)
G01 X199.860562 Y179.838286 Z-1.000000 F2500.000000
G00 Z0.100000
M05
(End cutting path id: path23099)


(Start cutting path id: path23101)
(Change tool to Default tool)

G00 Z0.100000
G00 X183.632811 Y172.472377
M03 S35
G01 Z-1.000000 F800.0(Penetrate)
G01 X201.181671 Y178.846324 Z-1.000000 F2500.000000
G00 Z0.100000
M05
(End cutting path id: path23101)


(Start cutting path id: path23103)
(Change tool to Default tool)

G00 Z0.100000
G00 X183.510165 Y170.956039
M03 S35
G01 Z-1.000000 F800.0(Penetrate)
G01 X202.248852 Y177.762165 Z-1.000000 F2500.000000
G00 Z0.100000
M05
(End cutting path id: path23103)


(Start cutting path id: path23105)
(Change tool to Default tool)

G00 Z0.100000
G00 X183.594845 Y169.515009
M03 S35
G01 Z-1.000000 F800.0(Penetrate)
G01 X203.108708 Y176.602681 Z-1.000000 F2500.000000
G00 Z0.100000
M05
(End cutting path id: path23105)


(Start cutting path id: path23107)
(Change tool to Default tool)

G00 Z0.100000
G00 X183.862670 Y168.140488
M03 S35
G01 Z-1.000000 F800.0(Penetrate)
G01 X203.785436 Y175.376687 Z-1.000000 F2500.000000
G00 Z0.100000
M05
(End cutting path id: path23107)


(Start cutting path id: path23113)
(Change tool to Default tool)

G00 Z0.100000
G00 X185.699579 Y164.392297
M03 S35
G01 Z-1.000000 F800.0(Penetrate)
G01 X204.782134 Y171.323317 Z-1.000000 F2500.000000
G00 Z0.100000
M05
(End cutting path id: path23113)


(Start cutting path id: path23111)
(Change tool to Default tool)

G00 Z0.100000
G00 X184.912190 Y165.578106
M03 S35
G01 Z-1.000000 F800.0(Penetrate)
G01 X204.624970 Y172.738023 Z-1.000000 F2500.000000
G00 Z0.100000
M05
(End cutting path id: path23111)


(Start cutting path id: path23109)
(Change tool to Default tool)

G00 Z0.100000
G00 X184.302341 Y166.828388
M03 S35
G01 Z-1.000000 F800.0(Penetrate)
G01 X204.290283 Y174.088255 Z-1.000000 F2500.000000
G00 Z0.100000
M05
(End cutting path id: path23109)


(Start cutting path id: path22781)
(Change tool to Default tool)

G00 Z0.100000
G00 X184.541952 Y154.177640
M03 S35
G01 Z-1.000000 F800.0(Penetrate)
G01 X198.541803 Y159.262553 Z-1.000000 F2500.000000
G00 Z0.100000
M05
(End cutting path id: path22781)


(Start cutting path id: path22783)
(Change tool to Default tool)

G00 Z0.100000
G00 X183.897046 Y152.471616
M03 S35
G01 Z-1.000000 F800.0(Penetrate)
G01 X200.131226 Y158.368063 Z-1.000000 F2500.000000
G00 Z0.100000
M05
(End cutting path id: path22783)


(Start cutting path id: path22785)
(Change tool to Default tool)

G00 Z0.100000
G00 X183.576069 Y150.883245
M03 S35
G01 Z-1.000000 F800.0(Penetrate)
G01 X201.396739 Y157.355920 Z-1.000000 F2500.000000
G00 Z0.100000
M05
(End cutting path id: path22785)


(Start cutting path id: path22807)
(Change tool to Default tool)

G00 Z0.100000
G00 X195.490456 Y139.020983
M03 S35
G01 Z-1.000000 F800.0(Penetrate)
G01 X199.872260 Y140.612505 Z-1.000000 F2500.000000
G00 Z0.100000
M05
(End cutting path id: path22807)


(Start cutting path id: path22805)
(Change tool to Default tool)

G00 Z0.100000
G00 X191.871669 Y139.178397
M03 S35
G01 Z-1.000000 F800.0(Penetrate)
G01 X202.546512 Y143.055622 Z-1.000000 F2500.000000
G00 Z0.100000
M05
(End cutting path id: path22805)


(Start cutting path id: path22535)
(Change tool to Default tool)

G00 Z0.100000
G00 X205.793658 Y132.845978
M03 S35
G01 Z-1.000000 F800.0(Penetrate)
G01 X225.022616 Y132.833098 Z-1.000000 F2500.000000
G00 Z0.100000
M05
(End cutting path id: path22535)


(Start cutting path id: path22537)
(Change tool to Default tool)

G00 Z0.100000
G00 X205.251302 Y131.462973
M03 S35
G01 Z-1.000000 F800.0(Penetrate)
G01 X225.563118 Y131.449368 Z-1.000000 F2500.000000
G00 Z0.100000
M05
(End cutting path id: path22537)


(Start cutting path id: path22555)
(Change tool to Default tool)

G00 Z0.100000
G00 X210.179069 Y119.009354
M03 S35
G01 Z-1.000000 F800.0(Penetrate)
G01 X220.618673 Y119.002362 Z-1.000000 F2500.000000
G00 Z0.100000
M05
(End cutting path id: path22555)


(Start cutting path id: path22553)
(Change tool to Default tool)

G00 Z0.100000
G00 X208.259135 Y120.394009
M03 S35
G01 Z-1.000000 F800.0(Penetrate)
G01 X222.540460 Y120.384443 Z-1.000000 F2500.000000
G00 Z0.100000
M05
(End cutting path id: path22553)


(Start cutting path id: path22551)
(Change tool to Default tool)

G00 Z0.100000
G00 X206.980269 Y121.778234
M03 S35
G01 Z-1.000000 F800.0(Penetrate)
G01 X223.821179 Y121.766954 Z-1.000000 F2500.000000
G00 Z0.100000
M05
(End cutting path id: path22551)


(Start cutting path id: path22549)
(Change tool to Default tool)

G00 Z0.100000
G00 X206.074717 Y123.162209
M03 S35
G01 Z-1.000000 F800.0(Penetrate)
G01 X224.728584 Y123.149715 Z-1.000000 F2500.000000
G00 Z0.100000
M05
(End cutting path id: path22549)


(Start cutting path id: path22547)
(Change tool to Default tool)

G00 Z0.100000
G00 X205.440039 Y124.546003
M03 S35
G01 Z-1.000000 F800.0(Penetrate)
G01 X225.365115 Y124.532657 Z-1.000000 F2500.000000
G00 Z0.100000
M05
(End cutting path id: path22547)


(Start cutting path id: path22545)
(Change tool to Default tool)

G00 Z0.100000
G00 X205.026364 Y125.929649
M03 S35
G01 Z-1.000000 F800.0(Penetrate)
G01 X225.780644 Y125.915747 Z-1.000000 F2500.000000
G00 Z0.100000
M05
(End cutting path id: path22545)


(Start cutting path id: path22543)
(Change tool to Default tool)

G00 Z0.100000
G00 X204.807707 Y127.313164
M03 S35
G01 Z-1.000000 F800.0(Penetrate)
G01 X226.001154 Y127.298968 Z-1.000000 F2500.000000
G00 Z0.100000
M05
(End cutting path id: path22543)


(Start cutting path id: path22539)
(Change tool to Default tool)

G00 Z0.100000
G00 X204.917268 Y130.079828
M03 S35
G01 Z-1.000000 F800.0(Penetrate)
G01 X225.895299 Y130.065777 Z-1.000000 F2500.000000
G00 Z0.100000
M05
(End cutting path id: path22539)


(Start cutting path id: path22541)
(Change tool to Default tool)

G00 Z0.100000
G00 X204.771992 Y128.696556
M03 S35
G01 Z-1.000000 F800.0(Penetrate)
G01 X226.038722 Y128.682312 Z-1.000000 F2500.000000
G00 Z0.100000
M05
(End cutting path id: path22541)


(Start cutting path id: path22319)
(Change tool to Default tool)

G00 Z0.100000
G00 X204.859697 Y108.523630
M03 S35
G01 Z-1.000000 F800.0(Penetrate)
G01 X225.923994 Y108.509522 Z-1.000000 F2500.000000
G00 Z0.100000
M05
(End cutting path id: path22319)


(Start cutting path id: path22335)
(Change tool to Default tool)

G00 Z0.100000
G00 X210.683748 Y97.452780
M03 S35
G01 Z-1.000000 F800.0(Penetrate)
G01 X220.085117 Y97.446483 Z-1.000000 F2500.000000
G00 Z0.100000
M05
(End cutting path id: path22335)


(Start cutting path id: path22333)
(Change tool to Default tool)

G00 Z0.100000
G00 X208.559218 Y98.837572
M03 S35
G01 Z-1.000000 F800.0(Penetrate)
G01 X222.211482 Y98.828428 Z-1.000000 F2500.000000
G00 Z0.100000
M05
(End cutting path id: path22333)


(Start cutting path id: path22331)
(Change tool to Default tool)

G00 Z0.100000
G00 X207.184545 Y100.221861
M03 S35
G01 Z-1.000000 F800.0(Penetrate)
G01 X223.588026 Y100.210874 Z-1.000000 F2500.000000
G00 Z0.100000
M05
(End cutting path id: path22331)


(Start cutting path id: path22329)
(Change tool to Default tool)

G00 Z0.100000
G00 X206.215872 Y101.605897
M03 S35
G01 Z-1.000000 F800.0(Penetrate)
G01 X224.558534 Y101.593593 Z-1.000000 F2500.000000
G00 Z0.100000
M05
(End cutting path id: path22329)


(Start cutting path id: path22327)
(Change tool to Default tool)

G00 Z0.100000
G00 X205.532652 Y102.989723
M03 S35
G01 Z-1.000000 F800.0(Penetrate)
G01 X225.243625 Y102.976503 Z-1.000000 F2500.000000
G00 Z0.100000
M05
(End cutting path id: path22327)


(Start cutting path id: path22325)
(Change tool to Default tool)

G00 Z0.100000
G00 X205.077866 Y104.373378
M03 S35
G01 Z-1.000000 F800.0(Penetrate)
G01 X225.700265 Y104.359565 Z-1.000000 F2500.000000
G00 Z0.100000
M05
(End cutting path id: path22325)


(Start cutting path id: path22323)
(Change tool to Default tool)

G00 Z0.100000
G00 X204.821965 Y105.756918
M03 S35
G01 Z-1.000000 F800.0(Penetrate)
G01 X225.958019 Y105.742761 Z-1.000000 F2500.000000
G00 Z0.100000
M05
(End cutting path id: path22323)


(Start cutting path id: path22321)
(Change tool to Default tool)

G00 Z0.100000
G00 X204.750513 Y107.140335
M03 S35
G01 Z-1.000000 F800.0(Penetrate)
G01 X226.031324 Y107.126081 Z-1.000000 F2500.000000
G00 Z0.100000
M05
(End cutting path id: path22321)


(Start cutting path id: path22143)
(Change tool to Default tool)

G00 Z0.100000
G00 X204.843405 Y84.200686
M03 S35
G01 Z-1.000000 F800.0(Penetrate)
G01 X225.907702 Y84.186577 Z-1.000000 F2500.000000
G00 Z0.100000
M05
(End cutting path id: path22143)


(Start cutting path id: path22155)
(Change tool to Default tool)

G00 Z0.100000
G00 X211.271589 Y75.896168
M03 S35
G01 Z-1.000000 F800.0(Penetrate)
G01 X219.468399 Y75.890678 Z-1.000000 F2500.000000
G00 Z0.100000
M05
(End cutting path id: path22155)


(Start cutting path id: path22153)
(Change tool to Default tool)

G00 Z0.100000
G00 X208.886028 Y77.281135
M03 S35
G01 Z-1.000000 F800.0(Penetrate)
G01 X221.855813 Y77.272448 Z-1.000000 F2500.000000
G00 Z0.100000
M05
(End cutting path id: path22153)


(Start cutting path id: path22151)
(Change tool to Default tool)

G00 Z0.100000
G00 X207.404215 Y78.665496
M03 S35
G01 Z-1.000000 F800.0(Penetrate)
G01 X223.339480 Y78.654823 Z-1.000000 F2500.000000
G00 Z0.100000
M05
(End cutting path id: path22151)


(Start cutting path id: path22149)
(Change tool to Default tool)

G00 Z0.100000
G00 X206.368059 Y80.049559
M03 S35
G01 Z-1.000000 F800.0(Penetrate)
G01 X224.377489 Y80.037496 Z-1.000000 F2500.000000
G00 Z0.100000
M05
(End cutting path id: path22149)


(Start cutting path id: path22147)
(Change tool to Default tool)

G00 Z0.100000
G00 X205.634115 Y81.433419
M03 S35
G01 Z-1.000000 F800.0(Penetrate)
G01 X225.113285 Y81.420372 Z-1.000000 F2500.000000
G00 Z0.100000
M05
(End cutting path id: path22147)


(Start cutting path id: path22145)
(Change tool to Default tool)

G00 Z0.100000
G00 X205.137118 Y82.817121
M03 S35
G01 Z-1.000000 F800.0(Penetrate)
G01 X225.612136 Y82.803406 Z-1.000000 F2500.000000
G00 Z0.100000
M05
(End cutting path id: path22145)


(Start cutting path id: path22007)
(Change tool to Default tool)

G00 Z0.100000
G00 X205.744783 Y59.877109
M03 S35
G01 Z-1.000000 F800.0(Penetrate)
G01 X224.973741 Y59.864229 Z-1.000000 F2500.000000
G00 Z0.100000
M05
(End cutting path id: path22007)


(Start cutting path id: path22015)
(Change tool to Default tool)

G00 Z0.100000
G00 X211.986912 Y54.339453
M03 S35
G01 Z-1.000000 F800.0(Penetrate)
G01 X218.724199 Y54.334941 Z-1.000000 F2500.000000
G00 Z0.100000
M05
(End cutting path id: path22015)


(Start cutting path id: path22013)
(Change tool to Default tool)

G00 Z0.100000
G00 X209.244088 Y55.724659
M03 S35
G01 Z-1.000000 F800.0(Penetrate)
G01 X221.468876 Y55.716471 Z-1.000000 F2500.000000
G00 Z0.100000
M05
(End cutting path id: path22013)


(Start cutting path id: path22011)
(Change tool to Default tool)

G00 Z0.100000
G00 X207.640680 Y57.109102
M03 S35
G01 Z-1.000000 F800.0(Penetrate)
G01 X223.074137 Y57.098764 Z-1.000000 F2500.000000
G00 Z0.100000
M05
(End cutting path id: path22011)


(Start cutting path id: path22009)
(Change tool to Default tool)

G00 Z0.100000
G00 X206.531862 Y58.493213
M03 S35
G01 Z-1.000000 F800.0(Penetrate)
G01 X224.184809 Y58.481389 Z-1.000000 F2500.000000
G00 Z0.100000
M05
(End cutting path id: path22009)


(Start cutting path id: path21915)
(Change tool to Default tool)

G00 Z0.100000
G00 X212.943474 Y32.782595
M03 S35
G01 Z-1.000000 F800.0(Penetrate)
G01 X217.738760 Y32.779383 Z-1.000000 F2500.000000
G00 Z0.100000
M05
(End cutting path id: path21915)


(Start cutting path id: path21913)
(Change tool to Default tool)

G00 Z0.100000
G00 X209.639446 Y34.168176
M03 S35
G01 Z-1.000000 F800.0(Penetrate)
G01 X221.044641 Y34.160519 Z-1.000000 F2500.000000
G00 Z0.100000
M05
(End cutting path id: path21913)


(Start cutting path id: path21911)
(Change tool to Default tool)

G00 Z0.100000
G00 X207.895626 Y35.552713
M03 S35
G01 Z-1.000000 F800.0(Penetrate)
G01 X222.790314 Y35.542737 Z-1.000000 F2500.000000
G00 Z0.100000
M05
(End cutting path id: path21911)


(Start cutting path id: path21909)
(Change tool to Default tool)

G00 Z0.100000
G00 X195.351283 Y32.599571
M03 S35
G01 Z-1.000000 F800.0(Penetrate)
G01 X199.858490 Y34.236642 Z-1.000000 F2500.000000
G00 Z0.100000
M05
(End cutting path id: path21909)


(Start cutting path id: path21907)
(Change tool to Default tool)

G00 Z0.100000
G00 X191.772641 Y32.771555
M03 S35
G01 Z-1.000000 F800.0(Penetrate)
G01 X202.492632 Y36.665173 Z-1.000000 F2500.000000
G00 Z0.100000
M05
(End cutting path id: path21907)


(Start cutting path id: path21905)
(Change tool to Default tool)

G00 Z0.100000
G00 X189.660425 Y33.476165
M03 S35
G01 Z-1.000000 F800.0(Penetrate)
G01 X203.660276 Y38.561078 Z-1.000000 F2500.000000
G00 Z0.100000
M05
(End cutting path id: path21905)


(Start cutting path id: path22005)
(Change tool to Default tool)

G00 Z0.100000
G00 X194.359495 Y53.807863
M03 S35
G01 Z-1.000000 F800.0(Penetrate)
G01 X200.692005 Y56.107905 Z-1.000000 F2500.000000
G00 Z0.100000
M05
(End cutting path id: path22005)


(Start cutting path id: path22003)
(Change tool to Default tool)

G00 Z0.100000
G00 X191.308276 Y54.171427
M03 S35
G01 Z-1.000000 F800.0(Penetrate)
G01 X202.798671 Y58.344856 Z-1.000000 F2500.000000
G00 Z0.100000
M05
(End cutting path id: path22003)


(Start cutting path id: path22001)
(Change tool to Default tool)

G00 Z0.100000
G00 X189.328062 Y54.923975
M03 S35
G01 Z-1.000000 F800.0(Penetrate)
G01 X203.834332 Y60.192821 Z-1.000000 F2500.000000
G00 Z0.100000
M05
(End cutting path id: path22001)


(Start cutting path id: path21999)
(Change tool to Default tool)

G00 Z0.100000
G00 X187.812720 Y55.845374
M03 S35
G01 Z-1.000000 F800.0(Penetrate)
G01 X204.405138 Y61.871937 Z-1.000000 F2500.000000
G00 Z0.100000
M05
(End cutting path id: path21999)


(Start cutting path id: path22141)
(Change tool to Default tool)

G00 Z0.100000
G00 X193.594370 Y75.098507
M03 S35
G01 Z-1.000000 F800.0(Penetrate)
G01 X201.298770 Y77.896832 Z-1.000000 F2500.000000
G00 Z0.100000
M05
(End cutting path id: path22141)


(Start cutting path id: path22139)
(Change tool to Default tool)

G00 Z0.100000
G00 X190.879018 Y75.584044
M03 S35
G01 Z-1.000000 F800.0(Penetrate)
G01 X203.069604 Y80.011810 Z-1.000000 F2500.000000
G00 Z0.100000
M05
(End cutting path id: path22139)


(Start cutting path id: path22137)
(Change tool to Default tool)

G00 Z0.100000
G00 X189.013102 Y76.378106
M03 S35
G01 Z-1.000000 F800.0(Penetrate)
G01 X203.990984 Y81.818245 Z-1.000000 F2500.000000
G00 Z0.100000
M05
(End cutting path id: path22137)


(Start cutting path id: path22135)
(Change tool to Default tool)

G00 Z0.100000
G00 X187.566040 Y77.324306
M03 S35
G01 Z-1.000000 F800.0(Penetrate)
G01 X204.493510 Y83.472559 Z-1.000000 F2500.000000
G00 Z0.100000
M05
(End cutting path id: path22135)


(Start cutting path id: path22317)
(Change tool to Default tool)

G00 Z0.100000
G00 X192.949130 Y96.432684
M03 S35
G01 Z-1.000000 F800.0(Penetrate)
G01 X201.785702 Y99.642210 Z-1.000000 F2500.000000
G00 Z0.100000
M05
(End cutting path id: path22317)


(Start cutting path id: path22315)
(Change tool to Default tool)

G00 Z0.100000
G00 X190.479120 Y97.007319
M03 S35
G01 Z-1.000000 F800.0(Penetrate)
G01 X203.311194 Y101.668090 Z-1.000000 F2500.000000
G00 Z0.100000
M05
(End cutting path id: path22315)


(Start cutting path id: path22313)
(Change tool to Default tool)

G00 Z0.100000
G00 X188.713894 Y97.837972
M03 S35
G01 Z-1.000000 F800.0(Penetrate)
G01 X204.131866 Y103.437968 Z-1.000000 F2500.000000
G00 Z0.100000
M05
(End cutting path id: path22313)


(Start cutting path id: path22311)
(Change tool to Default tool)

G00 Z0.100000
G00 X187.330288 Y98.807204
M03 S35
G01 Z-1.000000 F800.0(Penetrate)
G01 X204.570955 Y105.069233 Z-1.000000 F2500.000000
G00 Z0.100000
M05
(End cutting path id: path22311)


(Start cutting path id: path22533)
(Change tool to Default tool)

G00 Z0.100000
G00 X192.382051 Y117.795237
M03 S35
G01 Z-1.000000 F800.0(Penetrate)
G01 X202.194455 Y121.359211 Z-1.000000 F2500.000000
G00 Z0.100000
M05
(End cutting path id: path22533)


(Start cutting path id: path22531)
(Change tool to Default tool)

G00 Z0.100000
G00 X190.104341 Y118.439728
M03 S35
G01 Z-1.000000 F800.0(Penetrate)
G01 X203.527630 Y123.315234 Z-1.000000 F2500.000000
G00 Z0.100000
M05
(End cutting path id: path22531)


(Start cutting path id: path22529)
(Change tool to Default tool)

G00 Z0.100000
G00 X188.429145 Y119.303079
M03 S35
G01 Z-1.000000 F800.0(Penetrate)
G01 X204.258290 Y125.052398 Z-1.000000 F2500.000000
G00 Z0.100000
M05
(End cutting path id: path22529)


(Start cutting path id: path22527)
(Change tool to Default tool)

G00 Z0.100000
G00 X187.104861 Y120.293873
M03 S35
G01 Z-1.000000 F800.0(Penetrate)
G01 X204.638039 Y126.662119 Z-1.000000 F2500.000000
G00 Z0.100000
M05
(End cutting path id: path22527)


(Start cutting path id: path22525)
(Change tool to Default tool)

G00 Z0.100000
G00 X186.035178 Y121.377128
M03 S35
G01 Z-1.000000 F800.0(Penetrate)
G01 X204.763168 Y128.179377 Z-1.000000 F2500.000000
G00 Z0.100000
M05
(End cutting path id: path22525)


(Start cutting path id: path22803)
(Change tool to Default tool)

G00 Z0.100000
G00 X189.751506 Y139.880121
M03 S35
G01 Z-1.000000 F800.0(Penetrate)
G01 X203.722139 Y144.954413 Z-1.000000 F2500.000000
G00 Z0.100000
M05
(End cutting path id: path22803)


(Start cutting path id: path22801)
(Change tool to Default tool)

G00 Z0.100000
G00 X188.157771 Y140.773036
M03 S35
G01 Z-1.000000 F800.0(Penetrate)
G01 X204.371338 Y146.661995 Z-1.000000 F2500.000000
G00 Z0.100000
M05
(End cutting path id: path22801)


(Start cutting path id: path22799)
(Change tool to Default tool)

G00 Z0.100000
G00 X186.889279 Y141.784099
M03 S35
G01 Z-1.000000 F800.0(Penetrate)
G01 X204.695313 Y148.251464 Z-1.000000 F2500.000000
G00 Z0.100000
M05
(End cutting path id: path22799)


(Start cutting path id: path22797)
(Change tool to Default tool)

G00 Z0.100000
G00 X185.863467 Y142.883305
M03 S35
G01 Z-1.000000 F800.0(Penetrate)
G01 X204.776572 Y149.752772 Z-1.000000 F2500.000000
G00 Z0.100000
M05
(End cutting path id: path22797)


(Start cutting path id: path22795)
(Change tool to Default tool)

G00 Z0.100000
G00 X185.039197 Y144.055713
M03 S35
G01 Z-1.000000 F800.0(Penetrate)
G01 X204.656306 Y151.180879 Z-1.000000 F2500.000000
G00 Z0.100000
M05
(End cutting path id: path22795)


(Start cutting path id: path22793)
(Change tool to Default tool)

G00 Z0.100000
G00 X184.395128 Y145.293567
M03 S35
G01 Z-1.000000 F800.0(Penetrate)
G01 X204.355857 Y152.543539 Z-1.000000 F2500.000000
G00 Z0.100000
M05
(End cutting path id: path22793)


(Start cutting path id: path22787)
(Change tool to Default tool)

G00 Z0.100000
G00 X183.497205 Y149.382804
M03 S35
G01 Z-1.000000 F800.0(Penetrate)
G01 X202.420138 Y156.255846 Z-1.000000 F2500.000000
G00 Z0.100000
M05
(End cutting path id: path22787)


(Start cutting path id: path22789)
(Change tool to Default tool)

G00 Z0.100000
G00 X183.619546 Y147.955458
M03 S35
G01 Z-1.000000 F800.0(Penetrate)
G01 X203.242332 Y155.082678 Z-1.000000 F2500.000000
G00 Z0.100000
M05
(End cutting path id: path22789)


(Start cutting path id: path22791)
(Change tool to Default tool)

G00 Z0.100000
G00 X183.921911 Y146.593488
M03 S35
G01 Z-1.000000 F800.0(Penetrate)
G01 X203.884503 Y153.844133 Z-1.000000 F2500.000000
G00 Z0.100000
M05
(End cutting path id: path22791)


(Start cutting path id: path23091)
(Change tool to Default tool)

G00 Z0.100000
G00 X176.814512 Y160.990071
M03 S35
G01 Z-1.000000 F800.0(Penetrate)
G01 X181.908115 Y165.258307 Z-1.000000 F2500.000000
G00 Z0.100000
M05
(End cutting path id: path23091)


(Start cutting path id: path23089)
(Change tool to Default tool)

G00 Z0.100000
G00 X173.804460 Y160.272612
M03 S35
G01 Z-1.000000 F800.0(Penetrate)
G01 X183.141178 Y168.096402 Z-1.000000 F2500.000000
G00 Z0.100000
M05
(End cutting path id: path23089)


(Start cutting path id: path23087)
(Change tool to Default tool)

G00 Z0.100000
G00 X171.680722 Y160.297853
M03 S35
G01 Z-1.000000 F800.0(Penetrate)
G01 X183.487910 Y170.191796 Z-1.000000 F2500.000000
G00 Z0.100000
M05
(End cutting path id: path23087)


(Start cutting path id: path23085)
(Change tool to Default tool)

G00 Z0.100000
G00 X169.938388 Y160.642698
M03 S35
G01 Z-1.000000 F800.0(Penetrate)
G01 X183.453238 Y171.967586 Z-1.000000 F2500.000000
G00 Z0.100000
M05
(End cutting path id: path23085)


(Start cutting path id: path23083)
(Change tool to Default tool)

G00 Z0.100000
G00 X168.443584 Y161.194954
M03 S35
G01 Z-1.000000 F800.0(Penetrate)
G01 X183.171035 Y173.535965 Z-1.000000 F2500.000000
G00 Z0.100000
M05
(End cutting path id: path23083)


(Start cutting path id: path23061)
(Change tool to Default tool)

G00 Z0.100000
G00 X166.033783 Y179.028935
M03 S35
G01 Z-1.000000 F800.0(Penetrate)
G01 X166.033783 Y179.028935 Z-1.000000 F2500.000000
G00 Z0.100000
M05
(End cutting path id: path23061)


(Start cutting path id: path23063)
(Change tool to Default tool)

G00 Z0.100000
G00 X162.900820 Y174.598809
M03 S35
G01 Z-1.000000 F800.0(Penetrate)
G01 X170.943770 Y181.338462 Z-1.000000 F2500.000000
G00 Z0.100000
M05
(End cutting path id: path23063)


(Start cutting path id: path23065)
(Change tool to Default tool)

G00 Z0.100000
G00 X162.324817 Y172.311299
M03 S35
G01 Z-1.000000 F800.0(Penetrate)
G01 X173.296762 Y181.505337 Z-1.000000 F2500.000000
G00 Z0.100000
M05
(End cutting path id: path23065)


(Start cutting path id: path23067)
(Change tool to Default tool)

G00 Z0.100000
G00 X162.236247 Y170.432211
M03 S35
G01 Z-1.000000 F800.0(Penetrate)
G01 X175.162339 Y181.263772 Z-1.000000 F2500.000000
G00 Z0.100000
M05
(End cutting path id: path23067)


(Start cutting path id: path23069)
(Change tool to Default tool)

G00 Z0.100000
G00 X162.432544 Y168.791866
M03 S35
G01 Z-1.000000 F800.0(Penetrate)
G01 X176.743048 Y180.783482 Z-1.000000 F2500.000000
G00 Z0.100000
M05
(End cutting path id: path23069)


(Start cutting path id: path23071)
(Change tool to Default tool)

G00 Z0.100000
G00 X162.835896 Y167.325030
M03 S35
G01 Z-1.000000 F800.0(Penetrate)
G01 X178.116685 Y180.129701 Z-1.000000 F2500.000000
G00 Z0.100000
M05
(End cutting path id: path23071)


(Start cutting path id: path23073)
(Change tool to Default tool)

G00 Z0.100000
G00 X163.408343 Y165.999858
M03 S35
G01 Z-1.000000 F800.0(Penetrate)
G01 X179.321261 Y179.334220 Z-1.000000 F2500.000000
G00 Z0.100000
M05
(End cutting path id: path23073)


(Start cutting path id: path23075)
(Change tool to Default tool)

G00 Z0.100000
G00 X164.130119 Y164.799834
M03 S35
G01 Z-1.000000 F800.0(Penetrate)
G01 X180.376492 Y178.413626 Z-1.000000 F2500.000000
G00 Z0.100000
M05
(End cutting path id: path23075)


(Start cutting path id: path23081)
(Change tool to Default tool)

G00 Z0.100000
G00 X167.138214 Y161.905958
M03 S35
G01 Z-1.000000 F800.0(Penetrate)
G01 X182.699417 Y174.945597 Z-1.000000 F2500.000000
G00 Z0.100000
M05
(End cutting path id: path23081)


(Start cutting path id: path23079)
(Change tool to Default tool)

G00 Z0.100000
G00 X165.992747 Y162.750953
M03 S35
G01 Z-1.000000 F800.0(Penetrate)
G01 X182.067877 Y176.221237 Z-1.000000 F2500.000000
G00 Z0.100000
M05
(End cutting path id: path23079)


(Start cutting path id: path23077)
(Change tool to Default tool)

G00 Z0.100000
G00 X164.992049 Y163.717250
M03 S35
G01 Z-1.000000 F800.0(Penetrate)
G01 X181.291569 Y177.375575 Z-1.000000 F2500.000000
G00 Z0.100000
M05
(End cutting path id: path23077)


(Start cutting path id: path23059)
(Change tool to Default tool)

G00 Z0.100000
G00 X158.673991 Y162.949970
M03 S35
G01 Z-1.000000 F800.0(Penetrate)
G01 X162.000608 Y168.702910 Z-1.000000 F2500.000000
G00 Z0.100000
M05
(End cutting path id: path23059)


(Start cutting path id: path23057)
(Change tool to Default tool)

G00 Z0.100000
G00 X156.090846 Y161.246272
M03 S35
G01 Z-1.000000 F800.0(Penetrate)
G01 X162.188615 Y171.791580 Z-1.000000 F2500.000000
G00 Z0.100000
M05
(End cutting path id: path23057)


(Start cutting path id: path23055)
(Change tool to Default tool)

G00 Z0.100000
G00 X154.086566 Y160.543640
M03 S35
G01 Z-1.000000 F800.0(Penetrate)
G01 X161.797758 Y173.879186 Z-1.000000 F2500.000000
G00 Z0.100000
M05
(End cutting path id: path23055)


(Start cutting path id: path23053)
(Change tool to Default tool)

G00 Z0.100000
G00 X152.331368 Y160.271778
M03 S35
G01 Z-1.000000 F800.0(Penetrate)
G01 X161.157818 Y175.536039 Z-1.000000 F2500.000000
G00 Z0.100000
M05
(End cutting path id: path23053)


(Start cutting path id: path23051)
(Change tool to Default tool)

G00 Z0.100000
G00 X150.737821 Y160.279460
M03 S35
G01 Z-1.000000 F800.0(Penetrate)
G01 X160.356227 Y176.913311 Z-1.000000 F2500.000000
G00 Z0.100000
M05
(End cutting path id: path23051)


(Start cutting path id: path23029)
(Change tool to Default tool)

G00 Z0.100000
G00 X142.373775 Y176.213737
M03 S35
G01 Z-1.000000 F800.0(Penetrate)
G01 X142.373775 Y176.213737 Z-1.000000 F2500.000000
G00 Z0.100000
M05
(End cutting path id: path23029)


(Start cutting path id: path23031)
(Change tool to Default tool)

G00 Z0.100000
G00 X140.944956 Y170.979229
M03 S35
G01 Z-1.000000 F800.0(Penetrate)
G01 X146.197732 Y180.063272 Z-1.000000 F2500.000000
G00 Z0.100000
M05
(End cutting path id: path23031)


(Start cutting path id: path23033)
(Change tool to Default tool)

G00 Z0.100000
G00 X141.186041 Y168.632661
M03 S35
G01 Z-1.000000 F800.0(Penetrate)
G01 X148.351767 Y181.024867 Z-1.000000 F2500.000000
G00 Z0.100000
M05
(End cutting path id: path23033)


(Start cutting path id: path23035)
(Change tool to Default tool)

G00 Z0.100000
G00 X141.745492 Y166.836621
M03 S35
G01 Z-1.000000 F800.0(Penetrate)
G01 X150.187453 Y181.435934 Z-1.000000 F2500.000000
G00 Z0.100000
M05
(End cutting path id: path23035)


(Start cutting path id: path23037)
(Change tool to Default tool)

G00 Z0.100000
G00 X142.490992 Y165.362337
M03 S35
G01 Z-1.000000 F800.0(Penetrate)
G01 X151.837091 Y181.525245 Z-1.000000 F2500.000000
G00 Z0.100000
M05
(End cutting path id: path23037)


(Start cutting path id: path23039)
(Change tool to Default tool)

G00 Z0.100000
G00 X143.371704 Y164.121912
M03 S35
G01 Z-1.000000 F800.0(Penetrate)
G01 X153.351517 Y181.380697 Z-1.000000 F2500.000000
G00 Z0.100000
M05
(End cutting path id: path23039)


(Start cutting path id: path23041)
(Change tool to Default tool)

G00 Z0.100000
G00 X144.362876 Y163.072460
M03 S35
G01 Z-1.000000 F800.0(Penetrate)
G01 X154.755483 Y181.045194 Z-1.000000 F2500.000000
G00 Z0.100000
M05
(End cutting path id: path23041)


(Start cutting path id: path23043)
(Change tool to Default tool)

G00 Z0.100000
G00 X145.451547 Y162.191642
M03 S35
G01 Z-1.000000 F800.0(Penetrate)
G01 X156.061949 Y180.541021 Z-1.000000 F2500.000000
G00 Z0.100000
M05
(End cutting path id: path23043)


(Start cutting path id: path23049)
(Change tool to Default tool)

G00 Z0.100000
G00 X149.267998 Y160.501127
M03 S35
G01 Z-1.000000 F800.0(Penetrate)
G01 X159.430912 Y178.076617 Z-1.000000 F2500.000000
G00 Z0.100000
M05
(End cutting path id: path23049)


(Start cutting path id: path23047)
(Change tool to Default tool)

G00 Z0.100000
G00 X147.902599 Y160.903379
M03 S35
G01 Z-1.000000 F800.0(Penetrate)
G01 X158.401173 Y179.059339 Z-1.000000 F2500.000000
G00 Z0.100000
M05
(End cutting path id: path23047)


(Start cutting path id: path23045)
(Change tool to Default tool)

G00 Z0.100000
G00 X146.631769 Y161.469159
M03 S35
G01 Z-1.000000 F800.0(Penetrate)
G01 X157.276866 Y179.878532 Z-1.000000 F2500.000000
G00 Z0.100000
M05
(End cutting path id: path23045)


(Start cutting path id: path23027)
(Change tool to Default tool)

G00 Z0.100000
G00 X139.678534 Y165.867182
M03 S35
G01 Z-1.000000 F800.0(Penetrate)
G01 X140.836895 Y172.410928 Z-1.000000 F2500.000000
G00 Z0.100000
M05
(End cutting path id: path23027)


(Start cutting path id: path23025)
(Change tool to Default tool)

G00 Z0.100000
G00 X137.833868 Y163.382735
M03 S35
G01 Z-1.000000 F800.0(Penetrate)
G01 X139.957197 Y175.377637 Z-1.000000 F2500.000000
G00 Z0.100000
M05
(End cutting path id: path23025)


(Start cutting path id: path23023)
(Change tool to Default tool)

G00 Z0.100000
G00 X136.190766 Y162.036966
M03 S35
G01 Z-1.000000 F800.0(Penetrate)
G01 X138.875900 Y177.205685 Z-1.000000 F2500.000000
G00 Z0.100000
M05
(End cutting path id: path23023)


(Start cutting path id: path23021)
(Change tool to Default tool)

G00 Z0.100000
G00 X134.634417 Y161.181189
M03 S35
G01 Z-1.000000 F800.0(Penetrate)
G01 X137.707885 Y178.543724 Z-1.000000 F2500.000000
G00 Z0.100000
M05
(End cutting path id: path23021)


(Start cutting path id: path23019)
(Change tool to Default tool)

G00 Z0.100000
G00 X133.134344 Y160.643389
M03 S35
G01 Z-1.000000 F800.0(Penetrate)
G01 X136.483578 Y179.563767 Z-1.000000 F2500.000000
G00 Z0.100000
M05
(End cutting path id: path23019)


(Start cutting path id: path22997)
(Change tool to Default tool)

G00 Z0.100000
G00 X119.824873 Y172.756035
M03 S35
G01 Z-1.000000 F800.0(Penetrate)
G01 X119.824873 Y172.756035 Z-1.000000 F2500.000000
G00 Z0.100000
M05
(End cutting path id: path22997)


(Start cutting path id: path22995)
(Change tool to Default tool)

G00 Z0.100000
G00 X119.552277 Y169.391564
M03 S35
G01 Z-1.000000 F800.0(Penetrate)
G01 X118.402684 Y175.936856 Z-1.000000 F2500.000000
G00 Z0.100000
M05
(End cutting path id: path22995)


(Start cutting path id: path22999)
(Change tool to Default tool)

G00 Z0.100000
G00 X120.272513 Y167.348520
M03 S35
G01 Z-1.000000 F800.0(Penetrate)
G01 X122.101596 Y177.681289 Z-1.000000 F2500.000000
G00 Z0.100000
M05
(End cutting path id: path22999)


(Start cutting path id: path22993)
(Change tool to Default tool)

G00 Z0.100000
G00 X118.668606 Y166.426036
M03 S35
G01 Z-1.000000 F800.0(Penetrate)
G01 X116.561348 Y178.423772 Z-1.000000 F2500.000000
G00 Z0.100000
M05
(End cutting path id: path22993)


(Start cutting path id: path22991)
(Change tool to Default tool)

G00 Z0.100000
G00 X117.584861 Y164.599438
M03 S35
G01 Z-1.000000 F800.0(Penetrate)
G01 X114.920050 Y179.771740 Z-1.000000 F2500.000000
G00 Z0.100000
M05
(End cutting path id: path22991)


(Start cutting path id: path23001)
(Change tool to Default tool)

G00 Z0.100000
G00 X121.301648 Y165.225938
M03 S35
G01 Z-1.000000 F800.0(Penetrate)
G01 X123.796825 Y179.321609 Z-1.000000 F2500.000000
G00 Z0.100000
M05
(End cutting path id: path23001)


(Start cutting path id: path23003)
(Change tool to Default tool)

G00 Z0.100000
G00 X122.441641 Y163.729558
M03 S35
G01 Z-1.000000 F800.0(Penetrate)
G01 X125.381231 Y180.335728 Z-1.000000 F2500.000000
G00 Z0.100000
M05
(End cutting path id: path23003)


(Start cutting path id: path23005)
(Change tool to Default tool)

G00 Z0.100000
G00 X123.646418 Y162.599141
M03 S35
G01 Z-1.000000 F800.0(Penetrate)
G01 X126.900834 Y180.983864 Z-1.000000 F2500.000000
G00 Z0.100000
M05
(End cutting path id: path23005)


(Start cutting path id: path23007)
(Change tool to Default tool)

G00 Z0.100000
G00 X124.898267 Y161.734744
M03 S35
G01 Z-1.000000 F800.0(Penetrate)
G01 X128.373349 Y181.366000 Z-1.000000 F2500.000000
G00 Z0.100000
M05
(End cutting path id: path23007)


(Start cutting path id: path23009)
(Change tool to Default tool)

G00 Z0.100000
G00 X126.188587 Y161.087580
M03 S35
G01 Z-1.000000 F800.0(Penetrate)
G01 X129.807428 Y181.530902 Z-1.000000 F2500.000000
G00 Z0.100000
M05
(End cutting path id: path23009)


(Start cutting path id: path23011)
(Change tool to Default tool)

G00 Z0.100000
G00 X127.512858 Y160.632257
M03 S35
G01 Z-1.000000 F800.0(Penetrate)
G01 X131.207539 Y181.503982 Z-1.000000 F2500.000000
G00 Z0.100000
M05
(End cutting path id: path23011)


(Start cutting path id: path23017)
(Change tool to Default tool)

G00 Z0.100000
G00 X131.677335 Y160.348963
M03 S35
G01 Z-1.000000 F800.0(Penetrate)
G01 X135.216187 Y180.340455 Z-1.000000 F2500.000000
G00 Z0.100000
M05
(End cutting path id: path23017)


(Start cutting path id: path23015)
(Change tool to Default tool)

G00 Z0.100000
G00 X130.256715 Y160.259978
M03 S35
G01 Z-1.000000 F800.0(Penetrate)
G01 X133.912443 Y180.911720 Z-1.000000 F2500.000000
G00 Z0.100000
M05
(End cutting path id: path23015)


(Start cutting path id: path23013)
(Change tool to Default tool)

G00 Z0.100000
G00 X128.869013 Y160.356980
M03 S35
G01 Z-1.000000 F800.0(Penetrate)
G01 X132.575764 Y181.296979 Z-1.000000 F2500.000000
G00 Z0.100000
M05
(End cutting path id: path23013)


(Start cutting path id: path22989)
(Change tool to Default tool)

G00 Z0.100000
G00 X116.415055 Y163.262965
M03 S35
G01 Z-1.000000 F800.0(Penetrate)
G01 X113.364849 Y180.629601 Z-1.000000 F2500.000000
G00 Z0.100000
M05
(End cutting path id: path22989)


(Start cutting path id: path22963)
(Change tool to Default tool)

G00 Z0.100000
G00 X98.155768 Y173.099738
M03 S35
G01 Z-1.000000 F800.0(Penetrate)
G01 X94.836879 Y178.857129 Z-1.000000 F2500.000000
G00 Z0.100000
M05
(End cutting path id: path22963)


(Start cutting path id: path22961)
(Change tool to Default tool)

G00 Z0.100000
G00 X98.339638 Y170.010818
M03 S35
G01 Z-1.000000 F800.0(Penetrate)
G01 X92.256001 Y180.564285 Z-1.000000 F2500.000000
G00 Z0.100000
M05
(End cutting path id: path22961)


(Start cutting path id: path22965)
(Change tool to Default tool)

G00 Z0.100000
G00 X98.539812 Y169.074605
M03 S35
G01 Z-1.000000 F800.0(Penetrate)
G01 X98.539812 Y169.074605 Z-1.000000 F2500.000000
G00 Z0.100000
M05
(End cutting path id: path22965)


(Start cutting path id: path22959)
(Change tool to Default tool)

G00 Z0.100000
G00 X97.945984 Y167.923738
M03 S35
G01 Z-1.000000 F800.0(Penetrate)
G01 X90.252664 Y181.269602 Z-1.000000 F2500.000000
G00 Z0.100000
M05
(End cutting path id: path22959)


(Start cutting path id: path22931)
(Change tool to Default tool)

G00 Z0.100000
G00 X75.502701 Y176.546179
M03 S35
G01 Z-1.000000 F800.0(Penetrate)
G01 X70.414821 Y180.821235 Z-1.000000 F2500.000000
G00 Z0.100000
M05
(End cutting path id: path22931)


(Start cutting path id: path22929)
(Change tool to Default tool)

G00 Z0.100000
G00 X76.731962 Y173.706435
M03 S35
G01 Z-1.000000 F800.0(Penetrate)
G01 X67.405733 Y181.542726 Z-1.000000 F2500.000000
G00 Z0.100000
M05
(End cutting path id: path22929)


(Start cutting path id: path22927)
(Change tool to Default tool)

G00 Z0.100000
G00 X77.075886 Y171.610579
M03 S35
G01 Z-1.000000 F800.0(Penetrate)
G01 X65.281963 Y181.520330 Z-1.000000 F2500.000000
G00 Z0.100000
M05
(End cutting path id: path22927)


(Start cutting path id: path22895)
(Change tool to Default tool)

G00 Z0.100000
G00 X54.924805 Y175.217013
M03 S35
G01 Z-1.000000 F800.0(Penetrate)
G01 X40.452806 Y180.495373 Z-1.000000 F2500.000000
G00 Z0.100000
M05
(End cutting path id: path22895)


(Start cutting path id: path22861)
(Change tool to Default tool)

G00 Z0.100000
G00 X32.710556 Y176.925668
M03 S35
G01 Z-1.000000 F800.0(Penetrate)
G01 X15.078076 Y176.937478 Z-1.000000 F2500.000000
G00 Z0.100000
M05
(End cutting path id: path22861)


(Start cutting path id: path22867)
(Change tool to Default tool)

G00 Z0.100000
G00 X27.219840 Y181.079451
M03 S35
G01 Z-1.000000 F800.0(Penetrate)
G01 X20.574352 Y181.083903 Z-1.000000 F2500.000000
G00 Z0.100000
M05
(End cutting path id: path22867)


(Start cutting path id: path22865)
(Change tool to Default tool)

G00 Z0.100000
G00 X29.986855 Y179.694229
M03 S35
G01 Z-1.000000 F800.0(Penetrate)
G01 X17.805484 Y179.702388 Z-1.000000 F2500.000000
G00 Z0.100000
M05
(End cutting path id: path22865)


(Start cutting path id: path22863)
(Change tool to Default tool)

G00 Z0.100000
G00 X31.597517 Y178.309782
M03 S35
G01 Z-1.000000 F800.0(Penetrate)
G01 X16.192969 Y178.320100 Z-1.000000 F2500.000000
G00 Z0.100000
M05
(End cutting path id: path22863)


(Start cutting path id: path22859)
(Change tool to Default tool)

G00 Z0.100000
G00 X33.500650 Y175.541770
M03 S35
G01 Z-1.000000 F800.0(Penetrate)
G01 X14.286129 Y175.554640 Z-1.000000 F2500.000000
G00 Z0.100000
M05
(End cutting path id: path22859)


(Start cutting path id: path22837)
(Change tool to Default tool)

G00 Z0.100000
G00 X23.883197 Y160.331156
M03 S35
G01 Z-1.000000 F800.0(Penetrate)
G01 X23.883197 Y160.331156 Z-1.000000 F2500.000000
G00 Z0.100000
M05
(End cutting path id: path22837)


(Start cutting path id: path22583)
(Change tool to Default tool)

G00 Z0.100000
G00 X26.213981 Y160.071153
M03 S35
G01 Z-1.000000 F800.0(Penetrate)
G01 X21.552084 Y160.074276 Z-1.000000 F2500.000000
G00 Z0.100000
M05
(End cutting path id: path22583)


(Start cutting path id: path22839)
(Change tool to Default tool)

G00 Z0.100000
G00 X29.130831 Y161.711010
M03 S35
G01 Z-1.000000 F800.0(Penetrate)
G01 X18.637417 Y161.718039 Z-1.000000 F2500.000000
G00 Z0.100000
M05
(End cutting path id: path22839)


(Start cutting path id: path22581)
(Change tool to Default tool)

G00 Z0.100000
G00 X29.560681 Y158.685561
M03 S35
G01 Z-1.000000 F800.0(Penetrate)
G01 X18.203514 Y158.693168 Z-1.000000 F2500.000000
G00 Z0.100000
M05
(End cutting path id: path22581)


(Start cutting path id: path22579)
(Change tool to Default tool)

G00 Z0.100000
G00 X31.312979 Y157.301019
M03 S35
G01 Z-1.000000 F800.0(Penetrate)
G01 X16.449363 Y157.310974 Z-1.000000 F2500.000000
G00 Z0.100000
M05
(End cutting path id: path22579)


(Start cutting path id: path22841)
(Change tool to Default tool)

G00 Z0.100000
G00 X31.042455 Y163.093098
M03 S35
G01 Z-1.000000 F800.0(Penetrate)
G01 X16.727646 Y163.102686 Z-1.000000 F2500.000000
G00 Z0.100000
M05
(End cutting path id: path22841)


(Start cutting path id: path22843)
(Change tool to Default tool)

G00 Z0.100000
G00 X32.318155 Y164.475612
M03 S35
G01 Z-1.000000 F800.0(Penetrate)
G01 X15.453799 Y164.486908 Z-1.000000 F2500.000000
G00 Z0.100000
M05
(End cutting path id: path22843)


(Start cutting path id: path22845)
(Change tool to Default tool)

G00 Z0.100000
G00 X33.222173 Y165.858376
M03 S35
G01 Z-1.000000 F800.0(Penetrate)
G01 X14.551634 Y165.870881 Z-1.000000 F2500.000000
G00 Z0.100000
M05
(End cutting path id: path22845)


(Start cutting path id: path22847)
(Change tool to Default tool)

G00 Z0.100000
G00 X33.856061 Y167.241320
M03 S35
G01 Z-1.000000 F800.0(Penetrate)
G01 X13.919599 Y167.254673 Z-1.000000 F2500.000000
G00 Z0.100000
M05
(End cutting path id: path22847)


(Start cutting path id: path22849)
(Change tool to Default tool)

G00 Z0.100000
G00 X34.269338 Y168.624412
M03 S35
G01 Z-1.000000 F800.0(Penetrate)
G01 X13.508176 Y168.638318 Z-1.000000 F2500.000000
G00 Z0.100000
M05
(End cutting path id: path22849)


(Start cutting path id: path22851)
(Change tool to Default tool)

G00 Z0.100000
G00 X34.487790 Y170.007634
M03 S35
G01 Z-1.000000 F800.0(Penetrate)
G01 X13.291577 Y170.021831 Z-1.000000 F2500.000000
G00 Z0.100000
M05
(End cutting path id: path22851)


(Start cutting path id: path22857)
(Change tool to Default tool)

G00 Z0.100000
G00 X34.043618 Y174.158037
M03 S35
G01 Z-1.000000 F800.0(Penetrate)
G01 X13.741308 Y174.171636 Z-1.000000 F2500.000000
G00 Z0.100000
M05
(End cutting path id: path22857)


(Start cutting path id: path22855)
(Change tool to Default tool)

G00 Z0.100000
G00 X34.377927 Y172.774445
M03 S35
G01 Z-1.000000 F800.0(Penetrate)
G01 X13.405146 Y172.788493 Z-1.000000 F2500.000000
G00 Z0.100000
M05
(End cutting path id: path22855)


(Start cutting path id: path22853)
(Change tool to Default tool)

G00 Z0.100000
G00 X34.523389 Y171.390979
M03 S35
G01 Z-1.000000 F800.0(Penetrate)
G01 X13.257830 Y171.405223 Z-1.000000 F2500.000000
G00 Z0.100000
M05
(End cutting path id: path22853)


(Start cutting path id: path22577)
(Change tool to Default tool)

G00 Z0.100000
G00 X32.505207 Y155.916834
M03 S35
G01 Z-1.000000 F800.0(Penetrate)
G01 X15.255282 Y155.928388 Z-1.000000 F2500.000000
G00 Z0.100000
M05
(End cutting path id: path22577)


(Start cutting path id: path22575)
(Change tool to Default tool)

G00 Z0.100000
G00 X33.351416 Y154.532898
M03 S35
G01 Z-1.000000 F800.0(Penetrate)
G01 X14.407219 Y154.545587 Z-1.000000 F2500.000000
G00 Z0.100000
M05
(End cutting path id: path22575)


(Start cutting path id: path22573)
(Change tool to Default tool)

G00 Z0.100000
G00 X33.939396 Y153.149136
M03 S35
G01 Z-1.000000 F800.0(Penetrate)
G01 X13.817386 Y153.162613 Z-1.000000 F2500.000000
G00 Z0.100000
M05
(End cutting path id: path22573)


(Start cutting path id: path22571)
(Change tool to Default tool)

G00 Z0.100000
G00 X34.312972 Y151.765534
M03 S35
G01 Z-1.000000 F800.0(Penetrate)
G01 X13.441957 Y151.779514 Z-1.000000 F2500.000000
G00 Z0.100000
M05
(End cutting path id: path22571)


(Start cutting path id: path22557)
(Change tool to Default tool)

G00 Z0.100000
G00 X31.318340 Y142.083960
M03 S35
G01 Z-1.000000 F800.0(Penetrate)
G01 X16.423617 Y142.093936 Z-1.000000 F2500.000000
G00 Z0.100000
M05
(End cutting path id: path22557)


(Start cutting path id: path22357)
(Change tool to Default tool)

G00 Z0.100000
G00 X29.087828 Y137.676906
M03 S35
G01 Z-1.000000 F800.0(Penetrate)
G01 X18.648223 Y137.683898 Z-1.000000 F2500.000000
G00 Z0.100000
M05
(End cutting path id: path22357)


(Start cutting path id: path22355)
(Change tool to Default tool)

G00 Z0.100000
G00 X31.007743 Y136.292251
M03 S35
G01 Z-1.000000 F800.0(Penetrate)
G01 X16.726455 Y136.301817 Z-1.000000 F2500.000000
G00 Z0.100000
M05
(End cutting path id: path22355)


(Start cutting path id: path22353)
(Change tool to Default tool)

G00 Z0.100000
G00 X32.286627 Y134.908026
M03 S35
G01 Z-1.000000 F800.0(Penetrate)
G01 X15.445718 Y134.919306 Z-1.000000 F2500.000000
G00 Z0.100000
M05
(End cutting path id: path22353)


(Start cutting path id: path22351)
(Change tool to Default tool)

G00 Z0.100000
G00 X33.192179 Y133.524051
M03 S35
G01 Z-1.000000 F800.0(Penetrate)
G01 X14.538312 Y133.536545 Z-1.000000 F2500.000000
G00 Z0.100000
M05
(End cutting path id: path22351)


(Start cutting path id: path22349)
(Change tool to Default tool)

G00 Z0.100000
G00 X33.826857 Y132.140257
M03 S35
G01 Z-1.000000 F800.0(Penetrate)
G01 X13.901781 Y132.153603 Z-1.000000 F2500.000000
G00 Z0.100000
M05
(End cutting path id: path22349)


(Start cutting path id: path22347)
(Change tool to Default tool)

G00 Z0.100000
G00 X34.240533 Y130.756611
M03 S35
G01 Z-1.000000 F800.0(Penetrate)
G01 X13.486252 Y130.770513 Z-1.000000 F2500.000000
G00 Z0.100000
M05
(End cutting path id: path22347)


(Start cutting path id: path22173)
(Change tool to Default tool)

G00 Z0.100000
G00 X28.554638 Y116.668309
M03 S35
G01 Z-1.000000 F800.0(Penetrate)
G01 X19.153269 Y116.674606 Z-1.000000 F2500.000000
G00 Z0.100000
M05
(End cutting path id: path22173)


(Start cutting path id: path22171)
(Change tool to Default tool)

G00 Z0.100000
G00 X30.679168 Y115.283518
M03 S35
G01 Z-1.000000 F800.0(Penetrate)
G01 X17.026886 Y115.292662 Z-1.000000 F2500.000000
G00 Z0.100000
M05
(End cutting path id: path22171)


(Start cutting path id: path22169)
(Change tool to Default tool)

G00 Z0.100000
G00 X32.053841 Y113.899228
M03 S35
G01 Z-1.000000 F800.0(Penetrate)
G01 X15.650360 Y113.910215 Z-1.000000 F2500.000000
G00 Z0.100000
M05
(End cutting path id: path22169)


(Start cutting path id: path22167)
(Change tool to Default tool)

G00 Z0.100000
G00 X33.022496 Y112.515211
M03 S35
G01 Z-1.000000 F800.0(Penetrate)
G01 X14.679852 Y112.527497 Z-1.000000 F2500.000000
G00 Z0.100000
M05
(End cutting path id: path22167)


(Start cutting path id: path22165)
(Change tool to Default tool)

G00 Z0.100000
G00 X33.705734 Y111.131384
M03 S35
G01 Z-1.000000 F800.0(Penetrate)
G01 X13.994761 Y111.144587 Z-1.000000 F2500.000000
G00 Z0.100000
M05
(End cutting path id: path22165)


(Start cutting path id: path22163)
(Change tool to Default tool)

G00 Z0.100000
G00 X34.160503 Y109.747711
M03 S35
G01 Z-1.000000 F800.0(Penetrate)
G01 X13.538139 Y109.761524 Z-1.000000 F2500.000000
G00 Z0.100000
M05
(End cutting path id: path22163)


(Start cutting path id: path22029)
(Change tool to Default tool)

G00 Z0.100000
G00 X27.938305 Y95.659750
M03 S35
G01 Z-1.000000 F800.0(Penetrate)
G01 X19.741459 Y95.665241 Z-1.000000 F2500.000000
G00 Z0.100000
M05
(End cutting path id: path22029)


(Start cutting path id: path22027)
(Change tool to Default tool)

G00 Z0.100000
G00 X30.323848 Y94.274784
M03 S35
G01 Z-1.000000 F800.0(Penetrate)
G01 X17.354063 Y94.283471 Z-1.000000 F2500.000000
G00 Z0.100000
M05
(End cutting path id: path22027)


(Start cutting path id: path22025)
(Change tool to Default tool)

G00 Z0.100000
G00 X31.805661 Y92.890423
M03 S35
G01 Z-1.000000 F800.0(Penetrate)
G01 X15.870396 Y92.901096 Z-1.000000 F2500.000000
G00 Z0.100000
M05
(End cutting path id: path22025)


(Start cutting path id: path22023)
(Change tool to Default tool)

G00 Z0.100000
G00 X32.841817 Y91.506360
M03 S35
G01 Z-1.000000 F800.0(Penetrate)
G01 X14.832387 Y91.518423 Z-1.000000 F2500.000000
G00 Z0.100000
M05
(End cutting path id: path22023)


(Start cutting path id: path22021)
(Change tool to Default tool)

G00 Z0.100000
G00 X33.575760 Y90.122500
M03 S35
G01 Z-1.000000 F800.0(Penetrate)
G01 X14.096590 Y90.135547 Z-1.000000 F2500.000000
G00 Z0.100000
M05
(End cutting path id: path22021)


(Start cutting path id: path22019)
(Change tool to Default tool)

G00 Z0.100000
G00 X34.072758 Y88.738798
M03 S35
G01 Z-1.000000 F800.0(Penetrate)
G01 X13.597740 Y88.752513 Z-1.000000 F2500.000000
G00 Z0.100000
M05
(End cutting path id: path22019)


(Start cutting path id: path21925)
(Change tool to Default tool)

G00 Z0.100000
G00 X27.194453 Y74.651295
M03 S35
G01 Z-1.000000 F800.0(Penetrate)
G01 X20.457167 Y74.655807 Z-1.000000 F2500.000000
G00 Z0.100000
M05
(End cutting path id: path21925)


(Start cutting path id: path21923)
(Change tool to Default tool)

G00 Z0.100000
G00 X29.937295 Y73.266089
M03 S35
G01 Z-1.000000 F800.0(Penetrate)
G01 X17.712472 Y73.274277 Z-1.000000 F2500.000000
G00 Z0.100000
M05
(End cutting path id: path21923)


(Start cutting path id: path21921)
(Change tool to Default tool)

G00 Z0.100000
G00 X31.540685 Y71.881646
M03 S35
G01 Z-1.000000 F800.0(Penetrate)
G01 X16.107228 Y71.891984 Z-1.000000 F2500.000000
G00 Z0.100000
M05
(End cutting path id: path21921)


(Start cutting path id: path21919)
(Change tool to Default tool)

G00 Z0.100000
G00 X32.649521 Y70.497535
M03 S35
G01 Z-1.000000 F800.0(Penetrate)
G01 X14.996539 Y70.509359 Z-1.000000 F2500.000000
G00 Z0.100000
M05
(End cutting path id: path21919)


(Start cutting path id: path21917)
(Change tool to Default tool)

G00 Z0.100000
G00 X33.436600 Y69.113639
M03 S35
G01 Z-1.000000 F800.0(Penetrate)
G01 X14.207607 Y69.126519 Z-1.000000 F2500.000000
G00 Z0.100000
M05
(End cutting path id: path21917)


(Start cutting path id: path21861)
(Change tool to Default tool)

G00 Z0.100000
G00 X26.209399 Y53.643001
M03 S35
G01 Z-1.000000 F800.0(Penetrate)
G01 X21.414077 Y53.646213 Z-1.000000 F2500.000000
G00 Z0.100000
M05
(End cutting path id: path21861)


(Start cutting path id: path21859)
(Change tool to Default tool)

G00 Z0.100000
G00 X29.513409 Y52.257401
M03 S35
G01 Z-1.000000 F800.0(Penetrate)
G01 X18.108214 Y52.265041 Z-1.000000 F2500.000000
G00 Z0.100000
M05
(End cutting path id: path21859)


(Start cutting path id: path21857)
(Change tool to Default tool)

G00 Z0.100000
G00 X31.257247 Y50.872865
M03 S35
G01 Z-1.000000 F800.0(Penetrate)
G01 X16.362523 Y50.882841 Z-1.000000 F2500.000000
G00 Z0.100000
M05
(End cutting path id: path21857)


(Start cutting path id: path21867)
(Change tool to Default tool)

G00 Z0.100000
G00 X50.892363 Y52.181167
M03 S35
G01 Z-1.000000 F800.0(Penetrate)
G01 X46.387353 Y53.824274 Z-1.000000 F2500.000000
G00 Z0.100000
M05
(End cutting path id: path21867)


(Start cutting path id: path21865)
(Change tool to Default tool)

G00 Z0.100000
G00 X53.523231 Y49.749110
M03 S35
G01 Z-1.000000 F800.0(Penetrate)
G01 X42.808466 Y53.657085 Z-1.000000 F2500.000000
G00 Z0.100000
M05
(End cutting path id: path21865)


(Start cutting path id: path21863)
(Change tool to Default tool)

G00 Z0.100000
G00 X54.688353 Y47.851642
M03 S35
G01 Z-1.000000 F800.0(Penetrate)
G01 X40.695309 Y52.955305 Z-1.000000 F2500.000000
G00 Z0.100000
M05
(End cutting path id: path21863)


(Start cutting path id: path21927)
(Change tool to Default tool)

G00 Z0.100000
G00 X55.696773 Y65.535331
M03 S35
G01 Z-1.000000 F800.0(Penetrate)
G01 X37.631838 Y72.124143 Z-1.000000 F2500.000000
G00 Z0.100000
M05
(End cutting path id: path21927)


(Start cutting path id: path21935)
(Change tool to Default tool)

G00 Z0.100000
G00 X51.725053 Y72.873978
M03 S35
G01 Z-1.000000 F800.0(Penetrate)
G01 X45.395631 Y75.182501 Z-1.000000 F2500.000000
G00 Z0.100000
M05
(End cutting path id: path21935)


(Start cutting path id: path21933)
(Change tool to Default tool)

G00 Z0.100000
G00 X53.828721 Y70.634207
M03 S35
G01 Z-1.000000 F800.0(Penetrate)
G01 X42.343945 Y74.823025 Z-1.000000 F2500.000000
G00 Z0.100000
M05
(End cutting path id: path21933)


(Start cutting path id: path21931)
(Change tool to Default tool)

G00 Z0.100000
G00 X54.861905 Y68.784856
M03 S35
G01 Z-1.000000 F800.0(Penetrate)
G01 X40.362742 Y74.073130 Z-1.000000 F2500.000000
G00 Z0.100000
M05
(End cutting path id: path21931)


(Start cutting path id: path22017)
(Change tool to Default tool)

G00 Z0.100000
G00 X34.366471 Y87.355233
M03 S35
G01 Z-1.000000 F800.0(Penetrate)
G01 X13.302174 Y87.369342 Z-1.000000 F2500.000000
G00 Z0.100000
M05
(End cutting path id: path22017)


(Start cutting path id: path22157)
(Change tool to Default tool)

G00 Z0.100000
G00 X34.378689 Y105.597459
M03 S35
G01 Z-1.000000 F800.0(Penetrate)
G01 X13.314393 Y105.611568 Z-1.000000 F2500.000000
G00 Z0.100000
M05
(End cutting path id: path22157)


(Start cutting path id: path22159)
(Change tool to Default tool)

G00 Z0.100000
G00 X34.487873 Y106.980754
M03 S35
G01 Z-1.000000 F800.0(Penetrate)
G01 X13.207062 Y106.995008 Z-1.000000 F2500.000000
G00 Z0.100000
M05
(End cutting path id: path22159)


(Start cutting path id: path22161)
(Change tool to Default tool)

G00 Z0.100000
G00 X34.416422 Y108.364171
M03 S35
G01 Z-1.000000 F800.0(Penetrate)
G01 X13.280367 Y108.378328 Z-1.000000 F2500.000000
G00 Z0.100000
M05
(End cutting path id: path22161)


(Start cutting path id: path22337)
(Change tool to Default tool)

G00 Z0.100000
G00 X33.473256 Y123.840282
M03 S35
G01 Z-1.000000 F800.0(Penetrate)
G01 X14.244263 Y123.853162 Z-1.000000 F2500.000000
G00 Z0.100000
M05
(End cutting path id: path22337)


(Start cutting path id: path22339)
(Change tool to Default tool)

G00 Z0.100000
G00 X34.015594 Y125.223287
M03 S35
G01 Z-1.000000 F800.0(Penetrate)
G01 X13.703778 Y125.236892 Z-1.000000 F2500.000000
G00 Z0.100000
M05
(End cutting path id: path22339)


(Start cutting path id: path22341)
(Change tool to Default tool)

G00 Z0.100000
G00 X34.349629 Y126.606432
M03 S35
G01 Z-1.000000 F800.0(Penetrate)
G01 X13.371597 Y126.620483 Z-1.000000 F2500.000000
G00 Z0.100000
M05
(End cutting path id: path22341)


(Start cutting path id: path22343)
(Change tool to Default tool)

G00 Z0.100000
G00 X34.494922 Y127.989704
M03 S35
G01 Z-1.000000 F800.0(Penetrate)
G01 X13.228175 Y128.003948 Z-1.000000 F2500.000000
G00 Z0.100000
M05
(End cutting path id: path22343)


(Start cutting path id: path22345)
(Change tool to Default tool)

G00 Z0.100000
G00 X34.459189 Y129.373096
M03 S35
G01 Z-1.000000 F800.0(Penetrate)
G01 X13.265743 Y129.387292 Z-1.000000 F2500.000000
G00 Z0.100000
M05
(End cutting path id: path22345)


(Start cutting path id: path22559)
(Change tool to Default tool)

G00 Z0.100000
G00 X32.507828 Y143.466532
M03 S35
G01 Z-1.000000 F800.0(Penetrate)
G01 X15.235982 Y143.478100 Z-1.000000 F2500.000000
G00 Z0.100000
M05
(End cutting path id: path22559)


(Start cutting path id: path22561)
(Change tool to Default tool)

G00 Z0.100000
G00 X33.352698 Y144.849334
M03 S35
G01 Z-1.000000 F800.0(Penetrate)
G01 X14.392965 Y144.862034 Z-1.000000 F2500.000000
G00 Z0.100000
M05
(End cutting path id: path22561)


(Start cutting path id: path22563)
(Change tool to Default tool)

G00 Z0.100000
G00 X33.939995 Y146.232292
M03 S35
G01 Z-1.000000 F800.0(Penetrate)
G01 X13.807539 Y146.245777 Z-1.000000 F2500.000000
G00 Z0.100000
M05
(End cutting path id: path22563)


(Start cutting path id: path22565)
(Change tool to Default tool)

G00 Z0.100000
G00 X34.313208 Y147.615411
M03 S35
G01 Z-1.000000 F800.0(Penetrate)
G01 X13.436162 Y147.629394 Z-1.000000 F2500.000000
G00 Z0.100000
M05
(End cutting path id: path22565)


(Start cutting path id: path22567)
(Change tool to Default tool)

G00 Z0.100000
G00 X34.494894 Y148.998658
M03 S35
G01 Z-1.000000 F800.0(Penetrate)
G01 X13.256328 Y149.012883 Z-1.000000 F2500.000000
G00 Z0.100000
M05
(End cutting path id: path22567)


(Start cutting path id: path22569)
(Change tool to Default tool)

G00 Z0.100000
G00 X34.494828 Y150.382044
M03 S35
G01 Z-1.000000 F800.0(Penetrate)
G01 X13.258248 Y150.396268 Z-1.000000 F2500.000000
G00 Z0.100000
M05
(End cutting path id: path22569)


(Start cutting path id: path22869)
(Change tool to Default tool)

G00 Z0.100000
G00 X41.526677 Y160.961097
M03 S35
G01 Z-1.000000 F800.0(Penetrate)
G01 X41.526677 Y160.961080 Z-1.000000 F2500.000000
G00 Z0.100000
M05
(End cutting path id: path22869)


(Start cutting path id: path22871)
(Change tool to Default tool)

G00 Z0.100000
G00 X46.929782 Y160.462924
M03 S35
G01 Z-1.000000 F800.0(Penetrate)
G01 X37.071591 Y164.058482 Z-1.000000 F2500.000000
G00 Z0.100000
M05
(End cutting path id: path22871)


(Start cutting path id: path22873)
(Change tool to Default tool)

G00 Z0.100000
G00 X49.198814 Y161.107845
M03 S35
G01 Z-1.000000 F800.0(Penetrate)
G01 X35.750577 Y166.012808 Z-1.000000 F2500.000000
G00 Z0.100000
M05
(End cutting path id: path22873)


(Start cutting path id: path22875)
(Change tool to Default tool)

G00 Z0.100000
G00 X50.870431 Y161.970675
M03 S35
G01 Z-1.000000 F800.0(Penetrate)
G01 X35.026979 Y167.749243 Z-1.000000 F2500.000000
G00 Z0.100000
M05
(End cutting path id: path22875)


(Start cutting path id: path22877)
(Change tool to Default tool)

G00 Z0.100000
G00 X52.192867 Y162.960866
M03 S35
G01 Z-1.000000 F800.0(Penetrate)
G01 X34.652561 Y169.358316 Z-1.000000 F2500.000000
G00 Z0.100000
M05
(End cutting path id: path22877)


(Start cutting path id: path22879)
(Change tool to Default tool)

G00 Z0.100000
G00 X53.261517 Y164.043594
M03 S35
G01 Z-1.000000 F800.0(Penetrate)
G01 X34.531947 Y170.874817 Z-1.000000 F2500.000000
G00 Z0.100000
M05
(End cutting path id: path22879)


(Start cutting path id: path22899)
(Change tool to Default tool)

G00 Z0.100000
G00 X51.758431 Y179.316903
M03 S35
G01 Z-1.000000 F800.0(Penetrate)
G01 X45.515235 Y181.593977 Z-1.000000 F2500.000000
G00 Z0.100000
M05
(End cutting path id: path22899)


(Start cutting path id: path22897)
(Change tool to Default tool)

G00 Z0.100000
G00 X53.884794 Y177.068852
M03 S35
G01 Z-1.000000 F800.0(Penetrate)
G01 X42.440835 Y181.242798 Z-1.000000 F2500.000000
G00 Z0.100000
M05
(End cutting path id: path22897)


(Start cutting path id: path22893)
(Change tool to Default tool)

G00 Z0.100000
G00 X55.497333 Y173.535695
M03 S35
G01 Z-1.000000 F800.0(Penetrate)
G01 X38.932277 Y179.577444 Z-1.000000 F2500.000000
G00 Z0.100000
M05
(End cutting path id: path22893)


(Start cutting path id: path22891)
(Change tool to Default tool)

G00 Z0.100000
G00 X55.766464 Y171.965019
M03 S35
G01 Z-1.000000 F800.0(Penetrate)
G01 X37.715111 Y178.548873 Z-1.000000 F2500.000000
G00 Z0.100000
M05
(End cutting path id: path22891)


(Start cutting path id: path22889)
(Change tool to Default tool)

G00 Z0.100000
G00 X55.803405 Y170.479043
M03 S35
G01 Z-1.000000 F800.0(Penetrate)
G01 X36.730151 Y177.435620 Z-1.000000 F2500.000000
G00 Z0.100000
M05
(End cutting path id: path22889)


(Start cutting path id: path22887)
(Change tool to Default tool)

G00 Z0.100000
G00 X55.644363 Y169.064549
M03 S35
G01 Z-1.000000 F800.0(Penetrate)
G01 X35.941175 Y176.250867 Z-1.000000 F2500.000000
G00 Z0.100000
M05
(End cutting path id: path22887)


(Start cutting path id: path22885)
(Change tool to Default tool)

G00 Z0.100000
G00 X55.307868 Y167.714766
M03 S35
G01 Z-1.000000 F800.0(Penetrate)
G01 X35.329651 Y175.001403 Z-1.000000 F2500.000000
G00 Z0.100000
M05
(End cutting path id: path22885)


(Start cutting path id: path22881)
(Change tool to Default tool)

G00 Z0.100000
G00 X54.122908 Y165.201926
M03 S35
G01 Z-1.000000 F800.0(Penetrate)
G01 X34.618557 Y172.315732 Z-1.000000 F2500.000000
G00 Z0.100000
M05
(End cutting path id: path22881)


(Start cutting path id: path22883)
(Change tool to Default tool)

G00 Z0.100000
G00 X54.801278 Y166.427012
M03 S35
G01 Z-1.000000 F800.0(Penetrate)
G01 X34.888205 Y173.689893 Z-1.000000 F2500.000000
G00 Z0.100000
M05
(End cutting path id: path22883)


(Start cutting path id: path22611)
(Change tool to Default tool)

G00 Z0.100000
G00 X50.906183 Y158.631235
M03 S35
G01 Z-1.000000 F800.0(Penetrate)
G01 X46.526497 Y160.228625 Z-1.000000 F2500.000000
G00 Z0.100000
M05
(End cutting path id: path22611)


(Start cutting path id: path22609)
(Change tool to Default tool)

G00 Z0.100000
G00 X53.577142 Y156.184537
M03 S35
G01 Z-1.000000 F800.0(Penetrate)
G01 X42.907520 Y160.076058 Z-1.000000 F2500.000000
G00 Z0.100000
M05
(End cutting path id: path22609)


(Start cutting path id: path22607)
(Change tool to Default tool)

G00 Z0.100000
G00 X54.750225 Y154.284173
M03 S35
G01 Z-1.000000 F800.0(Penetrate)
G01 X40.786401 Y159.377175 Z-1.000000 F2500.000000
G00 Z0.100000
M05
(End cutting path id: path22607)


(Start cutting path id: path22605)
(Change tool to Default tool)

G00 Z0.100000
G00 X55.397135 Y152.575723
M03 S35
G01 Z-1.000000 F800.0(Penetrate)
G01 X39.191472 Y158.486396 Z-1.000000 F2500.000000
G00 Z0.100000
M05
(End cutting path id: path22605)


(Start cutting path id: path22603)
(Change tool to Default tool)

G00 Z0.100000
G00 X55.718981 Y150.985821
M03 S35
G01 Z-1.000000 F800.0(Penetrate)
G01 X37.921608 Y157.477033 Z-1.000000 F2500.000000
G00 Z0.100000
M05
(End cutting path id: path22603)


(Start cutting path id: path22601)
(Change tool to Default tool)

G00 Z0.100000
G00 X55.798228 Y149.484405
M03 S35
G01 Z-1.000000 F800.0(Penetrate)
G01 X36.894343 Y156.379202 Z-1.000000 F2500.000000
G00 Z0.100000
M05
(End cutting path id: path22601)


(Start cutting path id: path22599)
(Change tool to Default tool)

G00 Z0.100000
G00 X55.676049 Y148.056460
M03 S35
G01 Z-1.000000 F800.0(Penetrate)
G01 X36.068503 Y155.207900 Z-1.000000 F2500.000000
G00 Z0.100000
M05
(End cutting path id: path22599)


(Start cutting path id: path22585)
(Change tool to Default tool)

G00 Z0.100000
G00 X49.550725 Y139.982985
M03 S35
G01 Z-1.000000 F800.0(Penetrate)
G01 X35.557681 Y145.086648 Z-1.000000 F2500.000000
G00 Z0.100000
M05
(End cutting path id: path22585)


(Start cutting path id: path22587)
(Change tool to Default tool)

G00 Z0.100000
G00 X51.141346 Y140.875345
M03 S35
G01 Z-1.000000 F800.0(Penetrate)
G01 X34.915079 Y146.793535 Z-1.000000 F2500.000000
G00 Z0.100000
M05
(End cutting path id: path22587)


(Start cutting path id: path22589)
(Change tool to Default tool)

G00 Z0.100000
G00 X52.408213 Y141.885792
M03 S35
G01 Z-1.000000 F800.0(Penetrate)
G01 X34.596248 Y148.382334 Z-1.000000 F2500.000000
G00 Z0.100000
M05
(End cutting path id: path22589)


(Start cutting path id: path22591)
(Change tool to Default tool)

G00 Z0.100000
G00 X53.433085 Y142.984494
M03 S35
G01 Z-1.000000 F800.0(Penetrate)
G01 X34.519376 Y149.882880 Z-1.000000 F2500.000000
G00 Z0.100000
M05
(End cutting path id: path22591)


(Start cutting path id: path22593)
(Change tool to Default tool)

G00 Z0.100000
G00 X54.256850 Y144.156560
M03 S35
G01 Z-1.000000 F800.0(Penetrate)
G01 X34.643629 Y151.310061 Z-1.000000 F2500.000000
G00 Z0.100000
M05
(End cutting path id: path22593)


(Start cutting path id: path22595)
(Change tool to Default tool)

G00 Z0.100000
G00 X54.900679 Y145.394243
M03 S35
G01 Z-1.000000 F800.0(Penetrate)
G01 X34.947818 Y152.671624 Z-1.000000 F2500.000000
G00 Z0.100000
M05
(End cutting path id: path22595)


(Start cutting path id: path22597)
(Change tool to Default tool)

G00 Z0.100000
G00 X55.373758 Y146.694204
M03 S35
G01 Z-1.000000 F800.0(Penetrate)
G01 X35.422776 Y153.970909 Z-1.000000 F2500.000000
G00 Z0.100000
M05
(End cutting path id: path22597)


(Start cutting path id: path22901)
(Change tool to Default tool)

G00 Z0.100000
G00 X59.609937 Y162.796829
M03 S35
G01 Z-1.000000 F800.0(Penetrate)
G01 X59.609937 Y162.796829 Z-1.000000 F2500.000000
G00 Z0.100000
M05
(End cutting path id: path22901)


(Start cutting path id: path22903)
(Change tool to Default tool)

G00 Z0.100000
G00 X64.516826 Y160.480727
M03 S35
G01 Z-1.000000 F800.0(Penetrate)
G01 X56.482911 Y167.231148 Z-1.000000 F2500.000000
G00 Z0.100000
M05
(End cutting path id: path22903)


(Start cutting path id: path22905)
(Change tool to Default tool)

G00 Z0.100000
G00 X66.869591 Y160.310699
M03 S35
G01 Z-1.000000 F800.0(Penetrate)
G01 X55.909973 Y169.519428 Z-1.000000 F2500.000000
G00 Z0.100000
M05
(End cutting path id: path22905)


(Start cutting path id: path22907)
(Change tool to Default tool)

G00 Z0.100000
G00 X68.735490 Y160.549766
M03 S35
G01 Z-1.000000 F800.0(Penetrate)
G01 X55.823920 Y171.398615 Z-1.000000 F2500.000000
G00 Z0.100000
M05
(End cutting path id: path22907)


(Start cutting path id: path22909)
(Change tool to Default tool)

G00 Z0.100000
G00 X70.316841 Y161.027937
M03 S35
G01 Z-1.000000 F800.0(Penetrate)
G01 X56.022415 Y173.038714 Z-1.000000 F2500.000000
G00 Z0.100000
M05
(End cutting path id: path22909)


(Start cutting path id: path22911)
(Change tool to Default tool)

G00 Z0.100000
G00 X71.691371 Y161.679878
M03 S35
G01 Z-1.000000 F800.0(Penetrate)
G01 X56.427748 Y174.505026 Z-1.000000 F2500.000000
G00 Z0.100000
M05
(End cutting path id: path22911)


(Start cutting path id: path22913)
(Change tool to Default tool)

G00 Z0.100000
G00 X72.896994 Y162.473745
M03 S35
G01 Z-1.000000 F800.0(Penetrate)
G01 X57.001953 Y175.829412 Z-1.000000 F2500.000000
G00 Z0.100000
M05
(End cutting path id: path22913)


(Start cutting path id: path22925)
(Change tool to Default tool)

G00 Z0.100000
G00 X77.038835 Y169.834837
M03 S35
G01 Z-1.000000 F800.0(Penetrate)
G01 X63.539168 Y181.177819 Z-1.000000 F2500.000000
G00 Z0.100000
M05
(End cutting path id: path22925)


(Start cutting path id: path22923)
(Change tool to Default tool)

G00 Z0.100000
G00 X76.754549 Y168.266837
M03 S35
G01 Z-1.000000 F800.0(Penetrate)
G01 X62.043626 Y180.627566 Z-1.000000 F2500.000000
G00 Z0.100000
M05
(End cutting path id: path22923)


(Start cutting path id: path22921)
(Change tool to Default tool)

G00 Z0.100000
G00 X76.281025 Y166.857839
M03 S35
G01 Z-1.000000 F800.0(Penetrate)
G01 X60.737304 Y179.918311 Z-1.000000 F2500.000000
G00 Z0.100000
M05
(End cutting path id: path22921)


(Start cutting path id: path22919)
(Change tool to Default tool)

G00 Z0.100000
G00 X75.647777 Y165.583045
M03 S35
G01 Z-1.000000 F800.0(Penetrate)
G01 X59.590707 Y179.074852 Z-1.000000 F2500.000000
G00 Z0.100000
M05
(End cutting path id: path22919)


(Start cutting path id: path22917)
(Change tool to Default tool)

G00 Z0.100000
G00 X74.869924 Y164.429748
M03 S35
G01 Z-1.000000 F800.0(Penetrate)
G01 X58.588715 Y178.109896 Z-1.000000 F2500.000000
G00 Z0.100000
M05
(End cutting path id: path22917)


(Start cutting path id: path22915)
(Change tool to Default tool)

G00 Z0.100000
G00 X73.953457 Y163.392924
M03 S35
G01 Z-1.000000 F800.0(Penetrate)
G01 X57.725336 Y177.028468 Z-1.000000 F2500.000000
G00 Z0.100000
M05
(End cutting path id: path22915)


(Start cutting path id: path22933)
(Change tool to Default tool)

G00 Z0.100000
G00 X78.518891 Y165.615210
M03 S35
G01 Z-1.000000 F800.0(Penetrate)
G01 X78.518891 Y165.615210 Z-1.000000 F2500.000000
G00 Z0.100000
M05
(End cutting path id: path22933)


(Start cutting path id: path22935)
(Change tool to Default tool)

G00 Z0.100000
G00 X82.337688 Y161.760555
M03 S35
G01 Z-1.000000 F800.0(Penetrate)
G01 X77.097068 Y170.851627 Z-1.000000 F2500.000000
G00 Z0.100000
M05
(End cutting path id: path22935)


(Start cutting path id: path22937)
(Change tool to Default tool)

G00 Z0.100000
G00 X84.490433 Y160.796076
M03 S35
G01 Z-1.000000 F800.0(Penetrate)
G01 X77.341332 Y173.197870 Z-1.000000 F2500.000000
G00 Z0.100000
M05
(End cutting path id: path22937)


(Start cutting path id: path22939)
(Change tool to Default tool)

G00 Z0.100000
G00 X86.325567 Y160.382550
M03 S35
G01 Z-1.000000 F800.0(Penetrate)
G01 X77.903171 Y174.993159 Z-1.000000 F2500.000000
G00 Z0.100000
M05
(End cutting path id: path22939)


(Start cutting path id: path22941)
(Change tool to Default tool)

G00 Z0.100000
G00 X87.975084 Y160.291029
M03 S35
G01 Z-1.000000 F800.0(Penetrate)
G01 X78.650645 Y176.466443 Z-1.000000 F2500.000000
G00 Z0.100000
M05
(End cutting path id: path22941)


(Start cutting path id: path22943)
(Change tool to Default tool)

G00 Z0.100000
G00 X89.489702 Y160.433548
M03 S35
G01 Z-1.000000 F800.0(Penetrate)
G01 X79.533036 Y177.705687 Z-1.000000 F2500.000000
G00 Z0.100000
M05
(End cutting path id: path22943)


(Start cutting path id: path22945)
(Change tool to Default tool)

G00 Z0.100000
G00 X90.894133 Y160.767170
M03 S35
G01 Z-1.000000 F800.0(Penetrate)
G01 X80.525595 Y178.753811 Z-1.000000 F2500.000000
G00 Z0.100000
M05
(End cutting path id: path22945)


(Start cutting path id: path22957)
(Change tool to Default tool)

G00 Z0.100000
G00 X97.303826 Y166.267744
M03 S35
G01 Z-1.000000 F800.0(Penetrate)
G01 X88.497831 Y181.543815 Z-1.000000 F2500.000000
G00 Z0.100000
M05
(End cutting path id: path22957)


(Start cutting path id: path22955)
(Change tool to Default tool)

G00 Z0.100000
G00 X96.500390 Y164.891564
M03 S35
G01 Z-1.000000 F800.0(Penetrate)
G01 X86.904276 Y181.538267 Z-1.000000 F2500.000000
G00 Z0.100000
M05
(End cutting path id: path22955)


(Start cutting path id: path22953)
(Change tool to Default tool)

G00 Z0.100000
G00 X95.573518 Y163.729482
M03 S35
G01 Z-1.000000 F800.0(Penetrate)
G01 X85.434157 Y181.318569 Z-1.000000 F2500.000000
G00 Z0.100000
M05
(End cutting path id: path22953)


(Start cutting path id: path22951)
(Change tool to Default tool)

G00 Z0.100000
G00 X94.542463 Y162.748140
M03 S35
G01 Z-1.000000 F800.0(Penetrate)
G01 X84.068220 Y180.918148 Z-1.000000 F2500.000000
G00 Z0.100000
M05
(End cutting path id: path22951)


(Start cutting path id: path22949)
(Change tool to Default tool)

G00 Z0.100000
G00 X93.417060 Y161.930436
M03 S35
G01 Z-1.000000 F800.0(Penetrate)
G01 X82.796633 Y180.354071 Z-1.000000 F2500.000000
G00 Z0.100000
M05
(End cutting path id: path22949)


(Start cutting path id: path22947)
(Change tool to Default tool)

G00 Z0.100000
G00 X92.201257 Y161.269592
M03 S35
G01 Z-1.000000 F800.0(Penetrate)
G01 X81.615445 Y179.633169 Z-1.000000 F2500.000000
G00 Z0.100000
M05
(End cutting path id: path22947)


(Start cutting path id: path22639)
(Change tool to Default tool)

G00 Z0.100000
G00 X74.905143 Y156.111121
M03 S35
G01 Z-1.000000 F800.0(Penetrate)
G01 X71.335933 Y159.110119 Z-1.000000 F2500.000000
G00 Z0.100000
M05
(End cutting path id: path22639)


(Start cutting path id: path22637)
(Change tool to Default tool)

G00 Z0.100000
G00 X76.578216 Y152.898457
M03 S35
G01 Z-1.000000 F800.0(Penetrate)
G01 X67.883015 Y160.204512 Z-1.000000 F2500.000000
G00 Z0.100000
M05
(End cutting path id: path22637)


(Start cutting path id: path22635)
(Change tool to Default tool)

G00 Z0.100000
G00 X77.030602 Y150.711473
M03 S35
G01 Z-1.000000 F800.0(Penetrate)
G01 X65.650801 Y160.273243 Z-1.000000 F2500.000000
G00 Z0.100000
M05
(End cutting path id: path22635)


(Start cutting path id: path22633)
(Change tool to Default tool)

G00 Z0.100000
G00 X77.054173 Y148.884808
M03 S35
G01 Z-1.000000 F800.0(Penetrate)
G01 X63.847384 Y159.981673 Z-1.000000 F2500.000000
G00 Z0.100000
M05
(End cutting path id: path22633)


(Start cutting path id: path22631)
(Change tool to Default tool)

G00 Z0.100000
G00 X76.812818 Y147.280705
M03 S35
G01 Z-1.000000 F800.0(Penetrate)
G01 X62.308893 Y159.467523 Z-1.000000 F2500.000000
G00 Z0.100000
M05
(End cutting path id: path22631)


(Start cutting path id: path22629)
(Change tool to Default tool)

G00 Z0.100000
G00 X76.373788 Y145.842739
M03 S35
G01 Z-1.000000 F800.0(Penetrate)
G01 X60.968095 Y158.787236 Z-1.000000 F2500.000000
G00 Z0.100000
M05
(End cutting path id: path22629)


(Start cutting path id: path22627)
(Change tool to Default tool)

G00 Z0.100000
G00 X75.770566 Y144.542688
M03 S35
G01 Z-1.000000 F800.0(Penetrate)
G01 X59.791454 Y157.969034 Z-1.000000 F2500.000000
G00 Z0.100000
M05
(End cutting path id: path22627)


(Start cutting path id: path22613)
(Change tool to Default tool)

G00 Z0.100000
G00 X67.253354 Y139.051081
M03 S35
G01 Z-1.000000 F800.0(Penetrate)
G01 X55.849765 Y148.632854 Z-1.000000 F2500.000000
G00 Z0.100000
M05
(End cutting path id: path22613)


(Start cutting path id: path22379)
(Change tool to Default tool)

G00 Z0.100000
G00 X53.225640 Y135.316230
M03 S35
G01 Z-1.000000 F800.0(Penetrate)
G01 X43.418019 Y138.893345 Z-1.000000 F2500.000000
G00 Z0.100000
M05
(End cutting path id: path22379)


(Start cutting path id: path22377)
(Change tool to Default tool)

G00 Z0.100000
G00 X54.556193 Y133.358422
M03 S35
G01 Z-1.000000 F800.0(Penetrate)
G01 X41.139447 Y138.251906 Z-1.000000 F2500.000000
G00 Z0.100000
M05
(End cutting path id: path22377)


(Start cutting path id: path22375)
(Change tool to Default tool)

G00 Z0.100000
G00 X55.284525 Y131.620281
M03 S35
G01 Z-1.000000 F800.0(Penetrate)
G01 X39.463096 Y137.390800 Z-1.000000 F2500.000000
G00 Z0.100000
M05
(End cutting path id: path22375)


(Start cutting path id: path22373)
(Change tool to Default tool)

G00 Z0.100000
G00 X55.662117 Y130.010053
M03 S35
G01 Z-1.000000 F800.0(Penetrate)
G01 X38.137486 Y136.401781 Z-1.000000 F2500.000000
G00 Z0.100000
M05
(End cutting path id: path22373)


(Start cutting path id: path22371)
(Change tool to Default tool)

G00 Z0.100000
G00 X55.785232 Y128.492628
M03 S35
G01 Z-1.000000 F800.0(Penetrate)
G01 X37.066353 Y135.319959 Z-1.000000 F2500.000000
G00 Z0.100000
M05
(End cutting path id: path22371)


(Start cutting path id: path22369)
(Change tool to Default tool)

G00 Z0.100000
G00 X55.700714 Y127.050949
M03 S35
G01 Z-1.000000 F800.0(Penetrate)
G01 X36.202835 Y134.162392 Z-1.000000 F2500.000000
G00 Z0.100000
M05
(End cutting path id: path22369)


(Start cutting path id: path22367)
(Change tool to Default tool)

G00 Z0.100000
G00 X55.432998 Y125.676077
M03 S35
G01 Z-1.000000 F800.0(Penetrate)
G01 X35.522532 Y132.937999 Z-1.000000 F2500.000000
G00 Z0.100000
M05
(End cutting path id: path22367)


(Start cutting path id: path22359)
(Change tool to Default tool)

G00 Z0.100000
G00 X52.614196 Y120.814147
M03 S35
G01 Z-1.000000 F800.0(Penetrate)
G01 X34.549261 Y127.402959 Z-1.000000 F2500.000000
G00 Z0.100000
M05
(End cutting path id: path22359)


(Start cutting path id: path22361)
(Change tool to Default tool)

G00 Z0.100000
G00 X53.596851 Y121.928254
M03 S35
G01 Z-1.000000 F800.0(Penetrate)
G01 X34.514625 Y128.888100 Z-1.000000 F2500.000000
G00 Z0.100000
M05
(End cutting path id: path22361)


(Start cutting path id: path22363)
(Change tool to Default tool)

G00 Z0.100000
G00 X54.383788 Y123.113735
M03 S35
G01 Z-1.000000 F800.0(Penetrate)
G01 X34.675706 Y130.301848 Z-1.000000 F2500.000000
G00 Z0.100000
M05
(End cutting path id: path22363)


(Start cutting path id: path22365)
(Change tool to Default tool)

G00 Z0.100000
G00 X54.993432 Y124.363892
M03 S35
G01 Z-1.000000 F800.0(Penetrate)
G01 X35.014098 Y131.650938 Z-1.000000 F2500.000000
G00 Z0.100000
M05
(End cutting path id: path22365)


(Start cutting path id: path22191)
(Change tool to Default tool)

G00 Z0.100000
G00 X52.817469 Y114.468588
M03 S35
G01 Z-1.000000 F800.0(Penetrate)
G01 X43.985204 Y117.689949 Z-1.000000 F2500.000000
G00 Z0.100000
M05
(End cutting path id: path22191)


(Start cutting path id: path22189)
(Change tool to Default tool)

G00 Z0.100000
G00 X54.340228 Y112.440667
M03 S35
G01 Z-1.000000 F800.0(Penetrate)
G01 X41.514426 Y117.118623 Z-1.000000 F2500.000000
G00 Z0.100000
M05
(End cutting path id: path22189)


(Start cutting path id: path22187)
(Change tool to Default tool)

G00 Z0.100000
G00 X55.158546 Y110.669690
M03 S35
G01 Z-1.000000 F800.0(Penetrate)
G01 X39.748090 Y116.290335 Z-1.000000 F2500.000000
G00 Z0.100000
M05
(End cutting path id: path22187)


(Start cutting path id: path22185)
(Change tool to Default tool)

G00 Z0.100000
G00 X55.595431 Y109.037839
M03 S35
G01 Z-1.000000 F800.0(Penetrate)
G01 X38.363187 Y115.322958 Z-1.000000 F2500.000000
G00 Z0.100000
M05
(End cutting path id: path22185)


(Start cutting path id: path22183)
(Change tool to Default tool)

G00 Z0.100000
G00 X55.764168 Y107.503800
M03 S35
G01 Z-1.000000 F800.0(Penetrate)
G01 X37.246432 Y114.257749 Z-1.000000 F2500.000000
G00 Z0.100000
M05
(End cutting path id: path22183)


(Start cutting path id: path22181)
(Change tool to Default tool)

G00 Z0.100000
G00 X55.718269 Y106.048031
M03 S35
G01 Z-1.000000 F800.0(Penetrate)
G01 X36.344295 Y113.114272 Z-1.000000 F2500.000000
G00 Z0.100000
M05
(End cutting path id: path22181)


(Start cutting path id: path22179)
(Change tool to Default tool)

G00 Z0.100000
G00 X55.485554 Y104.660402
M03 S35
G01 Z-1.000000 F800.0(Penetrate)
G01 X35.628991 Y111.902654 Z-1.000000 F2500.000000
G00 Z0.100000
M05
(End cutting path id: path22179)


(Start cutting path id: path22177)
(Change tool to Default tool)

G00 Z0.100000
G00 X55.079535 Y103.335974
M03 S35
G01 Z-1.000000 F800.0(Penetrate)
G01 X35.086992 Y110.627835 Z-1.000000 F2500.000000
G00 Z0.100000
M05
(End cutting path id: path22177)


(Start cutting path id: path22175)
(Change tool to Default tool)

G00 Z0.100000
G00 X54.503829 Y102.073450
M03 S35
G01 Z-1.000000 F800.0(Penetrate)
G01 X34.714679 Y109.291112 Z-1.000000 F2500.000000
G00 Z0.100000
M05
(End cutting path id: path22175)


(Start cutting path id: path22043)
(Change tool to Default tool)

G00 Z0.100000
G00 X52.331157 Y93.649428
M03 S35
G01 Z-1.000000 F800.0(Penetrate)
G01 X44.630530 Y96.458071 Z-1.000000 F2500.000000
G00 Z0.100000
M05
(End cutting path id: path22043)


(Start cutting path id: path22041)
(Change tool to Default tool)

G00 Z0.100000
G00 X54.099138 Y91.532080
M03 S35
G01 Z-1.000000 F800.0(Penetrate)
G01 X41.914513 Y95.976172 Z-1.000000 F2500.000000
G00 Z0.100000
M05
(End cutting path id: path22041)


(Start cutting path id: path22039)
(Change tool to Default tool)

G00 Z0.100000
G00 X55.018116 Y89.724412
M03 S35
G01 Z-1.000000 F800.0(Penetrate)
G01 X40.047535 Y95.184611 Z-1.000000 F2500.000000
G00 Z0.100000
M05
(End cutting path id: path22039)


(Start cutting path id: path22037)
(Change tool to Default tool)

G00 Z0.100000
G00 X55.518408 Y88.069427
M03 S35
G01 Z-1.000000 F800.0(Penetrate)
G01 X38.599207 Y94.240332 Z-1.000000 F2500.000000
G00 Z0.100000
M05
(End cutting path id: path22037)


(Start cutting path id: path22035)
(Change tool to Default tool)

G00 Z0.100000
G00 X55.734788 Y86.517993
M03 S35
G01 Z-1.000000 F800.0(Penetrate)
G01 X37.434826 Y93.192519 Z-1.000000 F2500.000000
G00 Z0.100000
M05
(End cutting path id: path22035)


(Start cutting path id: path22033)
(Change tool to Default tool)

G00 Z0.100000
G00 X55.728553 Y85.047760
M03 S35
G01 Z-1.000000 F800.0(Penetrate)
G01 X36.493024 Y92.063505 Z-1.000000 F2500.000000
G00 Z0.100000
M05
(End cutting path id: path22033)


(Start cutting path id: path22031)
(Change tool to Default tool)

G00 Z0.100000
G00 X55.531354 Y83.647178
M03 S35
G01 Z-1.000000 F800.0(Penetrate)
G01 X35.742205 Y90.864840 Z-1.000000 F2500.000000
G00 Z0.100000
M05
(End cutting path id: path22031)


(Start cutting path id: path21929)
(Change tool to Default tool)

G00 Z0.100000
G00 X55.430480 Y67.104977
M03 S35
G01 Z-1.000000 F800.0(Penetrate)
G01 X38.846149 Y73.153762 Z-1.000000 F2500.000000
G00 Z0.100000
M05
(End cutting path id: path21929)


(Start cutting path id: path21945)
(Change tool to Default tool)

G00 Z0.100000
G00 X75.456795 Y70.092090
M03 S35
G01 Z-1.000000 F800.0(Penetrate)
G01 X70.298633 Y74.426198 Z-1.000000 F2500.000000
G00 Z0.100000
M05
(End cutting path id: path21945)


(Start cutting path id: path22045)
(Change tool to Default tool)

G00 Z0.100000
G00 X75.439978 Y80.202131
M03 S35
G01 Z-1.000000 F800.0(Penetrate)
G01 X59.312857 Y93.752814 Z-1.000000 F2500.000000
G00 Z0.100000
M05
(End cutting path id: path22045)


(Start cutting path id: path22193)
(Change tool to Default tool)

G00 Z0.100000
G00 X73.498347 Y99.156966
M03 S35
G01 Z-1.000000 F800.0(Penetrate)
G01 X57.371226 Y112.707649 Z-1.000000 F2500.000000
G00 Z0.100000
M05
(End cutting path id: path22193)


(Start cutting path id: path22381)
(Change tool to Default tool)

G00 Z0.100000
G00 X70.854165 Y118.702136
M03 S35
G01 Z-1.000000 F800.0(Penetrate)
G01 X56.132181 Y131.072148 Z-1.000000 F2500.000000
G00 Z0.100000
M05
(End cutting path id: path22381)


(Start cutting path id: path22615)
(Change tool to Default tool)

G00 Z0.100000
G00 X69.053260 Y139.345615
M03 S35
G01 Z-1.000000 F800.0(Penetrate)
G01 X55.829704 Y150.456591 Z-1.000000 F2500.000000
G00 Z0.100000
M05
(End cutting path id: path22615)


(Start cutting path id: path22617)
(Change tool to Default tool)

G00 Z0.100000
G00 X70.589323 Y139.861842
M03 S35
G01 Z-1.000000 F800.0(Penetrate)
G01 X56.073487 Y152.058635 Z-1.000000 F2500.000000
G00 Z0.100000
M05
(End cutting path id: path22617)


(Start cutting path id: path22619)
(Change tool to Default tool)

G00 Z0.100000
G00 X71.928171 Y140.543744
M03 S35
G01 Z-1.000000 F800.0(Penetrate)
G01 X56.514484 Y153.494968 Z-1.000000 F2500.000000
G00 Z0.100000
M05
(End cutting path id: path22619)


(Start cutting path id: path22621)
(Change tool to Default tool)

G00 Z0.100000
G00 X73.103129 Y141.363365
M03 S35
G01 Z-1.000000 F800.0(Penetrate)
G01 X57.119372 Y154.793599 Z-1.000000 F2500.000000
G00 Z0.100000
M05
(End cutting path id: path22621)


(Start cutting path id: path22623)
(Change tool to Default tool)

G00 Z0.100000
G00 X74.131444 Y142.306223
M03 S35
G01 Z-1.000000 F800.0(Penetrate)
G01 X57.870903 Y155.968994 Z-1.000000 F2500.000000
G00 Z0.100000
M05
(End cutting path id: path22623)


(Start cutting path id: path22625)
(Change tool to Default tool)

G00 Z0.100000
G00 X75.020596 Y143.365979
M03 S35
G01 Z-1.000000 F800.0(Penetrate)
G01 X58.761579 Y157.027490 Z-1.000000 F2500.000000
G00 Z0.100000
M05
(End cutting path id: path22625)


(Start cutting path id: path22401)
(Change tool to Default tool)

G00 Z0.100000
G00 X76.388735 Y132.120510
M03 S35
G01 Z-1.000000 F800.0(Penetrate)
G01 X68.396050 Y138.836301 Z-1.000000 F2500.000000
G00 Z0.100000
M05
(End cutting path id: path22401)


(Start cutting path id: path22399)
(Change tool to Default tool)

G00 Z0.100000
G00 X76.969454 Y129.825698
M03 S35
G01 Z-1.000000 F800.0(Penetrate)
G01 X66.035485 Y139.012861 Z-1.000000 F2500.000000
G00 Z0.100000
M05
(End cutting path id: path22399)


(Start cutting path id: path22397)
(Change tool to Default tool)

G00 Z0.100000
G00 X77.059371 Y127.943263
M03 S35
G01 Z-1.000000 F800.0(Penetrate)
G01 X64.165740 Y138.777043 Z-1.000000 F2500.000000
G00 Z0.100000
M05
(End cutting path id: path22397)


(Start cutting path id: path22395)
(Change tool to Default tool)

G00 Z0.100000
G00 X76.863465 Y126.300999
M03 S35
G01 Z-1.000000 F800.0(Penetrate)
G01 X62.581801 Y138.301055 Z-1.000000 F2500.000000
G00 Z0.100000
M05
(End cutting path id: path22395)


(Start cutting path id: path22393)
(Change tool to Default tool)

G00 Z0.100000
G00 X76.460169 Y124.832983
M03 S35
G01 Z-1.000000 F800.0(Penetrate)
G01 X61.205250 Y137.650800 Z-1.000000 F2500.000000
G00 Z0.100000
M05
(End cutting path id: path22393)


(Start cutting path id: path22391)
(Change tool to Default tool)

G00 Z0.100000
G00 X75.887666 Y123.507159
M03 S35
G01 Z-1.000000 F800.0(Penetrate)
G01 X59.997908 Y136.858406 Z-1.000000 F2500.000000
G00 Z0.100000
M05
(End cutting path id: path22391)


(Start cutting path id: path22389)
(Change tool to Default tool)

G00 Z0.100000
G00 X75.165861 Y122.306772
M03 S35
G01 Z-1.000000 F800.0(Penetrate)
G01 X58.939867 Y135.940523 Z-1.000000 F2500.000000
G00 Z0.100000
M05
(End cutting path id: path22389)


(Start cutting path id: path22383)
(Change tool to Default tool)

G00 Z0.100000
G00 X72.158608 Y119.412970
M03 S35
G01 Z-1.000000 F800.0(Penetrate)
G01 X56.607584 Y132.479584 Z-1.000000 F2500.000000
G00 Z0.100000
M05
(End cutting path id: path22383)


(Start cutting path id: path22385)
(Change tool to Default tool)

G00 Z0.100000
G00 X73.303556 Y120.257814
M03 S35
G01 Z-1.000000 F800.0(Penetrate)
G01 X57.242498 Y133.752975 Z-1.000000 F2500.000000
G00 Z0.100000
M05
(End cutting path id: path22385)


(Start cutting path id: path22387)
(Change tool to Default tool)

G00 Z0.100000
G00 X74.304007 Y121.224065
M03 S35
G01 Z-1.000000 F800.0(Penetrate)
G01 X58.021894 Y134.904977 Z-1.000000 F2500.000000
G00 Z0.100000
M05
(End cutting path id: path22387)


(Start cutting path id: path22641)
(Change tool to Default tool)

G00 Z0.100000
G00 X84.858035 Y139.398947
M03 S35
G01 Z-1.000000 F800.0(Penetrate)
G01 X77.419331 Y152.303151 Z-1.000000 F2500.000000
G00 Z0.100000
M05
(End cutting path id: path22641)


(Start cutting path id: path22643)
(Change tool to Default tool)

G00 Z0.100000
G00 X86.650139 Y139.060099
M03 S35
G01 Z-1.000000 F800.0(Penetrate)
G01 X78.024235 Y154.023745 Z-1.000000 F2500.000000
G00 Z0.100000
M05
(End cutting path id: path22643)


(Start cutting path id: path22645)
(Change tool to Default tool)

G00 Z0.100000
G00 X88.270108 Y139.019836
M03 S35
G01 Z-1.000000 F800.0(Penetrate)
G01 X78.801239 Y155.445789 Z-1.000000 F2500.000000
G00 Z0.100000
M05
(End cutting path id: path22645)


(Start cutting path id: path22667)
(Change tool to Default tool)

G00 Z0.100000
G00 X97.883242 Y152.813067
M03 S35
G01 Z-1.000000 F800.0(Penetrate)
G01 X95.555006 Y156.851935 Z-1.000000 F2500.000000
G00 Z0.100000
M05
(End cutting path id: path22667)


(Start cutting path id: path22665)
(Change tool to Default tool)

G00 Z0.100000
G00 X98.356627 Y149.221933
M03 S35
G01 Z-1.000000 F800.0(Penetrate)
G01 X92.684631 Y159.061324 Z-1.000000 F2500.000000
G00 Z0.100000
M05
(End cutting path id: path22665)


(Start cutting path id: path22967)
(Change tool to Default tool)

G00 Z0.100000
G00 X100.809936 Y164.146305
M03 S35
G01 Z-1.000000 F800.0(Penetrate)
G01 X98.994696 Y174.481516 Z-1.000000 F2500.000000
G00 Z0.100000
M05
(End cutting path id: path22967)


(Start cutting path id: path22969)
(Change tool to Default tool)

G00 Z0.100000
G00 X102.502966 Y162.503716
M03 S35
G01 Z-1.000000 F800.0(Penetrate)
G01 X100.026673 Y176.602717 Z-1.000000 F2500.000000
G00 Z0.100000
M05
(End cutting path id: path22969)


(Start cutting path id: path22971)
(Change tool to Default tool)

G00 Z0.100000
G00 X104.086012 Y161.487476
M03 S35
G01 Z-1.000000 F800.0(Penetrate)
G01 X101.168670 Y178.097569 Z-1.000000 F2500.000000
G00 Z0.100000
M05
(End cutting path id: path22971)


(Start cutting path id: path22973)
(Change tool to Default tool)

G00 Z0.100000
G00 X105.604745 Y160.837304
M03 S35
G01 Z-1.000000 F800.0(Penetrate)
G01 X102.374961 Y179.226370 Z-1.000000 F2500.000000
G00 Z0.100000
M05
(End cutting path id: path22973)


(Start cutting path id: path22975)
(Change tool to Default tool)

G00 Z0.100000
G00 X107.076747 Y160.453196
M03 S35
G01 Z-1.000000 F800.0(Penetrate)
G01 X103.627966 Y180.089090 Z-1.000000 F2500.000000
G00 Z0.100000
M05
(End cutting path id: path22975)


(Start cutting path id: path22977)
(Change tool to Default tool)

G00 Z0.100000
G00 X108.510603 Y160.286373
M03 S35
G01 Z-1.000000 F800.0(Penetrate)
G01 X104.919152 Y180.734524 Z-1.000000 F2500.000000
G00 Z0.100000
M05
(End cutting path id: path22977)


(Start cutting path id: path22979)
(Change tool to Default tool)

G00 Z0.100000
G00 X109.910749 Y160.311418
M03 S35
G01 Z-1.000000 F800.0(Penetrate)
G01 X106.244032 Y181.188073 Z-1.000000 F2500.000000
G00 Z0.100000
M05
(End cutting path id: path22979)


(Start cutting path id: path22987)
(Change tool to Default tool)

G00 Z0.100000
G00 X115.189382 Y162.244563
M03 S35
G01 Z-1.000000 F800.0(Penetrate)
G01 X111.865497 Y181.169410 Z-1.000000 F2500.000000
G00 Z0.100000
M05
(End cutting path id: path22987)


(Start cutting path id: path22985)
(Change tool to Default tool)

G00 Z0.100000
G00 X113.920953 Y161.469573
M03 S35
G01 Z-1.000000 F800.0(Penetrate)
G01 X110.408884 Y181.465788 Z-1.000000 F2500.000000
G00 Z0.100000
M05
(End cutting path id: path22985)


(Start cutting path id: path22983)
(Change tool to Default tool)

G00 Z0.100000
G00 X112.616445 Y160.900055
M03 S35
G01 Z-1.000000 F800.0(Penetrate)
G01 X108.988385 Y181.556676 Z-1.000000 F2500.000000
G00 Z0.100000
M05
(End cutting path id: path22983)


(Start cutting path id: path22981)
(Change tool to Default tool)

G00 Z0.100000
G00 X111.279251 Y160.516587
M03 S35
G01 Z-1.000000 F800.0(Penetrate)
G01 X107.600554 Y181.461533 Z-1.000000 F2500.000000
G00 Z0.100000
M05
(End cutting path id: path22981)


(Start cutting path id: path22695)
(Change tool to Default tool)

G00 Z0.100000
G00 X119.635970 Y149.133155
M03 S35
G01 Z-1.000000 F800.0(Penetrate)
G01 X118.829508 Y153.724759 Z-1.000000 F2500.000000
G00 Z0.100000
M05
(End cutting path id: path22695)


(Start cutting path id: path22693)
(Change tool to Default tool)

G00 Z0.100000
G00 X118.852565 Y145.596690
M03 S35
G01 Z-1.000000 F800.0(Penetrate)
G01 X116.887888 Y156.782613 Z-1.000000 F2500.000000
G00 Z0.100000
M05
(End cutting path id: path22693)


(Start cutting path id: path22691)
(Change tool to Default tool)

G00 Z0.100000
G00 X117.793344 Y143.630569
M03 S35
G01 Z-1.000000 F800.0(Penetrate)
G01 X115.222103 Y158.270105 Z-1.000000 F2500.000000
G00 Z0.100000
M05
(End cutting path id: path22691)


(Start cutting path id: path22697)
(Change tool to Default tool)

G00 Z0.100000
G00 X121.506309 Y143.610133
M03 S35
G01 Z-1.000000 F800.0(Penetrate)
G01 X124.102553 Y158.276820 Z-1.000000 F2500.000000
G00 Z0.100000
M05
(End cutting path id: path22697)


(Start cutting path id: path22699)
(Change tool to Default tool)

G00 Z0.100000
G00 X122.661310 Y142.198643
M03 S35
G01 Z-1.000000 F800.0(Penetrate)
G01 X125.671934 Y159.206066 Z-1.000000 F2500.000000
G00 Z0.100000
M05
(End cutting path id: path22699)


(Start cutting path id: path22701)
(Change tool to Default tool)

G00 Z0.100000
G00 X123.876396 Y141.126481
M03 S35
G01 Z-1.000000 F800.0(Penetrate)
G01 X127.181229 Y159.795967 Z-1.000000 F2500.000000
G00 Z0.100000
M05
(End cutting path id: path22701)


(Start cutting path id: path22725)
(Change tool to Default tool)

G00 Z0.100000
G00 X141.263538 Y146.962104
M03 S35
G01 Z-1.000000 F800.0(Penetrate)
G01 X148.719522 Y159.856313 Z-1.000000 F2500.000000
G00 Z0.100000
M05
(End cutting path id: path22725)


(Start cutting path id: path22727)
(Change tool to Default tool)

G00 Z0.100000
G00 X141.866136 Y145.240683
M03 S35
G01 Z-1.000000 F800.0(Penetrate)
G01 X150.512079 Y160.192761 Z-1.000000 F2500.000000
G00 Z0.100000
M05
(End cutting path id: path22727)


(Start cutting path id: path22753)
(Change tool to Default tool)

G00 Z0.100000
G00 X162.264078 Y150.632746
M03 S35
G01 Z-1.000000 F800.0(Penetrate)
G01 X173.680493 Y160.199252 Z-1.000000 F2500.000000
G00 Z0.100000
M05
(End cutting path id: path22753)


(Start cutting path id: path22755)
(Change tool to Default tool)

G00 Z0.100000
G00 X162.241574 Y148.809056
M03 S35
G01 Z-1.000000 F800.0(Penetrate)
G01 X175.480004 Y159.902307 Z-1.000000 F2500.000000
G00 Z0.100000
M05
(End cutting path id: path22755)


(Start cutting path id: path22757)
(Change tool to Default tool)

G00 Z0.100000
G00 X162.483211 Y147.206687
M03 S35
G01 Z-1.000000 F800.0(Penetrate)
G01 X177.015373 Y159.384023 Z-1.000000 F2500.000000
G00 Z0.100000
M05
(End cutting path id: path22757)


(Start cutting path id: path22779)
(Change tool to Default tool)

G00 Z0.100000
G00 X177.736197 Y140.134764
M03 S35
G01 Z-1.000000 F800.0(Penetrate)
G01 X181.309422 Y143.128977 Z-1.000000 F2500.000000
G00 Z0.100000
M05
(End cutting path id: path22779)


(Start cutting path id: path22777)
(Change tool to Default tool)

G00 Z0.100000
G00 X174.281816 Y139.044996
M03 S35
G01 Z-1.000000 F800.0(Penetrate)
G01 X182.986796 Y146.339397 Z-1.000000 F2500.000000
G00 Z0.100000
M05
(End cutting path id: path22777)


(Start cutting path id: path22775)
(Change tool to Default tool)

G00 Z0.100000
G00 X172.049512 Y138.979256
M03 S35
G01 Z-1.000000 F800.0(Penetrate)
G01 X183.442095 Y148.525773 Z-1.000000 F2500.000000
G00 Z0.100000
M05
(End cutting path id: path22775)


(Start cutting path id: path22773)
(Change tool to Default tool)

G00 Z0.100000
G00 X170.246488 Y139.273242
M03 S35
G01 Z-1.000000 F800.0(Penetrate)
G01 X183.468130 Y150.352405 Z-1.000000 F2500.000000
G00 Z0.100000
M05
(End cutting path id: path22773)


(Start cutting path id: path22771)
(Change tool to Default tool)

G00 Z0.100000
G00 X168.708687 Y139.789452
M03 S35
G01 Z-1.000000 F800.0(Penetrate)
G01 X183.228924 Y151.956829 Z-1.000000 F2500.000000
G00 Z0.100000
M05
(End cutting path id: path22771)


(Start cutting path id: path22769)
(Change tool to Default tool)

G00 Z0.100000
G00 X167.368802 Y140.471535
M03 S35
G01 Z-1.000000 F800.0(Penetrate)
G01 X182.791803 Y153.395382 Z-1.000000 F2500.000000
G00 Z0.100000
M05
(End cutting path id: path22769)


(Start cutting path id: path22767)
(Change tool to Default tool)

G00 Z0.100000
G00 X166.193257 Y141.291312
M03 S35
G01 Z-1.000000 F800.0(Penetrate)
G01 X182.190342 Y154.696240 Z-1.000000 F2500.000000
G00 Z0.100000
M05
(End cutting path id: path22767)


(Start cutting path id: path22765)
(Change tool to Default tool)

G00 Z0.100000
G00 X165.164644 Y142.234234
M03 S35
G01 Z-1.000000 F800.0(Penetrate)
G01 X181.441948 Y155.873953 Z-1.000000 F2500.000000
G00 Z0.100000
M05
(End cutting path id: path22765)


(Start cutting path id: path22759)
(Change tool to Default tool)

G00 Z0.100000
G00 X162.922284 Y145.769765
M03 S35
G01 Z-1.000000 F800.0(Penetrate)
G01 X178.353306 Y158.700328 Z-1.000000 F2500.000000
G00 Z0.100000
M05
(End cutting path id: path22759)


(Start cutting path id: path22761)
(Change tool to Default tool)

G00 Z0.100000
G00 X163.525432 Y144.470324
M03 S35
G01 Z-1.000000 F800.0(Penetrate)
G01 X179.527166 Y157.879133 Z-1.000000 F2500.000000
G00 Z0.100000
M05
(End cutting path id: path22761)


