%
(Header)
(Generated by gcodetools from Inkscape.)
(Using default header. To add your own header create file "header" in the output dir.)
M3
(Header end.)
G21 (All units in mm)

(Start cutting path id: path11963)
(Change tool to Default tool)
M05
G00 Z0.100000
G00 X207.405463 Y142.254650
M03 S35
G01 Z-1.000000 F800.0(Penetrate)
G01 X207.415051 Y156.569459 Z-1.000000 F2500.000000
G00 Z0.100000
M05
(End cutting path id: path11963)


(Start cutting path id: path11959)
(Change tool to Default tool)

G00 Z0.100000
G00 X204.643521 Y149.413908
M03 S35
G01 Z-1.000000 F800.0(Penetrate)
G01 X204.643521 Y149.413908 Z-1.000000 F2500.000000
G00 Z0.100000
M05
(End cutting path id: path11959)


(Start cutting path id: path11961)
(Change tool to Default tool)

G00 Z0.100000
G00 X206.023375 Y144.166274
M03 S35
G01 Z-1.000000 F800.0(Penetrate)
G01 X206.030404 Y154.659688 Z-1.000000 F2500.000000
G00 Z0.100000
M05
(End cutting path id: path11961)


(Start cutting path id: path11957)
(Change tool to Default tool)

G00 Z0.100000
G00 X189.044225 Y140.005336
M03 S35
G01 Z-1.000000 F800.0(Penetrate)
G01 X184.157300 Y153.460131 Z-1.000000 F2500.000000
G00 Z0.100000
M05
(End cutting path id: path11957)


(Start cutting path id: path11953)
(Change tool to Default tool)

G00 Z0.100000
G00 X184.000239 Y145.788198
M03 S35
G01 Z-1.000000 F800.0(Penetrate)
G01 X184.000257 Y145.788198 Z-1.000000 F2500.000000
G00 Z0.100000
M05
(End cutting path id: path11953)


(Start cutting path id: path11955)
(Change tool to Default tool)

G00 Z0.100000
G00 X187.091671 Y141.328967
M03 S35
G01 Z-1.000000 F800.0(Penetrate)
G01 X183.509322 Y151.191965 Z-1.000000 F2500.000000
G00 Z0.100000
M05
(End cutting path id: path11955)


(Start cutting path id: path11951)
(Change tool to Default tool)

G00 Z0.100000
G00 X171.281007 Y138.891686
M03 S35
G01 Z-1.000000 F800.0(Penetrate)
G01 X162.086968 Y149.863648 Z-1.000000 F2500.000000
G00 Z0.100000
M05
(End cutting path id: path11951)


(Start cutting path id: path11947)
(Change tool to Default tool)

G00 Z0.100000
G00 X164.563370 Y142.600652
M03 S35
G01 Z-1.000000 F800.0(Penetrate)
G01 X164.563370 Y142.600652 Z-1.000000 F2500.000000
G00 Z0.100000
M05
(End cutting path id: path11947)


(Start cutting path id: path11949)
(Change tool to Default tool)

G00 Z0.100000
G00 X168.993496 Y139.467689
M03 S35
G01 Z-1.000000 F800.0(Penetrate)
G01 X162.253844 Y147.510639 Z-1.000000 F2500.000000
G00 Z0.100000
M05
(End cutting path id: path11949)


(Start cutting path id: path11945)
(Change tool to Default tool)

G00 Z0.100000
G00 X153.691315 Y139.049750
M03 S35
G01 Z-1.000000 F800.0(Penetrate)
G01 X141.299109 Y146.215476 Z-1.000000 F2500.000000
G00 Z0.100000
M05
(End cutting path id: path11945)


(Start cutting path id: path11941)
(Change tool to Default tool)

G00 Z0.100000
G00 X146.110239 Y140.237484
M03 S35
G01 Z-1.000000 F800.0(Penetrate)
G01 X146.110239 Y140.237484 Z-1.000000 F2500.000000
G00 Z0.100000
M05
(End cutting path id: path11941)


(Start cutting path id: path11943)
(Change tool to Default tool)

G00 Z0.100000
G00 X151.344747 Y138.808665
M03 S35
G01 Z-1.000000 F800.0(Penetrate)
G01 X142.260704 Y144.061441 Z-1.000000 F2500.000000
G00 Z0.100000
M05
(End cutting path id: path11943)


(Start cutting path id: path11939)
(Change tool to Default tool)

G00 Z0.100000
G00 X135.829708 Y140.462197
M03 S35
G01 Z-1.000000 F800.0(Penetrate)
G01 X121.734037 Y142.957375 Z-1.000000 F2500.000000
G00 Z0.100000
M05
(End cutting path id: path11939)


(Start cutting path id: path11933)
(Change tool to Default tool)

G00 Z0.100000
G00 X117.283600 Y142.960356
M03 S35
G01 Z-1.000000 F800.0(Penetrate)
G01 X103.184599 Y140.484063 Z-1.000000 F2500.000000
G00 Z0.100000
M05
(End cutting path id: path11933)


(Start cutting path id: path11925)
(Change tool to Default tool)

G00 Z0.100000
G00 X96.758430 Y144.091918
M03 S35
G01 Z-1.000000 F800.0(Penetrate)
G01 X87.667358 Y138.851316 Z-1.000000 F2500.000000
G00 Z0.100000
M05
(End cutting path id: path11925)


(Start cutting path id: path11923)
(Change tool to Default tool)

G00 Z0.100000
G00 X92.903776 Y140.273122
M03 S35
G01 Z-1.000000 F800.0(Penetrate)
G01 X92.903776 Y140.273122 Z-1.000000 F2500.000000
G00 Z0.100000
M05
(End cutting path id: path11923)


(Start cutting path id: path11927)
(Change tool to Default tool)

G00 Z0.100000
G00 X97.722909 Y146.244663
M03 S35
G01 Z-1.000000 F800.0(Penetrate)
G01 X85.321116 Y139.095545 Z-1.000000 F2500.000000
G00 Z0.100000
M05
(End cutting path id: path11927)


(Start cutting path id: path11917)
(Change tool to Default tool)

G00 Z0.100000
G00 X74.453844 Y142.661007
M03 S35
G01 Z-1.000000 F800.0(Penetrate)
G01 X74.453844 Y142.661007 Z-1.000000 F2500.000000
G00 Z0.100000
M05
(End cutting path id: path11917)


(Start cutting path id: path11919)
(Change tool to Default tool)

G00 Z0.100000
G00 X76.769928 Y147.567896
M03 S35
G01 Z-1.000000 F800.0(Penetrate)
G01 X70.019508 Y139.533982 Z-1.000000 F2500.000000
G00 Z0.100000
M05
(End cutting path id: path11919)


(Start cutting path id: path11833)
(Change tool to Default tool)

G00 Z0.100000
G00 X76.208463 Y132.085327
M03 S35
G01 Z-1.000000 F800.0(Penetrate)
G01 X64.197686 Y117.790900 Z-1.000000 F2500.000000
G00 Z0.100000
M05
(End cutting path id: path11833)


(Start cutting path id: path11825)
(Change tool to Default tool)

G00 Z0.100000
G00 X74.439589 Y121.378422
M03 S35
G01 Z-1.000000 F800.0(Penetrate)
G01 X74.439589 Y121.378422 Z-1.000000 F2500.000000
G00 Z0.100000
M05
(End cutting path id: path11825)


(Start cutting path id: path11827)
(Change tool to Default tool)

G00 Z0.100000
G00 X76.755673 Y126.285311
M03 S35
G01 Z-1.000000 F800.0(Penetrate)
G01 X70.005252 Y118.251396 Z-1.000000 F2500.000000
G00 Z0.100000
M05
(End cutting path id: path11827)


(Start cutting path id: path11705)
(Change tool to Default tool)

G00 Z0.100000
G00 X74.748400 Y113.382894
M03 S35
G01 Z-1.000000 F800.0(Penetrate)
G01 X61.392733 Y97.487853 Z-1.000000 F2500.000000
G00 Z0.100000
M05
(End cutting path id: path11705)


(Start cutting path id: path11679)
(Change tool to Default tool)

G00 Z0.100000
G00 X54.992735 Y103.309418
M03 S35
G01 Z-1.000000 F800.0(Penetrate)
G01 X54.992735 Y103.309418 Z-1.000000 F2500.000000
G00 Z0.100000
M05
(End cutting path id: path11679)


(Start cutting path id: path11681)
(Change tool to Default tool)

G00 Z0.100000
G00 X55.490891 Y108.712522
M03 S35
G01 Z-1.000000 F800.0(Penetrate)
G01 X51.895315 Y98.854332 Z-1.000000 F2500.000000
G00 Z0.100000
M05
(End cutting path id: path11681)


(Start cutting path id: path11517)
(Change tool to Default tool)

G00 Z0.100000
G00 X49.512548 Y95.301433
M03 S35
G01 Z-1.000000 F800.0(Penetrate)
G01 X42.249667 Y75.388361 Z-1.000000 F2500.000000
G00 Z0.100000
M05
(End cutting path id: path11517)


(Start cutting path id: path11307)
(Change tool to Default tool)

G00 Z0.100000
G00 X45.446261 Y75.020975
M03 S35
G01 Z-1.000000 F800.0(Penetrate)
G01 X38.489702 Y55.947721 Z-1.000000 F2500.000000
G00 Z0.100000
M05
(End cutting path id: path11307)


(Start cutting path id: path11039)
(Change tool to Default tool)

G00 Z0.100000
G00 X40.694036 Y52.859790
M03 S35
G01 Z-1.000000 F800.0(Penetrate)
G01 X35.415677 Y38.387791 Z-1.000000 F2500.000000
G00 Z0.100000
M05
(End cutting path id: path11039)


(Start cutting path id: path10985)
(Change tool to Default tool)

G00 Z0.100000
G00 X34.311563 Y43.115023
M03 S35
G01 Z-1.000000 F800.0(Penetrate)
G01 X34.311563 Y43.115023 Z-1.000000 F2500.000000
G00 Z0.100000
M05
(End cutting path id: path10985)


(Start cutting path id: path10987)
(Change tool to Default tool)

G00 Z0.100000
G00 X32.931709 Y48.362656
M03 S35
G01 Z-1.000000 F800.0(Penetrate)
G01 X32.924681 Y37.869242 Z-1.000000 F2500.000000
G00 Z0.100000
M05
(End cutting path id: path10987)


(Start cutting path id: path10673)
(Change tool to Default tool)

G00 Z0.100000
G00 X28.770088 Y31.171413
M03 S35
G01 Z-1.000000 F800.0(Penetrate)
G01 X28.757583 Y12.500874 Z-1.000000 F2500.000000
G00 Z0.100000
M05
(End cutting path id: path10673)


(Start cutting path id: path10665)
(Change tool to Default tool)

G00 Z0.100000
G00 X34.297308 Y21.832437
M03 S35
G01 Z-1.000000 F800.0(Penetrate)
G01 X34.297308 Y21.832437 Z-1.000000 F2500.000000
G00 Z0.100000
M05
(End cutting path id: path10665)


(Start cutting path id: path10667)
(Change tool to Default tool)

G00 Z0.100000
G00 X32.917454 Y27.080071
M03 S35
G01 Z-1.000000 F800.0(Penetrate)
G01 X32.910425 Y16.586657 Z-1.000000 F2500.000000
G00 Z0.100000
M05
(End cutting path id: path10667)


(Start cutting path id: path10727)
(Change tool to Default tool)

G00 Z0.100000
G00 X36.579892 Y28.410830
M03 S35
G01 Z-1.000000 F800.0(Penetrate)
G01 X34.302817 Y22.167634 Z-1.000000 F2500.000000
G00 Z0.100000
M05
(End cutting path id: path10727)


(Start cutting path id: path10669)
(Change tool to Default tool)

G00 Z0.100000
G00 X31.535366 Y28.991695
M03 S35
G01 Z-1.000000 F800.0(Penetrate)
G01 X31.525778 Y14.676886 Z-1.000000 F2500.000000
G00 Z0.100000
M05
(End cutting path id: path10669)


(Start cutting path id: path10671)
(Change tool to Default tool)

G00 Z0.100000
G00 X30.152852 Y30.267395
M03 S35
G01 Z-1.000000 F800.0(Penetrate)
G01 X30.141556 Y13.403039 Z-1.000000 F2500.000000
G00 Z0.100000
M05
(End cutting path id: path10671)


(Start cutting path id: path10675)
(Change tool to Default tool)

G00 Z0.100000
G00 X27.387144 Y31.805301
M03 S35
G01 Z-1.000000 F800.0(Penetrate)
G01 X27.373791 Y11.868839 Z-1.000000 F2500.000000
G00 Z0.100000
M05
(End cutting path id: path10675)


(Start cutting path id: path10695)
(Change tool to Default tool)

G00 Z0.100000
G00 X13.549013 Y25.169080
M03 S35
G01 Z-1.000000 F800.0(Penetrate)
G01 X13.544561 Y18.523592 Z-1.000000 F2500.000000
G00 Z0.100000
M05
(End cutting path id: path10695)


(Start cutting path id: path10693)
(Change tool to Default tool)

G00 Z0.100000
G00 X14.934235 Y27.936095
M03 S35
G01 Z-1.000000 F800.0(Penetrate)
G01 X14.926076 Y15.754724 Z-1.000000 F2500.000000
G00 Z0.100000
M05
(End cutting path id: path10693)


(Start cutting path id: path10691)
(Change tool to Default tool)

G00 Z0.100000
G00 X16.318682 Y29.546757
M03 S35
G01 Z-1.000000 F800.0(Penetrate)
G01 X16.308364 Y14.142209 Z-1.000000 F2500.000000
G00 Z0.100000
M05
(End cutting path id: path10691)


(Start cutting path id: path10689)
(Change tool to Default tool)

G00 Z0.100000
G00 X17.702796 Y30.659796
M03 S35
G01 Z-1.000000 F800.0(Penetrate)
G01 X17.690986 Y13.027316 Z-1.000000 F2500.000000
G00 Z0.100000
M05
(End cutting path id: path10689)


(Start cutting path id: path10687)
(Change tool to Default tool)

G00 Z0.100000
G00 X19.086694 Y31.449890
M03 S35
G01 Z-1.000000 F800.0(Penetrate)
G01 X19.073824 Y12.235369 Z-1.000000 F2500.000000
G00 Z0.100000
M05
(End cutting path id: path10687)


(Start cutting path id: path10685)
(Change tool to Default tool)

G00 Z0.100000
G00 X20.470427 Y31.992858
M03 S35
G01 Z-1.000000 F800.0(Penetrate)
G01 X20.456828 Y11.690548 Z-1.000000 F2500.000000
G00 Z0.100000
M05
(End cutting path id: path10685)


(Start cutting path id: path10683)
(Change tool to Default tool)

G00 Z0.100000
G00 X21.854019 Y32.327167
M03 S35
G01 Z-1.000000 F800.0(Penetrate)
G01 X21.839972 Y11.354386 Z-1.000000 F2500.000000
G00 Z0.100000
M05
(End cutting path id: path10683)


(Start cutting path id: path10681)
(Change tool to Default tool)

G00 Z0.100000
G00 X23.237485 Y32.472630
M03 S35
G01 Z-1.000000 F800.0(Penetrate)
G01 X23.223241 Y11.207070 Z-1.000000 F2500.000000
G00 Z0.100000
M05
(End cutting path id: path10681)


(Start cutting path id: path10677)
(Change tool to Default tool)

G00 Z0.100000
G00 X26.004052 Y32.218578
M03 S35
G01 Z-1.000000 F800.0(Penetrate)
G01 X25.990147 Y11.457416 Z-1.000000 F2500.000000
G00 Z0.100000
M05
(End cutting path id: path10677)


(Start cutting path id: path10679)
(Change tool to Default tool)

G00 Z0.100000
G00 X24.620830 Y32.437030
M03 S35
G01 Z-1.000000 F800.0(Penetrate)
G01 X24.606633 Y11.240817 Z-1.000000 F2500.000000
G00 Z0.100000
M05
(End cutting path id: path10679)


(Start cutting path id: path10725)
(Change tool to Default tool)

G00 Z0.100000
G00 X38.827942 Y30.537194
M03 S35
G01 Z-1.000000 F800.0(Penetrate)
G01 X34.653996 Y19.093235 Z-1.000000 F2500.000000
G00 Z0.100000
M05
(End cutting path id: path10725)


(Start cutting path id: path10723)
(Change tool to Default tool)

G00 Z0.100000
G00 X40.679781 Y31.577205
M03 S35
G01 Z-1.000000 F800.0(Penetrate)
G01 X35.401422 Y17.105206 Z-1.000000 F2500.000000
G00 Z0.100000
M05
(End cutting path id: path10723)


(Start cutting path id: path10721)
(Change tool to Default tool)

G00 Z0.100000
G00 X42.361099 Y32.149733
M03 S35
G01 Z-1.000000 F800.0(Penetrate)
G01 X36.319350 Y15.584677 Z-1.000000 F2500.000000
G00 Z0.100000
M05
(End cutting path id: path10721)


(Start cutting path id: path10719)
(Change tool to Default tool)

G00 Z0.100000
G00 X43.931775 Y32.418864
M03 S35
G01 Z-1.000000 F800.0(Penetrate)
G01 X37.347921 Y14.367510 Z-1.000000 F2500.000000
G00 Z0.100000
M05
(End cutting path id: path10719)


(Start cutting path id: path10697)
(Change tool to Default tool)

G00 Z0.100000
G00 X54.935714 Y18.179077
M03 S35
G01 Z-1.000000 F800.0(Penetrate)
G01 X54.935714 Y18.179077 Z-1.000000 F2500.000000
G00 Z0.100000
M05
(End cutting path id: path10697)


(Start cutting path id: path10699)
(Change tool to Default tool)

G00 Z0.100000
G00 X55.433870 Y23.582181
M03 S35
G01 Z-1.000000 F800.0(Penetrate)
G01 X51.838294 Y13.723991 Z-1.000000 F2500.000000
G00 Z0.100000
M05
(End cutting path id: path10699)


(Start cutting path id: path10701)
(Change tool to Default tool)

G00 Z0.100000
G00 X54.788949 Y25.851214
M03 S35
G01 Z-1.000000 F800.0(Penetrate)
G01 X49.883969 Y12.402977 Z-1.000000 F2500.000000
G00 Z0.100000
M05
(End cutting path id: path10701)


(Start cutting path id: path10703)
(Change tool to Default tool)

G00 Z0.100000
G00 X53.926119 Y27.522830
M03 S35
G01 Z-1.000000 F800.0(Penetrate)
G01 X48.147551 Y11.679379 Z-1.000000 F2500.000000
G00 Z0.100000
M05
(End cutting path id: path10703)


(Start cutting path id: path10705)
(Change tool to Default tool)

G00 Z0.100000
G00 X52.935945 Y28.845267
M03 S35
G01 Z-1.000000 F800.0(Penetrate)
G01 X46.538478 Y11.304979 Z-1.000000 F2500.000000
G00 Z0.100000
M05
(End cutting path id: path10705)


(Start cutting path id: path10707)
(Change tool to Default tool)

G00 Z0.100000
G00 X51.853200 Y29.913917
M03 S35
G01 Z-1.000000 F800.0(Penetrate)
G01 X45.021977 Y11.184347 Z-1.000000 F2500.000000
G00 Z0.100000
M05
(End cutting path id: path10707)


(Start cutting path id: path10709)
(Change tool to Default tool)

G00 Z0.100000
G00 X50.694869 Y30.775308
M03 S35
G01 Z-1.000000 F800.0(Penetrate)
G01 X43.581062 Y11.270956 Z-1.000000 F2500.000000
G00 Z0.100000
M05
(End cutting path id: path10709)


(Start cutting path id: path10711)
(Change tool to Default tool)

G00 Z0.100000
G00 X49.469782 Y31.453677
M03 S35
G01 Z-1.000000 F800.0(Penetrate)
G01 X42.206901 Y11.540605 Z-1.000000 F2500.000000
G00 Z0.100000
M05
(End cutting path id: path10711)


(Start cutting path id: path10717)
(Change tool to Default tool)

G00 Z0.100000
G00 X45.417751 Y32.455804
M03 S35
G01 Z-1.000000 F800.0(Penetrate)
G01 X38.461192 Y13.382551 Z-1.000000 F2500.000000
G00 Z0.100000
M05
(End cutting path id: path10717)


(Start cutting path id: path10715)
(Change tool to Default tool)

G00 Z0.100000
G00 X46.832245 Y32.296763
M03 S35
G01 Z-1.000000 F800.0(Penetrate)
G01 X39.645927 Y12.593574 Z-1.000000 F2500.000000
G00 Z0.100000
M05
(End cutting path id: path10715)


(Start cutting path id: path10713)
(Change tool to Default tool)

G00 Z0.100000
G00 X48.182028 Y31.960268
M03 S35
G01 Z-1.000000 F800.0(Penetrate)
G01 X40.895409 Y11.982051 Z-1.000000 F2500.000000
G00 Z0.100000
M05
(End cutting path id: path10713)


(Start cutting path id: path10759)
(Change tool to Default tool)

G00 Z0.100000
G00 X60.618945 Y30.858260
M03 S35
G01 Z-1.000000 F800.0(Penetrate)
G01 X56.343890 Y25.770380 Z-1.000000 F2500.000000
G00 Z0.100000
M05
(End cutting path id: path10759)


(Start cutting path id: path10757)
(Change tool to Default tool)

G00 Z0.100000
G00 X63.458689 Y32.087521
M03 S35
G01 Z-1.000000 F800.0(Penetrate)
G01 X55.622398 Y22.761292 Z-1.000000 F2500.000000
G00 Z0.100000
M05
(End cutting path id: path10757)


(Start cutting path id: path10755)
(Change tool to Default tool)

G00 Z0.100000
G00 X65.554546 Y32.431445
M03 S35
G01 Z-1.000000 F800.0(Penetrate)
G01 X55.644795 Y20.637522 Z-1.000000 F2500.000000
G00 Z0.100000
M05
(End cutting path id: path10755)


(Start cutting path id: path10753)
(Change tool to Default tool)

G00 Z0.100000
G00 X67.330287 Y32.394394
M03 S35
G01 Z-1.000000 F800.0(Penetrate)
G01 X55.987306 Y18.894727 Z-1.000000 F2500.000000
G00 Z0.100000
M05
(End cutting path id: path10753)


(Start cutting path id: path10751)
(Change tool to Default tool)

G00 Z0.100000
G00 X68.898287 Y32.110090
M03 S35
G01 Z-1.000000 F800.0(Penetrate)
G01 X56.537559 Y17.399185 Z-1.000000 F2500.000000
G00 Z0.100000
M05
(End cutting path id: path10751)


(Start cutting path id: path10729)
(Change tool to Default tool)

G00 Z0.100000
G00 X74.368313 Y14.965496
M03 S35
G01 Z-1.000000 F800.0(Penetrate)
G01 X74.368313 Y14.965513 Z-1.000000 F2500.000000
G00 Z0.100000
M05
(End cutting path id: path10729)


(Start cutting path id: path10731)
(Change tool to Default tool)

G00 Z0.100000
G00 X76.684397 Y19.872385
M03 S35
G01 Z-1.000000 F800.0(Penetrate)
G01 X69.933976 Y11.838470 Z-1.000000 F2500.000000
G00 Z0.100000
M05
(End cutting path id: path10731)


(Start cutting path id: path10733)
(Change tool to Default tool)

G00 Z0.100000
G00 X76.854425 Y22.225150
M03 S35
G01 Z-1.000000 F800.0(Penetrate)
G01 X67.645696 Y11.265532 Z-1.000000 F2500.000000
G00 Z0.100000
M05
(End cutting path id: path10733)


(Start cutting path id: path10735)
(Change tool to Default tool)

G00 Z0.100000
G00 X76.615359 Y24.091067
M03 S35
G01 Z-1.000000 F800.0(Penetrate)
G01 X65.766509 Y11.179479 Z-1.000000 F2500.000000
G00 Z0.100000
M05
(End cutting path id: path10735)


(Start cutting path id: path10737)
(Change tool to Default tool)

G00 Z0.100000
G00 X76.137187 Y25.672400
M03 S35
G01 Z-1.000000 F800.0(Penetrate)
G01 X64.126410 Y11.377974 Z-1.000000 F2500.000000
G00 Z0.100000
M05
(End cutting path id: path10737)


(Start cutting path id: path10739)
(Change tool to Default tool)

G00 Z0.100000
G00 X75.485246 Y27.046930
M03 S35
G01 Z-1.000000 F800.0(Penetrate)
G01 X62.660116 Y11.783290 Z-1.000000 F2500.000000
G00 Z0.100000
M05
(End cutting path id: path10739)


(Start cutting path id: path10741)
(Change tool to Default tool)

G00 Z0.100000
G00 X74.691379 Y28.252553
M03 S35
G01 Z-1.000000 F800.0(Penetrate)
G01 X61.335712 Y12.357512 Z-1.000000 F2500.000000
G00 Z0.100000
M05
(End cutting path id: path10741)


(Start cutting path id: path10743)
(Change tool to Default tool)

G00 Z0.100000
G00 X73.772200 Y29.309016
M03 S35
G01 Z-1.000000 F800.0(Penetrate)
G01 X60.136657 Y13.080895 Z-1.000000 F2500.000000
G00 Z0.100000
M05
(End cutting path id: path10743)


(Start cutting path id: path10749)
(Change tool to Default tool)

G00 Z0.100000
G00 X70.307286 Y31.636584
M03 S35
G01 Z-1.000000 F800.0(Penetrate)
G01 X57.246813 Y16.092863 Z-1.000000 F2500.000000
G00 Z0.100000
M05
(End cutting path id: path10749)


(Start cutting path id: path10747)
(Change tool to Default tool)

G00 Z0.100000
G00 X71.582079 Y31.003336
M03 S35
G01 Z-1.000000 F800.0(Penetrate)
G01 X58.090272 Y14.946266 Z-1.000000 F2500.000000
G00 Z0.100000
M05
(End cutting path id: path10747)


(Start cutting path id: path10745)
(Change tool to Default tool)

G00 Z0.100000
G00 X72.735376 Y30.225483
M03 S35
G01 Z-1.000000 F800.0(Penetrate)
G01 X59.055228 Y13.944274 Z-1.000000 F2500.000000
G00 Z0.100000
M05
(End cutting path id: path10745)


(Start cutting path id: path11013)
(Change tool to Default tool)

G00 Z0.100000
G00 X54.949970 Y39.461662
M03 S35
G01 Z-1.000000 F800.0(Penetrate)
G01 X54.949970 Y39.461662 Z-1.000000 F2500.000000
G00 Z0.100000
M05
(End cutting path id: path11013)


(Start cutting path id: path11015)
(Change tool to Default tool)

G00 Z0.100000
G00 X55.448125 Y44.864767
M03 S35
G01 Z-1.000000 F800.0(Penetrate)
G01 X51.852549 Y35.006576 Z-1.000000 F2500.000000
G00 Z0.100000
M05
(End cutting path id: path11015)


(Start cutting path id: path11017)
(Change tool to Default tool)

G00 Z0.100000
G00 X54.803204 Y47.133799
M03 S35
G01 Z-1.000000 F800.0(Penetrate)
G01 X49.898224 Y33.685562 Z-1.000000 F2500.000000
G00 Z0.100000
M05
(End cutting path id: path11017)


(Start cutting path id: path11019)
(Change tool to Default tool)

G00 Z0.100000
G00 X53.940374 Y48.805415
M03 S35
G01 Z-1.000000 F800.0(Penetrate)
G01 X48.161807 Y32.961964 Z-1.000000 F2500.000000
G00 Z0.100000
M05
(End cutting path id: path11019)


(Start cutting path id: path11021)
(Change tool to Default tool)

G00 Z0.100000
G00 X52.950201 Y50.127852
M03 S35
G01 Z-1.000000 F800.0(Penetrate)
G01 X46.552734 Y32.587546 Z-1.000000 F2500.000000
G00 Z0.100000
M05
(End cutting path id: path11021)


(Start cutting path id: path11023)
(Change tool to Default tool)

G00 Z0.100000
G00 X51.867455 Y51.196502
M03 S35
G01 Z-1.000000 F800.0(Penetrate)
G01 X45.036232 Y32.466932 Z-1.000000 F2500.000000
G00 Z0.100000
M05
(End cutting path id: path11023)


(Start cutting path id: path11025)
(Change tool to Default tool)

G00 Z0.100000
G00 X50.709124 Y52.057893
M03 S35
G01 Z-1.000000 F800.0(Penetrate)
G01 X43.595317 Y32.553542 Z-1.000000 F2500.000000
G00 Z0.100000
M05
(End cutting path id: path11025)


(Start cutting path id: path11037)
(Change tool to Default tool)

G00 Z0.100000
G00 X42.375354 Y53.432318
M03 S35
G01 Z-1.000000 F800.0(Penetrate)
G01 X36.333605 Y36.867262 Z-1.000000 F2500.000000
G00 Z0.100000
M05
(End cutting path id: path11037)


(Start cutting path id: path10989)
(Change tool to Default tool)

G00 Z0.100000
G00 X31.549621 Y50.274280
M03 S35
G01 Z-1.000000 F800.0(Penetrate)
G01 X31.540033 Y35.959471 Z-1.000000 F2500.000000
G00 Z0.100000
M05
(End cutting path id: path10989)


(Start cutting path id: path10991)
(Change tool to Default tool)

G00 Z0.100000
G00 X30.167107 Y51.549980
M03 S35
G01 Z-1.000000 F800.0(Penetrate)
G01 X30.155811 Y34.685624 Z-1.000000 F2500.000000
G00 Z0.100000
M05
(End cutting path id: path10991)


(Start cutting path id: path10993)
(Change tool to Default tool)

G00 Z0.100000
G00 X28.784344 Y52.453998
M03 S35
G01 Z-1.000000 F800.0(Penetrate)
G01 X28.771838 Y33.783460 Z-1.000000 F2500.000000
G00 Z0.100000
M05
(End cutting path id: path10993)


(Start cutting path id: path10995)
(Change tool to Default tool)

G00 Z0.100000
G00 X27.401399 Y53.087886
M03 S35
G01 Z-1.000000 F800.0(Penetrate)
G01 X27.388046 Y33.151425 Z-1.000000 F2500.000000
G00 Z0.100000
M05
(End cutting path id: path10995)


(Start cutting path id: path10997)
(Change tool to Default tool)

G00 Z0.100000
G00 X26.018308 Y53.501163
M03 S35
G01 Z-1.000000 F800.0(Penetrate)
G01 X26.004402 Y32.740001 Z-1.000000 F2500.000000
G00 Z0.100000
M05
(End cutting path id: path10997)


(Start cutting path id: path11011)
(Change tool to Default tool)

G00 Z0.100000
G00 X16.332937 Y50.829342
M03 S35
G01 Z-1.000000 F800.0(Penetrate)
G01 X16.322619 Y35.424794 Z-1.000000 F2500.000000
G00 Z0.100000
M05
(End cutting path id: path11011)


(Start cutting path id: path11009)
(Change tool to Default tool)

G00 Z0.100000
G00 X17.717052 Y51.942382
M03 S35
G01 Z-1.000000 F800.0(Penetrate)
G01 X17.705241 Y34.309902 Z-1.000000 F2500.000000
G00 Z0.100000
M05
(End cutting path id: path11009)


(Start cutting path id: path11007)
(Change tool to Default tool)

G00 Z0.100000
G00 X19.100949 Y52.732475
M03 S35
G01 Z-1.000000 F800.0(Penetrate)
G01 X19.088079 Y33.517954 Z-1.000000 F2500.000000
G00 Z0.100000
M05
(End cutting path id: path11007)


(Start cutting path id: path11005)
(Change tool to Default tool)

G00 Z0.100000
G00 X20.484682 Y53.275443
M03 S35
G01 Z-1.000000 F800.0(Penetrate)
G01 X20.471083 Y32.973134 Z-1.000000 F2500.000000
G00 Z0.100000
M05
(End cutting path id: path11005)


(Start cutting path id: path11003)
(Change tool to Default tool)

G00 Z0.100000
G00 X21.868274 Y53.609753
M03 S35
G01 Z-1.000000 F800.0(Penetrate)
G01 X21.854227 Y32.636971 Z-1.000000 F2500.000000
G00 Z0.100000
M05
(End cutting path id: path11003)


(Start cutting path id: path11001)
(Change tool to Default tool)

G00 Z0.100000
G00 X23.251740 Y53.755215
M03 S35
G01 Z-1.000000 F800.0(Penetrate)
G01 X23.237497 Y32.489656 Z-1.000000 F2500.000000
G00 Z0.100000
M05
(End cutting path id: path11001)


(Start cutting path id: path10999)
(Change tool to Default tool)

G00 Z0.100000
G00 X24.635085 Y53.719615
M03 S35
G01 Z-1.000000 F800.0(Penetrate)
G01 X24.620888 Y32.523402 Z-1.000000 F2500.000000
G00 Z0.100000
M05
(End cutting path id: path10999)


(Start cutting path id: path11035)
(Change tool to Default tool)

G00 Z0.100000
G00 X43.946031 Y53.701449
M03 S35
G01 Z-1.000000 F800.0(Penetrate)
G01 X37.362176 Y35.650095 Z-1.000000 F2500.000000
G00 Z0.100000
M05
(End cutting path id: path11035)


(Start cutting path id: path11033)
(Change tool to Default tool)

G00 Z0.100000
G00 X45.432006 Y53.738390
M03 S35
G01 Z-1.000000 F800.0(Penetrate)
G01 X38.475447 Y34.665136 Z-1.000000 F2500.000000
G00 Z0.100000
M05
(End cutting path id: path11033)


(Start cutting path id: path11031)
(Change tool to Default tool)

G00 Z0.100000
G00 X46.846500 Y53.579348
M03 S35
G01 Z-1.000000 F800.0(Penetrate)
G01 X39.660182 Y33.876159 Z-1.000000 F2500.000000
G00 Z0.100000
M05
(End cutting path id: path11031)


(Start cutting path id: path11029)
(Change tool to Default tool)

G00 Z0.100000
G00 X48.196283 Y53.242853
M03 S35
G01 Z-1.000000 F800.0(Penetrate)
G01 X40.909664 Y33.264636 Z-1.000000 F2500.000000
G00 Z0.100000
M05
(End cutting path id: path11029)


(Start cutting path id: path11027)
(Change tool to Default tool)

G00 Z0.100000
G00 X49.484038 Y52.736263
M03 S35
G01 Z-1.000000 F800.0(Penetrate)
G01 X42.221156 Y32.823190 Z-1.000000 F2500.000000
G00 Z0.100000
M05
(End cutting path id: path11027)


(Start cutting path id: path11287)
(Change tool to Default tool)

G00 Z0.100000
G00 X54.964225 Y60.744248
M03 S35
G01 Z-1.000000 F800.0(Penetrate)
G01 X54.964225 Y60.744248 Z-1.000000 F2500.000000
G00 Z0.100000
M05
(End cutting path id: path11287)


(Start cutting path id: path11289)
(Change tool to Default tool)

G00 Z0.100000
G00 X55.462380 Y66.147352
M03 S35
G01 Z-1.000000 F800.0(Penetrate)
G01 X51.866805 Y56.289162 Z-1.000000 F2500.000000
G00 Z0.100000
M05
(End cutting path id: path11289)


(Start cutting path id: path11291)
(Change tool to Default tool)

G00 Z0.100000
G00 X54.817459 Y68.416384
M03 S35
G01 Z-1.000000 F800.0(Penetrate)
G01 X49.912479 Y54.968148 Z-1.000000 F2500.000000
G00 Z0.100000
M05
(End cutting path id: path11291)


(Start cutting path id: path11293)
(Change tool to Default tool)

G00 Z0.100000
G00 X53.954630 Y70.088001
M03 S35
G01 Z-1.000000 F800.0(Penetrate)
G01 X48.176062 Y54.244550 Z-1.000000 F2500.000000
G00 Z0.100000
M05
(End cutting path id: path11293)


(Start cutting path id: path11265)
(Change tool to Default tool)

G00 Z0.100000
G00 X34.325818 Y64.397608
M03 S35
G01 Z-1.000000 F800.0(Penetrate)
G01 X34.325818 Y64.397608 Z-1.000000 F2500.000000
G00 Z0.100000
M05
(End cutting path id: path11265)


(Start cutting path id: path11267)
(Change tool to Default tool)

G00 Z0.100000
G00 X32.945964 Y69.645241
M03 S35
G01 Z-1.000000 F800.0(Penetrate)
G01 X32.938936 Y59.151827 Z-1.000000 F2500.000000
G00 Z0.100000
M05
(End cutting path id: path11267)


(Start cutting path id: path11269)
(Change tool to Default tool)

G00 Z0.100000
G00 X31.563876 Y71.556865
M03 S35
G01 Z-1.000000 F800.0(Penetrate)
G01 X31.554288 Y57.242057 Z-1.000000 F2500.000000
G00 Z0.100000
M05
(End cutting path id: path11269)


(Start cutting path id: path11271)
(Change tool to Default tool)

G00 Z0.100000
G00 X30.181362 Y72.832566
M03 S35
G01 Z-1.000000 F800.0(Penetrate)
G01 X30.170066 Y55.968210 Z-1.000000 F2500.000000
G00 Z0.100000
M05
(End cutting path id: path11271)


(Start cutting path id: path11273)
(Change tool to Default tool)

G00 Z0.100000
G00 X28.798599 Y73.736583
M03 S35
G01 Z-1.000000 F800.0(Penetrate)
G01 X28.786093 Y55.066045 Z-1.000000 F2500.000000
G00 Z0.100000
M05
(End cutting path id: path11273)


(Start cutting path id: path11275)
(Change tool to Default tool)

G00 Z0.100000
G00 X27.415655 Y74.370472
M03 S35
G01 Z-1.000000 F800.0(Penetrate)
G01 X27.402301 Y54.434010 Z-1.000000 F2500.000000
G00 Z0.100000
M05
(End cutting path id: path11275)


(Start cutting path id: path11277)
(Change tool to Default tool)

G00 Z0.100000
G00 X26.032563 Y74.783748
M03 S35
G01 Z-1.000000 F800.0(Penetrate)
G01 X26.018657 Y54.022586 Z-1.000000 F2500.000000
G00 Z0.100000
M05
(End cutting path id: path11277)


(Start cutting path id: path11279)
(Change tool to Default tool)

G00 Z0.100000
G00 X24.649340 Y75.002201
M03 S35
G01 Z-1.000000 F800.0(Penetrate)
G01 X24.635143 Y53.805987 Z-1.000000 F2500.000000
G00 Z0.100000
M05
(End cutting path id: path11279)


(Start cutting path id: path11285)
(Change tool to Default tool)

G00 Z0.100000
G00 X20.498937 Y74.558028
M03 S35
G01 Z-1.000000 F800.0(Penetrate)
G01 X20.485338 Y54.255719 Z-1.000000 F2500.000000
G00 Z0.100000
M05
(End cutting path id: path11285)


(Start cutting path id: path11283)
(Change tool to Default tool)

G00 Z0.100000
G00 X21.882530 Y74.892338
M03 S35
G01 Z-1.000000 F800.0(Penetrate)
G01 X21.868482 Y53.919556 Z-1.000000 F2500.000000
G00 Z0.100000
M05
(End cutting path id: path11283)


(Start cutting path id: path11281)
(Change tool to Default tool)

G00 Z0.100000
G00 X23.265996 Y75.037800
M03 S35
G01 Z-1.000000 F800.0(Penetrate)
G01 X23.251752 Y53.772241 Z-1.000000 F2500.000000
G00 Z0.100000
M05
(End cutting path id: path11281)


(Start cutting path id: path11305)
(Change tool to Default tool)

G00 Z0.100000
G00 X46.860756 Y74.861933
M03 S35
G01 Z-1.000000 F800.0(Penetrate)
G01 X39.674437 Y55.158745 Z-1.000000 F2500.000000
G00 Z0.100000
M05
(End cutting path id: path11305)


(Start cutting path id: path11295)
(Change tool to Default tool)

G00 Z0.100000
G00 X52.964456 Y71.410437
M03 S35
G01 Z-1.000000 F800.0(Penetrate)
G01 X46.566989 Y53.870131 Z-1.000000 F2500.000000
G00 Z0.100000
M05
(End cutting path id: path11295)


(Start cutting path id: path11067)
(Change tool to Default tool)

G00 Z0.100000
G00 X65.568801 Y53.714030
M03 S35
G01 Z-1.000000 F800.0(Penetrate)
G01 X55.659050 Y41.920107 Z-1.000000 F2500.000000
G00 Z0.100000
M05
(End cutting path id: path11067)


(Start cutting path id: path11065)
(Change tool to Default tool)

G00 Z0.100000
G00 X67.344542 Y53.676980
M03 S35
G01 Z-1.000000 F800.0(Penetrate)
G01 X56.001561 Y40.177312 Z-1.000000 F2500.000000
G00 Z0.100000
M05
(End cutting path id: path11065)


(Start cutting path id: path11063)
(Change tool to Default tool)

G00 Z0.100000
G00 X68.912542 Y53.392693
M03 S35
G01 Z-1.000000 F800.0(Penetrate)
G01 X56.551814 Y38.681771 Z-1.000000 F2500.000000
G00 Z0.100000
M05
(End cutting path id: path11063)


(Start cutting path id: path11041)
(Change tool to Default tool)

G00 Z0.100000
G00 X74.382568 Y36.248081
M03 S35
G01 Z-1.000000 F800.0(Penetrate)
G01 X74.382568 Y36.248099 Z-1.000000 F2500.000000
G00 Z0.100000
M05
(End cutting path id: path11041)


(Start cutting path id: path11043)
(Change tool to Default tool)

G00 Z0.100000
G00 X76.698652 Y41.154970
M03 S35
G01 Z-1.000000 F800.0(Penetrate)
G01 X69.948232 Y33.121055 Z-1.000000 F2500.000000
G00 Z0.100000
M05
(End cutting path id: path11043)


(Start cutting path id: path11045)
(Change tool to Default tool)

G00 Z0.100000
G00 X76.868680 Y43.507736
M03 S35
G01 Z-1.000000 F800.0(Penetrate)
G01 X67.659951 Y32.548118 Z-1.000000 F2500.000000
G00 Z0.100000
M05
(End cutting path id: path11045)


(Start cutting path id: path11047)
(Change tool to Default tool)

G00 Z0.100000
G00 X76.629614 Y45.373652
M03 S35
G01 Z-1.000000 F800.0(Penetrate)
G01 X65.780765 Y32.462064 Z-1.000000 F2500.000000
G00 Z0.100000
M05
(End cutting path id: path11047)


(Start cutting path id: path11049)
(Change tool to Default tool)

G00 Z0.100000
G00 X76.151442 Y46.954985
M03 S35
G01 Z-1.000000 F800.0(Penetrate)
G01 X64.140666 Y32.660559 Z-1.000000 F2500.000000
G00 Z0.100000
M05
(End cutting path id: path11049)


(Start cutting path id: path11051)
(Change tool to Default tool)

G00 Z0.100000
G00 X75.499501 Y48.329515
M03 S35
G01 Z-1.000000 F800.0(Penetrate)
G01 X62.674371 Y33.065893 Z-1.000000 F2500.000000
G00 Z0.100000
M05
(End cutting path id: path11051)


(Start cutting path id: path11053)
(Change tool to Default tool)

G00 Z0.100000
G00 X74.705635 Y49.535138
M03 S35
G01 Z-1.000000 F800.0(Penetrate)
G01 X61.349968 Y33.640097 Z-1.000000 F2500.000000
G00 Z0.100000
M05
(End cutting path id: path11053)


(Start cutting path id: path11055)
(Change tool to Default tool)

G00 Z0.100000
G00 X73.786455 Y50.591601
M03 S35
G01 Z-1.000000 F800.0(Penetrate)
G01 X60.150912 Y34.363480 Z-1.000000 F2500.000000
G00 Z0.100000
M05
(End cutting path id: path11055)


(Start cutting path id: path11061)
(Change tool to Default tool)

G00 Z0.100000
G00 X70.321541 Y52.919170
M03 S35
G01 Z-1.000000 F800.0(Penetrate)
G01 X57.261068 Y37.375449 Z-1.000000 F2500.000000
G00 Z0.100000
M05
(End cutting path id: path11061)


(Start cutting path id: path11059)
(Change tool to Default tool)

G00 Z0.100000
G00 X71.596334 Y52.285921
M03 S35
G01 Z-1.000000 F800.0(Penetrate)
G01 X58.104527 Y36.228851 Z-1.000000 F2500.000000
G00 Z0.100000
M05
(End cutting path id: path11059)


(Start cutting path id: path11057)
(Change tool to Default tool)

G00 Z0.100000
G00 X72.749631 Y51.508068
M03 S35
G01 Z-1.000000 F800.0(Penetrate)
G01 X59.069483 Y35.226859 Z-1.000000 F2500.000000
G00 Z0.100000
M05
(End cutting path id: path11057)


(Start cutting path id: path10791)
(Change tool to Default tool)

G00 Z0.100000
G00 X85.333717 Y32.214469
M03 S35
G01 Z-1.000000 F800.0(Penetrate)
G01 X79.576325 Y28.895580 Z-1.000000 F2500.000000
G00 Z0.100000
M05
(End cutting path id: path10791)


(Start cutting path id: path10789)
(Change tool to Default tool)

G00 Z0.100000
G00 X88.422636 Y32.398357
M03 S35
G01 Z-1.000000 F800.0(Penetrate)
G01 X77.869169 Y26.314719 Z-1.000000 F2500.000000
G00 Z0.100000
M05
(End cutting path id: path10789)


(Start cutting path id: path10787)
(Change tool to Default tool)

G00 Z0.100000
G00 X90.509716 Y32.004703
M03 S35
G01 Z-1.000000 F800.0(Penetrate)
G01 X77.163852 Y24.311382 Z-1.000000 F2500.000000
G00 Z0.100000
M05
(End cutting path id: path10787)


(Start cutting path id: path10785)
(Change tool to Default tool)

G00 Z0.100000
G00 X92.165710 Y31.362544
M03 S35
G01 Z-1.000000 F800.0(Penetrate)
G01 X76.889639 Y22.556550 Z-1.000000 F2500.000000
G00 Z0.100000
M05
(End cutting path id: path10785)


(Start cutting path id: path10783)
(Change tool to Default tool)

G00 Z0.100000
G00 X93.541908 Y30.559109
M03 S35
G01 Z-1.000000 F800.0(Penetrate)
G01 X76.895187 Y20.962994 Z-1.000000 F2500.000000
G00 Z0.100000
M05
(End cutting path id: path10783)


(Start cutting path id: path10761)
(Change tool to Default tool)

G00 Z0.100000
G00 X92.818245 Y12.577610
M03 S35
G01 Z-1.000000 F800.0(Penetrate)
G01 X92.818245 Y12.577610 Z-1.000000 F2500.000000
G00 Z0.100000
M05
(End cutting path id: path10761)


(Start cutting path id: path10763)
(Change tool to Default tool)

G00 Z0.100000
G00 X96.672899 Y16.396407
M03 S35
G01 Z-1.000000 F800.0(Penetrate)
G01 X87.581827 Y11.155787 Z-1.000000 F2500.000000
G00 Z0.100000
M05
(End cutting path id: path10763)


(Start cutting path id: path10765)
(Change tool to Default tool)

G00 Z0.100000
G00 X97.637378 Y18.549151
M03 S35
G01 Z-1.000000 F800.0(Penetrate)
G01 X85.235585 Y11.400051 Z-1.000000 F2500.000000
G00 Z0.100000
M05
(End cutting path id: path10765)


(Start cutting path id: path10767)
(Change tool to Default tool)

G00 Z0.100000
G00 X98.050905 Y20.384285
M03 S35
G01 Z-1.000000 F800.0(Penetrate)
G01 X83.440295 Y11.961890 Z-1.000000 F2500.000000
G00 Z0.100000
M05
(End cutting path id: path10767)


(Start cutting path id: path10769)
(Change tool to Default tool)

G00 Z0.100000
G00 X98.142425 Y22.033803
M03 S35
G01 Z-1.000000 F800.0(Penetrate)
G01 X81.967012 Y12.709364 Z-1.000000 F2500.000000
G00 Z0.100000
M05
(End cutting path id: path10769)


(Start cutting path id: path10771)
(Change tool to Default tool)

G00 Z0.100000
G00 X97.999906 Y23.548421
M03 S35
G01 Z-1.000000 F800.0(Penetrate)
G01 X80.727767 Y13.591754 Z-1.000000 F2500.000000
G00 Z0.100000
M05
(End cutting path id: path10771)


(Start cutting path id: path10773)
(Change tool to Default tool)

G00 Z0.100000
G00 X97.666284 Y24.952852
M03 S35
G01 Z-1.000000 F800.0(Penetrate)
G01 X79.679644 Y14.584314 Z-1.000000 F2500.000000
G00 Z0.100000
M05
(End cutting path id: path10773)


(Start cutting path id: path10775)
(Change tool to Default tool)

G00 Z0.100000
G00 X97.163862 Y26.259975
M03 S35
G01 Z-1.000000 F800.0(Penetrate)
G01 X78.800285 Y15.674164 Z-1.000000 F2500.000000
G00 Z0.100000
M05
(End cutting path id: path10775)


(Start cutting path id: path10781)
(Change tool to Default tool)

G00 Z0.100000
G00 X94.703973 Y29.632236
M03 S35
G01 Z-1.000000 F800.0(Penetrate)
G01 X77.114885 Y19.492876 Z-1.000000 F2500.000000
G00 Z0.100000
M05
(End cutting path id: path10781)


(Start cutting path id: path10779)
(Change tool to Default tool)

G00 Z0.100000
G00 X95.685314 Y28.601182
M03 S35
G01 Z-1.000000 F800.0(Penetrate)
G01 X77.515307 Y18.126939 Z-1.000000 F2500.000000
G00 Z0.100000
M05
(End cutting path id: path10779)


(Start cutting path id: path10777)
(Change tool to Default tool)

G00 Z0.100000
G00 X96.503018 Y27.475778
M03 S35
G01 Z-1.000000 F800.0(Penetrate)
G01 X78.079384 Y16.855352 Z-1.000000 F2500.000000
G00 Z0.100000
M05
(End cutting path id: path10777)


(Start cutting path id: path11069)
(Change tool to Default tool)

G00 Z0.100000
G00 X92.832500 Y33.860195
M03 S35
G01 Z-1.000000 F800.0(Penetrate)
G01 X92.832500 Y33.860195 Z-1.000000 F2500.000000
G00 Z0.100000
M05
(End cutting path id: path11069)


(Start cutting path id: path11071)
(Change tool to Default tool)

G00 Z0.100000
G00 X96.687154 Y37.678992
M03 S35
G01 Z-1.000000 F800.0(Penetrate)
G01 X87.596082 Y32.438372 Z-1.000000 F2500.000000
G00 Z0.100000
M05
(End cutting path id: path11071)


(Start cutting path id: path11073)
(Change tool to Default tool)

G00 Z0.100000
G00 X97.651633 Y39.831737
M03 S35
G01 Z-1.000000 F800.0(Penetrate)
G01 X85.249840 Y32.682636 Z-1.000000 F2500.000000
G00 Z0.100000
M05
(End cutting path id: path11073)


(Start cutting path id: path11075)
(Change tool to Default tool)

G00 Z0.100000
G00 X98.065160 Y41.666871
M03 S35
G01 Z-1.000000 F800.0(Penetrate)
G01 X83.454550 Y33.244475 Z-1.000000 F2500.000000
G00 Z0.100000
M05
(End cutting path id: path11075)


(Start cutting path id: path11077)
(Change tool to Default tool)

G00 Z0.100000
G00 X98.156680 Y43.316388
M03 S35
G01 Z-1.000000 F800.0(Penetrate)
G01 X81.981267 Y33.991949 Z-1.000000 F2500.000000
G00 Z0.100000
M05
(End cutting path id: path11077)


(Start cutting path id: path11079)
(Change tool to Default tool)

G00 Z0.100000
G00 X98.014161 Y44.831006
M03 S35
G01 Z-1.000000 F800.0(Penetrate)
G01 X80.742023 Y34.874340 Z-1.000000 F2500.000000
G00 Z0.100000
M05
(End cutting path id: path11079)


(Start cutting path id: path11081)
(Change tool to Default tool)

G00 Z0.100000
G00 X97.680540 Y46.235437
M03 S35
G01 Z-1.000000 F800.0(Penetrate)
G01 X79.693899 Y35.866899 Z-1.000000 F2500.000000
G00 Z0.100000
M05
(End cutting path id: path11081)


(Start cutting path id: path11095)
(Change tool to Default tool)

G00 Z0.100000
G00 X90.523971 Y53.287288
M03 S35
G01 Z-1.000000 F800.0(Penetrate)
G01 X77.178107 Y45.593967 Z-1.000000 F2500.000000
G00 Z0.100000
M05
(End cutting path id: path11095)


(Start cutting path id: path11309)
(Change tool to Default tool)

G00 Z0.100000
G00 X74.396824 Y57.530666
M03 S35
G01 Z-1.000000 F800.0(Penetrate)
G01 X74.396824 Y57.530666 Z-1.000000 F2500.000000
G00 Z0.100000
M05
(End cutting path id: path11309)


(Start cutting path id: path11311)
(Change tool to Default tool)

G00 Z0.100000
G00 X76.712908 Y62.437555
M03 S35
G01 Z-1.000000 F800.0(Penetrate)
G01 X69.962487 Y54.403641 Z-1.000000 F2500.000000
G00 Z0.100000
M05
(End cutting path id: path11311)


(Start cutting path id: path11313)
(Change tool to Default tool)

G00 Z0.100000
G00 X76.882935 Y64.790321
M03 S35
G01 Z-1.000000 F800.0(Penetrate)
G01 X67.674206 Y53.830703 Z-1.000000 F2500.000000
G00 Z0.100000
M05
(End cutting path id: path11313)


(Start cutting path id: path11315)
(Change tool to Default tool)

G00 Z0.100000
G00 X76.643869 Y66.656237
M03 S35
G01 Z-1.000000 F800.0(Penetrate)
G01 X65.795020 Y53.744650 Z-1.000000 F2500.000000
G00 Z0.100000
M05
(End cutting path id: path11315)


(Start cutting path id: path11317)
(Change tool to Default tool)

G00 Z0.100000
G00 X76.165697 Y68.237571
M03 S35
G01 Z-1.000000 F800.0(Penetrate)
G01 X64.154921 Y53.943144 Z-1.000000 F2500.000000
G00 Z0.100000
M05
(End cutting path id: path11317)


(Start cutting path id: path11319)
(Change tool to Default tool)

G00 Z0.100000
G00 X75.513757 Y69.612100
M03 S35
G01 Z-1.000000 F800.0(Penetrate)
G01 X62.688626 Y54.348478 Z-1.000000 F2500.000000
G00 Z0.100000
M05
(End cutting path id: path11319)


(Start cutting path id: path11321)
(Change tool to Default tool)

G00 Z0.100000
G00 X74.719890 Y70.817724
M03 S35
G01 Z-1.000000 F800.0(Penetrate)
G01 X61.364223 Y54.922683 Z-1.000000 F2500.000000
G00 Z0.100000
M05
(End cutting path id: path11321)


(Start cutting path id: path11297)
(Change tool to Default tool)

G00 Z0.100000
G00 X51.881710 Y72.479088
M03 S35
G01 Z-1.000000 F800.0(Penetrate)
G01 X45.050488 Y53.749517 Z-1.000000 F2500.000000
G00 Z0.100000
M05
(End cutting path id: path11297)


(Start cutting path id: path11299)
(Change tool to Default tool)

G00 Z0.100000
G00 X50.723379 Y73.340478
M03 S35
G01 Z-1.000000 F800.0(Penetrate)
G01 X43.609572 Y53.836127 Z-1.000000 F2500.000000
G00 Z0.100000
M05
(End cutting path id: path11299)


(Start cutting path id: path11301)
(Change tool to Default tool)

G00 Z0.100000
G00 X49.498293 Y74.018848
M03 S35
G01 Z-1.000000 F800.0(Penetrate)
G01 X42.235411 Y54.105776 Z-1.000000 F2500.000000
G00 Z0.100000
M05
(End cutting path id: path11301)


(Start cutting path id: path11303)
(Change tool to Default tool)

G00 Z0.100000
G00 X48.210538 Y74.525438
M03 S35
G01 Z-1.000000 F800.0(Penetrate)
G01 X40.923919 Y54.547222 Z-1.000000 F2500.000000
G00 Z0.100000
M05
(End cutting path id: path11303)


(Start cutting path id: path11503)
(Change tool to Default tool)

G00 Z0.100000
G00 X54.978480 Y82.026833
M03 S35
G01 Z-1.000000 F800.0(Penetrate)
G01 X54.978480 Y82.026833 Z-1.000000 F2500.000000
G00 Z0.100000
M05
(End cutting path id: path11503)


(Start cutting path id: path11505)
(Change tool to Default tool)

G00 Z0.100000
G00 X55.476636 Y87.429937
M03 S35
G01 Z-1.000000 F800.0(Penetrate)
G01 X51.881060 Y77.571747 Z-1.000000 F2500.000000
G00 Z0.100000
M05
(End cutting path id: path11505)


(Start cutting path id: path11507)
(Change tool to Default tool)

G00 Z0.100000
G00 X54.831714 Y89.698970
M03 S35
G01 Z-1.000000 F800.0(Penetrate)
G01 X49.926734 Y76.250733 Z-1.000000 F2500.000000
G00 Z0.100000
M05
(End cutting path id: path11507)


(Start cutting path id: path11509)
(Change tool to Default tool)

G00 Z0.100000
G00 X53.968885 Y91.370586
M03 S35
G01 Z-1.000000 F800.0(Penetrate)
G01 X48.190317 Y75.527135 Z-1.000000 F2500.000000
G00 Z0.100000
M05
(End cutting path id: path11509)


(Start cutting path id: path11485)
(Change tool to Default tool)

G00 Z0.100000
G00 X34.340073 Y85.680193
M03 S35
G01 Z-1.000000 F800.0(Penetrate)
G01 X34.340073 Y85.680193 Z-1.000000 F2500.000000
G00 Z0.100000
M05
(End cutting path id: path11485)


(Start cutting path id: path11487)
(Change tool to Default tool)

G00 Z0.100000
G00 X32.960220 Y90.927827
M03 S35
G01 Z-1.000000 F800.0(Penetrate)
G01 X32.953191 Y80.434413 Z-1.000000 F2500.000000
G00 Z0.100000
M05
(End cutting path id: path11487)


(Start cutting path id: path11489)
(Change tool to Default tool)

G00 Z0.100000
G00 X31.578131 Y92.839451
M03 S35
G01 Z-1.000000 F800.0(Penetrate)
G01 X31.568543 Y78.524642 Z-1.000000 F2500.000000
G00 Z0.100000
M05
(End cutting path id: path11489)


(Start cutting path id: path11491)
(Change tool to Default tool)

G00 Z0.100000
G00 X30.195617 Y94.115151
M03 S35
G01 Z-1.000000 F800.0(Penetrate)
G01 X30.184321 Y77.250795 Z-1.000000 F2500.000000
G00 Z0.100000
M05
(End cutting path id: path11491)


(Start cutting path id: path11493)
(Change tool to Default tool)

G00 Z0.100000
G00 X28.812854 Y95.019169
M03 S35
G01 Z-1.000000 F800.0(Penetrate)
G01 X28.800348 Y76.348630 Z-1.000000 F2500.000000
G00 Z0.100000
M05
(End cutting path id: path11493)


(Start cutting path id: path11495)
(Change tool to Default tool)

G00 Z0.100000
G00 X27.429910 Y95.653057
M03 S35
G01 Z-1.000000 F800.0(Penetrate)
G01 X27.416556 Y75.716595 Z-1.000000 F2500.000000
G00 Z0.100000
M05
(End cutting path id: path11495)


(Start cutting path id: path11497)
(Change tool to Default tool)

G00 Z0.100000
G00 X26.046818 Y96.066334
M03 S35
G01 Z-1.000000 F800.0(Penetrate)
G01 X26.032912 Y75.305172 Z-1.000000 F2500.000000
G00 Z0.100000
M05
(End cutting path id: path11497)


(Start cutting path id: path11499)
(Change tool to Default tool)

G00 Z0.100000
G00 X24.663596 Y96.284786
M03 S35
G01 Z-1.000000 F800.0(Penetrate)
G01 X24.649398 Y75.088572 Z-1.000000 F2500.000000
G00 Z0.100000
M05
(End cutting path id: path11499)


(Start cutting path id: path11501)
(Change tool to Default tool)

G00 Z0.100000
G00 X23.280251 Y96.320385
M03 S35
G01 Z-1.000000 F800.0(Penetrate)
G01 X23.266007 Y75.054826 Z-1.000000 F2500.000000
G00 Z0.100000
M05
(End cutting path id: path11501)


(Start cutting path id: path11519)
(Change tool to Default tool)

G00 Z0.100000
G00 X48.224794 Y95.808024
M03 S35
G01 Z-1.000000 F800.0(Penetrate)
G01 X40.938174 Y75.829807 Z-1.000000 F2500.000000
G00 Z0.100000
M05
(End cutting path id: path11519)


(Start cutting path id: path11511)
(Change tool to Default tool)

G00 Z0.100000
G00 X52.978711 Y92.693022
M03 S35
G01 Z-1.000000 F800.0(Penetrate)
G01 X46.581244 Y75.152717 Z-1.000000 F2500.000000
G00 Z0.100000
M05
(End cutting path id: path11511)


(Start cutting path id: path11513)
(Change tool to Default tool)

G00 Z0.100000
G00 X51.895965 Y93.761673
M03 S35
G01 Z-1.000000 F800.0(Penetrate)
G01 X45.064743 Y75.032102 Z-1.000000 F2500.000000
G00 Z0.100000
M05
(End cutting path id: path11513)


(Start cutting path id: path11515)
(Change tool to Default tool)

G00 Z0.100000
G00 X50.737634 Y94.623064
M03 S35
G01 Z-1.000000 F800.0(Penetrate)
G01 X43.623827 Y75.118712 Z-1.000000 F2500.000000
G00 Z0.100000
M05
(End cutting path id: path11515)


(Start cutting path id: path11329)
(Change tool to Default tool)

G00 Z0.100000
G00 X70.335796 Y74.201755
M03 S35
G01 Z-1.000000 F800.0(Penetrate)
G01 X57.275323 Y58.658034 Z-1.000000 F2500.000000
G00 Z0.100000
M05
(End cutting path id: path11329)


(Start cutting path id: path11327)
(Change tool to Default tool)

G00 Z0.100000
G00 X71.610589 Y73.568507
M03 S35
G01 Z-1.000000 F800.0(Penetrate)
G01 X58.118783 Y57.511437 Z-1.000000 F2500.000000
G00 Z0.100000
M05
(End cutting path id: path11327)


(Start cutting path id: path11325)
(Change tool to Default tool)

G00 Z0.100000
G00 X72.763887 Y72.790653
M03 S35
G01 Z-1.000000 F800.0(Penetrate)
G01 X59.083738 Y56.509444 Z-1.000000 F2500.000000
G00 Z0.100000
M05
(End cutting path id: path11325)


(Start cutting path id: path11323)
(Change tool to Default tool)

G00 Z0.100000
G00 X73.800711 Y71.874187
M03 S35
G01 Z-1.000000 F800.0(Penetrate)
G01 X60.165167 Y55.646065 Z-1.000000 F2500.000000
G00 Z0.100000
M05
(End cutting path id: path11323)


(Start cutting path id: path11521)
(Change tool to Default tool)

G00 Z0.100000
G00 X74.411079 Y78.813252
M03 S35
G01 Z-1.000000 F800.0(Penetrate)
G01 X74.411079 Y78.813252 Z-1.000000 F2500.000000
G00 Z0.100000
M05
(End cutting path id: path11521)


(Start cutting path id: path11523)
(Change tool to Default tool)

G00 Z0.100000
G00 X76.727163 Y83.720141
M03 S35
G01 Z-1.000000 F800.0(Penetrate)
G01 X69.976742 Y75.686226 Z-1.000000 F2500.000000
G00 Z0.100000
M05
(End cutting path id: path11523)


(Start cutting path id: path11525)
(Change tool to Default tool)

G00 Z0.100000
G00 X76.897190 Y86.072906
M03 S35
G01 Z-1.000000 F800.0(Penetrate)
G01 X67.688462 Y75.113288 Z-1.000000 F2500.000000
G00 Z0.100000
M05
(End cutting path id: path11525)


(Start cutting path id: path11527)
(Change tool to Default tool)

G00 Z0.100000
G00 X76.658124 Y87.938823
M03 S35
G01 Z-1.000000 F800.0(Penetrate)
G01 X65.809275 Y75.027235 Z-1.000000 F2500.000000
G00 Z0.100000
M05
(End cutting path id: path11527)


(Start cutting path id: path11529)
(Change tool to Default tool)

G00 Z0.100000
G00 X76.179953 Y89.520156
M03 S35
G01 Z-1.000000 F800.0(Penetrate)
G01 X64.169176 Y75.225730 Z-1.000000 F2500.000000
G00 Z0.100000
M05
(End cutting path id: path11529)


(Start cutting path id: path11531)
(Change tool to Default tool)

G00 Z0.100000
G00 X75.528012 Y90.894686
M03 S35
G01 Z-1.000000 F800.0(Penetrate)
G01 X62.702882 Y75.631063 Z-1.000000 F2500.000000
G00 Z0.100000
M05
(End cutting path id: path11531)


(Start cutting path id: path11533)
(Change tool to Default tool)

G00 Z0.100000
G00 X74.734145 Y92.100309
M03 S35
G01 Z-1.000000 F800.0(Penetrate)
G01 X61.378478 Y76.205268 Z-1.000000 F2500.000000
G00 Z0.100000
M05
(End cutting path id: path11533)


(Start cutting path id: path11535)
(Change tool to Default tool)

G00 Z0.100000
G00 X73.814966 Y93.156772
M03 S35
G01 Z-1.000000 F800.0(Penetrate)
G01 X60.179422 Y76.928651 Z-1.000000 F2500.000000
G00 Z0.100000
M05
(End cutting path id: path11535)


(Start cutting path id: path11537)
(Change tool to Default tool)

G00 Z0.100000
G00 X72.778142 Y94.073239
M03 S35
G01 Z-1.000000 F800.0(Penetrate)
G01 X59.097993 Y77.792030 Z-1.000000 F2500.000000
G00 Z0.100000
M05
(End cutting path id: path11537)


(Start cutting path id: path11693)
(Change tool to Default tool)

G00 Z0.100000
G00 X74.425334 Y100.095837
M03 S35
G01 Z-1.000000 F800.0(Penetrate)
G01 X74.425334 Y100.095837 Z-1.000000 F2500.000000
G00 Z0.100000
M05
(End cutting path id: path11693)


(Start cutting path id: path11695)
(Change tool to Default tool)

G00 Z0.100000
G00 X76.741418 Y105.002726
M03 S35
G01 Z-1.000000 F800.0(Penetrate)
G01 X69.990997 Y96.968811 Z-1.000000 F2500.000000
G00 Z0.100000
M05
(End cutting path id: path11695)


(Start cutting path id: path11697)
(Change tool to Default tool)

G00 Z0.100000
G00 X76.911446 Y107.355509
M03 S35
G01 Z-1.000000 F800.0(Penetrate)
G01 X67.702717 Y96.395873 Z-1.000000 F2500.000000
G00 Z0.100000
M05
(End cutting path id: path11697)


(Start cutting path id: path11699)
(Change tool to Default tool)

G00 Z0.100000
G00 X76.672379 Y109.221390
M03 S35
G01 Z-1.000000 F800.0(Penetrate)
G01 X65.823530 Y96.309820 Z-1.000000 F2500.000000
G00 Z0.100000
M05
(End cutting path id: path11699)


(Start cutting path id: path11701)
(Change tool to Default tool)

G00 Z0.100000
G00 X76.194208 Y110.802741
M03 S35
G01 Z-1.000000 F800.0(Penetrate)
G01 X64.183431 Y96.508315 Z-1.000000 F2500.000000
G00 Z0.100000
M05
(End cutting path id: path11701)


(Start cutting path id: path11683)
(Change tool to Default tool)

G00 Z0.100000
G00 X54.845969 Y110.981555
M03 S35
G01 Z-1.000000 F800.0(Penetrate)
G01 X49.940989 Y97.533318 Z-1.000000 F2500.000000
G00 Z0.100000
M05
(End cutting path id: path11683)


(Start cutting path id: path11685)
(Change tool to Default tool)

G00 Z0.100000
G00 X53.983140 Y112.653171
M03 S35
G01 Z-1.000000 F800.0(Penetrate)
G01 X48.204572 Y96.809720 Z-1.000000 F2500.000000
G00 Z0.100000
M05
(End cutting path id: path11685)


(Start cutting path id: path11665)
(Change tool to Default tool)

G00 Z0.100000
G00 X34.354328 Y106.962778
M03 S35
G01 Z-1.000000 F800.0(Penetrate)
G01 X34.354328 Y106.962778 Z-1.000000 F2500.000000
G00 Z0.100000
M05
(End cutting path id: path11665)


(Start cutting path id: path11667)
(Change tool to Default tool)

G00 Z0.100000
G00 X32.974475 Y112.210412
M03 S35
G01 Z-1.000000 F800.0(Penetrate)
G01 X32.967446 Y101.716998 Z-1.000000 F2500.000000
G00 Z0.100000
M05
(End cutting path id: path11667)


(Start cutting path id: path11669)
(Change tool to Default tool)

G00 Z0.100000
G00 X31.592386 Y114.122036
M03 S35
G01 Z-1.000000 F800.0(Penetrate)
G01 X31.582798 Y99.807227 Z-1.000000 F2500.000000
G00 Z0.100000
M05
(End cutting path id: path11669)


(Start cutting path id: path11671)
(Change tool to Default tool)

G00 Z0.100000
G00 X30.209872 Y115.397736
M03 S35
G01 Z-1.000000 F800.0(Penetrate)
G01 X30.198576 Y98.533380 Z-1.000000 F2500.000000
G00 Z0.100000
M05
(End cutting path id: path11671)


(Start cutting path id: path11673)
(Change tool to Default tool)

G00 Z0.100000
G00 X28.827109 Y116.301754
M03 S35
G01 Z-1.000000 F800.0(Penetrate)
G01 X28.814603 Y97.631216 Z-1.000000 F2500.000000
G00 Z0.100000
M05
(End cutting path id: path11673)


(Start cutting path id: path11675)
(Change tool to Default tool)

G00 Z0.100000
G00 X27.444165 Y116.935642
M03 S35
G01 Z-1.000000 F800.0(Penetrate)
G01 X27.430811 Y96.999180 Z-1.000000 F2500.000000
G00 Z0.100000
M05
(End cutting path id: path11675)


(Start cutting path id: path11677)
(Change tool to Default tool)

G00 Z0.100000
G00 X26.061073 Y117.348919
M03 S35
G01 Z-1.000000 F800.0(Penetrate)
G01 X26.047167 Y96.587757 Z-1.000000 F2500.000000
G00 Z0.100000
M05
(End cutting path id: path11677)


(Start cutting path id: path11691)
(Change tool to Default tool)

G00 Z0.100000
G00 X50.751889 Y115.905649
M03 S35
G01 Z-1.000000 F800.0(Penetrate)
G01 X43.638082 Y96.401298 Z-1.000000 F2500.000000
G00 Z0.100000
M05
(End cutting path id: path11691)


(Start cutting path id: path11687)
(Change tool to Default tool)

G00 Z0.100000
G00 X52.992966 Y113.975608
M03 S35
G01 Z-1.000000 F800.0(Penetrate)
G01 X46.595499 Y96.435302 Z-1.000000 F2500.000000
G00 Z0.100000
M05
(End cutting path id: path11687)


(Start cutting path id: path11689)
(Change tool to Default tool)

G00 Z0.100000
G00 X51.910220 Y115.044258
M03 S35
G01 Z-1.000000 F800.0(Penetrate)
G01 X45.078998 Y96.314688 Z-1.000000 F2500.000000
G00 Z0.100000
M05
(End cutting path id: path11689)


(Start cutting path id: path11815)
(Change tool to Default tool)

G00 Z0.100000
G00 X55.006990 Y124.592003
M03 S35
G01 Z-1.000000 F800.0(Penetrate)
G01 X55.006990 Y124.592003 Z-1.000000 F2500.000000
G00 Z0.100000
M05
(End cutting path id: path11815)


(Start cutting path id: path11817)
(Change tool to Default tool)

G00 Z0.100000
G00 X55.505146 Y129.995108
M03 S35
G01 Z-1.000000 F800.0(Penetrate)
G01 X51.909570 Y120.136917 Z-1.000000 F2500.000000
G00 Z0.100000
M05
(End cutting path id: path11817)


(Start cutting path id: path11819)
(Change tool to Default tool)

G00 Z0.100000
G00 X54.860225 Y132.264140
M03 S35
G01 Z-1.000000 F800.0(Penetrate)
G01 X49.955245 Y118.815903 Z-1.000000 F2500.000000
G00 Z0.100000
M05
(End cutting path id: path11819)


(Start cutting path id: path11821)
(Change tool to Default tool)

G00 Z0.100000
G00 X53.997395 Y133.935757
M03 S35
G01 Z-1.000000 F800.0(Penetrate)
G01 X48.218827 Y118.092305 Z-1.000000 F2500.000000
G00 Z0.100000
M05
(End cutting path id: path11821)


(Start cutting path id: path11805)
(Change tool to Default tool)

G00 Z0.100000
G00 X34.368584 Y128.245364
M03 S35
G01 Z-1.000000 F800.0(Penetrate)
G01 X34.368584 Y128.245364 Z-1.000000 F2500.000000
G00 Z0.100000
M05
(End cutting path id: path11805)


(Start cutting path id: path11807)
(Change tool to Default tool)

G00 Z0.100000
G00 X32.988730 Y133.492997
M03 S35
G01 Z-1.000000 F800.0(Penetrate)
G01 X32.981701 Y122.999583 Z-1.000000 F2500.000000
G00 Z0.100000
M05
(End cutting path id: path11807)


(Start cutting path id: path11809)
(Change tool to Default tool)

G00 Z0.100000
G00 X31.606642 Y135.404621
M03 S35
G01 Z-1.000000 F800.0(Penetrate)
G01 X31.597053 Y121.089812 Z-1.000000 F2500.000000
G00 Z0.100000
M05
(End cutting path id: path11809)


(Start cutting path id: path11811)
(Change tool to Default tool)

G00 Z0.100000
G00 X30.224127 Y136.680321
M03 S35
G01 Z-1.000000 F800.0(Penetrate)
G01 X30.212832 Y119.815965 Z-1.000000 F2500.000000
G00 Z0.100000
M05
(End cutting path id: path11811)


(Start cutting path id: path11813)
(Change tool to Default tool)

G00 Z0.100000
G00 X28.841364 Y137.584339
M03 S35
G01 Z-1.000000 F800.0(Penetrate)
G01 X28.828859 Y118.913801 Z-1.000000 F2500.000000
G00 Z0.100000
M05
(End cutting path id: path11813)


(Start cutting path id: path11823)
(Change tool to Default tool)

G00 Z0.100000
G00 X53.007221 Y135.258193
M03 S35
G01 Z-1.000000 F800.0(Penetrate)
G01 X46.609754 Y117.717887 Z-1.000000 F2500.000000
G00 Z0.100000
M05
(End cutting path id: path11823)


(Start cutting path id: path11911)
(Change tool to Default tool)

G00 Z0.100000
G00 X55.021245 Y145.874589
M03 S35
G01 Z-1.000000 F800.0(Penetrate)
G01 X55.021245 Y145.874589 Z-1.000000 F2500.000000
G00 Z0.100000
M05
(End cutting path id: path11911)


(Start cutting path id: path11913)
(Change tool to Default tool)

G00 Z0.100000
G00 X55.519401 Y151.277693
M03 S35
G01 Z-1.000000 F800.0(Penetrate)
G01 X51.923825 Y141.419503 Z-1.000000 F2500.000000
G00 Z0.100000
M05
(End cutting path id: path11913)


(Start cutting path id: path11915)
(Change tool to Default tool)

G00 Z0.100000
G00 X54.874480 Y153.546726
M03 S35
G01 Z-1.000000 F800.0(Penetrate)
G01 X49.969500 Y140.098489 Z-1.000000 F2500.000000
G00 Z0.100000
M05
(End cutting path id: path11915)


(Start cutting path id: path11905)
(Change tool to Default tool)

G00 Z0.100000
G00 X34.382839 Y149.527949
M03 S35
G01 Z-1.000000 F800.0(Penetrate)
G01 X34.382839 Y149.527949 Z-1.000000 F2500.000000
G00 Z0.100000
M05
(End cutting path id: path11905)


(Start cutting path id: path11907)
(Change tool to Default tool)

G00 Z0.100000
G00 X33.002985 Y154.775583
M03 S35
G01 Z-1.000000 F800.0(Penetrate)
G01 X32.995957 Y144.282169 Z-1.000000 F2500.000000
G00 Z0.100000
M05
(End cutting path id: path11907)


(Start cutting path id: path11909)
(Change tool to Default tool)

G00 Z0.100000
G00 X31.620897 Y156.687207
M03 S35
G01 Z-1.000000 F800.0(Penetrate)
G01 X31.611309 Y142.372398 Z-1.000000 F2500.000000
G00 Z0.100000
M05
(End cutting path id: path11909)


(Start cutting path id: path11921)
(Change tool to Default tool)

G00 Z0.100000
G00 X76.939956 Y149.920680
M03 S35
G01 Z-1.000000 F800.0(Penetrate)
G01 X67.731227 Y138.961044 Z-1.000000 F2500.000000
G00 Z0.100000
M05
(End cutting path id: path11921)


(Start cutting path id: path11831)
(Change tool to Default tool)

G00 Z0.100000
G00 X76.686635 Y130.503976
M03 S35
G01 Z-1.000000 F800.0(Penetrate)
G01 X65.837785 Y117.592406 Z-1.000000 F2500.000000
G00 Z0.100000
M05
(End cutting path id: path11831)


(Start cutting path id: path11703)
(Change tool to Default tool)

G00 Z0.100000
G00 X75.542267 Y112.177253
M03 S35
G01 Z-1.000000 F800.0(Penetrate)
G01 X62.717137 Y96.913631 Z-1.000000 F2500.000000
G00 Z0.100000
M05
(End cutting path id: path11703)


(Start cutting path id: path11707)
(Change tool to Default tool)

G00 Z0.100000
G00 X92.875265 Y97.707951
M03 S35
G01 Z-1.000000 F800.0(Penetrate)
G01 X92.875265 Y97.707951 Z-1.000000 F2500.000000
G00 Z0.100000
M05
(End cutting path id: path11707)


(Start cutting path id: path11709)
(Change tool to Default tool)

G00 Z0.100000
G00 X96.729920 Y101.526748
M03 S35
G01 Z-1.000000 F800.0(Penetrate)
G01 X87.638848 Y96.286145 Z-1.000000 F2500.000000
G00 Z0.100000
M05
(End cutting path id: path11709)


(Start cutting path id: path11555)
(Change tool to Default tool)

G00 Z0.100000
G00 X96.545784 Y91.323534
M03 S35
G01 Z-1.000000 F800.0(Penetrate)
G01 X78.122149 Y80.703108 Z-1.000000 F2500.000000
G00 Z0.100000
M05
(End cutting path id: path11555)


(Start cutting path id: path11539)
(Change tool to Default tool)

G00 Z0.100000
G00 X92.861010 Y76.425366
M03 S35
G01 Z-1.000000 F800.0(Penetrate)
G01 X92.861010 Y76.425366 Z-1.000000 F2500.000000
G00 Z0.100000
M05
(End cutting path id: path11539)


(Start cutting path id: path11351)
(Change tool to Default tool)

G00 Z0.100000
G00 X94.732483 Y72.197407
M03 S35
G01 Z-1.000000 F800.0(Penetrate)
G01 X77.143395 Y62.058046 Z-1.000000 F2500.000000
G00 Z0.100000
M05
(End cutting path id: path11351)


(Start cutting path id: path11331)
(Change tool to Default tool)

G00 Z0.100000
G00 X92.846755 Y55.142781
M03 S35
G01 Z-1.000000 F800.0(Penetrate)
G01 X92.846755 Y55.142781 Z-1.000000 F2500.000000
G00 Z0.100000
M05
(End cutting path id: path11331)


(Start cutting path id: path11093)
(Change tool to Default tool)

G00 Z0.100000
G00 X92.179966 Y52.645129
M03 S35
G01 Z-1.000000 F800.0(Penetrate)
G01 X76.903894 Y43.839135 Z-1.000000 F2500.000000
G00 Z0.100000
M05
(End cutting path id: path11093)


(Start cutting path id: path11091)
(Change tool to Default tool)

G00 Z0.100000
G00 X93.556163 Y51.841694
M03 S35
G01 Z-1.000000 F800.0(Penetrate)
G01 X76.909442 Y42.245579 Z-1.000000 F2500.000000
G00 Z0.100000
M05
(End cutting path id: path11091)


(Start cutting path id: path11089)
(Change tool to Default tool)

G00 Z0.100000
G00 X94.718228 Y50.914821
M03 S35
G01 Z-1.000000 F800.0(Penetrate)
G01 X77.129140 Y40.775461 Z-1.000000 F2500.000000
G00 Z0.100000
M05
(End cutting path id: path11089)


(Start cutting path id: path11087)
(Change tool to Default tool)

G00 Z0.100000
G00 X95.699570 Y49.883767
M03 S35
G01 Z-1.000000 F800.0(Penetrate)
G01 X77.529562 Y39.409524 Z-1.000000 F2500.000000
G00 Z0.100000
M05
(End cutting path id: path11087)


(Start cutting path id: path11085)
(Change tool to Default tool)

G00 Z0.100000
G00 X96.517273 Y48.758364
M03 S35
G01 Z-1.000000 F800.0(Penetrate)
G01 X78.093639 Y38.137937 Z-1.000000 F2500.000000
G00 Z0.100000
M05
(End cutting path id: path11085)


(Start cutting path id: path11083)
(Change tool to Default tool)

G00 Z0.100000
G00 X97.178117 Y47.542561
M03 S35
G01 Z-1.000000 F800.0(Penetrate)
G01 X78.814540 Y36.956749 Z-1.000000 F2500.000000
G00 Z0.100000
M05
(End cutting path id: path11083)


(Start cutting path id: path11333)
(Change tool to Default tool)

G00 Z0.100000
G00 X96.701409 Y58.961577
M03 S35
G01 Z-1.000000 F800.0(Penetrate)
G01 X87.610338 Y53.720957 Z-1.000000 F2500.000000
G00 Z0.100000
M05
(End cutting path id: path11333)


(Start cutting path id: path11335)
(Change tool to Default tool)

G00 Z0.100000
G00 X97.665889 Y61.114322
M03 S35
G01 Z-1.000000 F800.0(Penetrate)
G01 X85.264095 Y53.965221 Z-1.000000 F2500.000000
G00 Z0.100000
M05
(End cutting path id: path11335)


(Start cutting path id: path11337)
(Change tool to Default tool)

G00 Z0.100000
G00 X98.079415 Y62.949456
M03 S35
G01 Z-1.000000 F800.0(Penetrate)
G01 X83.468806 Y54.527060 Z-1.000000 F2500.000000
G00 Z0.100000
M05
(End cutting path id: path11337)


(Start cutting path id: path11339)
(Change tool to Default tool)

G00 Z0.100000
G00 X98.170935 Y64.598973
M03 S35
G01 Z-1.000000 F800.0(Penetrate)
G01 X81.995522 Y55.274534 Z-1.000000 F2500.000000
G00 Z0.100000
M05
(End cutting path id: path11339)


(Start cutting path id: path11341)
(Change tool to Default tool)

G00 Z0.100000
G00 X98.028416 Y66.113591
M03 S35
G01 Z-1.000000 F800.0(Penetrate)
G01 X80.756278 Y56.156925 Z-1.000000 F2500.000000
G00 Z0.100000
M05
(End cutting path id: path11341)


(Start cutting path id: path11343)
(Change tool to Default tool)

G00 Z0.100000
G00 X97.694795 Y67.518023
M03 S35
G01 Z-1.000000 F800.0(Penetrate)
G01 X79.708154 Y57.149484 Z-1.000000 F2500.000000
G00 Z0.100000
M05
(End cutting path id: path11343)


(Start cutting path id: path11345)
(Change tool to Default tool)

G00 Z0.100000
G00 X97.192372 Y68.825146
M03 S35
G01 Z-1.000000 F800.0(Penetrate)
G01 X78.828796 Y58.239334 Z-1.000000 F2500.000000
G00 Z0.100000
M05
(End cutting path id: path11345)


(Start cutting path id: path11349)
(Change tool to Default tool)

G00 Z0.100000
G00 X95.713825 Y71.166353
M03 S35
G01 Z-1.000000 F800.0(Penetrate)
G01 X77.543817 Y60.692110 Z-1.000000 F2500.000000
G00 Z0.100000
M05
(End cutting path id: path11349)


(Start cutting path id: path11347)
(Change tool to Default tool)

G00 Z0.100000
G00 X96.531529 Y70.040949
M03 S35
G01 Z-1.000000 F800.0(Penetrate)
G01 X78.107894 Y59.420522 Z-1.000000 F2500.000000
G00 Z0.100000
M05
(End cutting path id: path11347)


(Start cutting path id: path11541)
(Change tool to Default tool)

G00 Z0.100000
G00 X96.715664 Y80.244163
M03 S35
G01 Z-1.000000 F800.0(Penetrate)
G01 X87.624593 Y75.003542 Z-1.000000 F2500.000000
G00 Z0.100000
M05
(End cutting path id: path11541)


(Start cutting path id: path11543)
(Change tool to Default tool)

G00 Z0.100000
G00 X97.680144 Y82.396907
M03 S35
G01 Z-1.000000 F800.0(Penetrate)
G01 X85.278350 Y75.247806 Z-1.000000 F2500.000000
G00 Z0.100000
M05
(End cutting path id: path11543)


(Start cutting path id: path11545)
(Change tool to Default tool)

G00 Z0.100000
G00 X98.093670 Y84.232041
M03 S35
G01 Z-1.000000 F800.0(Penetrate)
G01 X83.483061 Y75.809646 Z-1.000000 F2500.000000
G00 Z0.100000
M05
(End cutting path id: path11545)


(Start cutting path id: path11547)
(Change tool to Default tool)

G00 Z0.100000
G00 X98.185190 Y85.881558
M03 S35
G01 Z-1.000000 F800.0(Penetrate)
G01 X82.009777 Y76.557120 Z-1.000000 F2500.000000
G00 Z0.100000
M05
(End cutting path id: path11547)


(Start cutting path id: path11549)
(Change tool to Default tool)

G00 Z0.100000
G00 X98.042672 Y87.396177
M03 S35
G01 Z-1.000000 F800.0(Penetrate)
G01 X80.770533 Y77.439510 Z-1.000000 F2500.000000
G00 Z0.100000
M05
(End cutting path id: path11549)


(Start cutting path id: path11551)
(Change tool to Default tool)

G00 Z0.100000
G00 X97.709050 Y88.800608
M03 S35
G01 Z-1.000000 F800.0(Penetrate)
G01 X79.722409 Y78.432070 Z-1.000000 F2500.000000
G00 Z0.100000
M05
(End cutting path id: path11551)


(Start cutting path id: path11553)
(Change tool to Default tool)

G00 Z0.100000
G00 X97.206628 Y90.107731
M03 S35
G01 Z-1.000000 F800.0(Penetrate)
G01 X78.843051 Y79.521920 Z-1.000000 F2500.000000
G00 Z0.100000
M05
(End cutting path id: path11553)


(Start cutting path id: path11711)
(Change tool to Default tool)

G00 Z0.100000
G00 X97.694399 Y103.679493
M03 S35
G01 Z-1.000000 F800.0(Penetrate)
G01 X85.292605 Y96.530374 Z-1.000000 F2500.000000
G00 Z0.100000
M05
(End cutting path id: path11711)


(Start cutting path id: path11713)
(Change tool to Default tool)

G00 Z0.100000
G00 X98.107925 Y105.514627
M03 S35
G01 Z-1.000000 F800.0(Penetrate)
G01 X83.497316 Y97.092231 Z-1.000000 F2500.000000
G00 Z0.100000
M05
(End cutting path id: path11713)


(Start cutting path id: path11715)
(Change tool to Default tool)

G00 Z0.100000
G00 X98.199446 Y107.164144
M03 S35
G01 Z-1.000000 F800.0(Penetrate)
G01 X82.024032 Y97.839705 Z-1.000000 F2500.000000
G00 Z0.100000
M05
(End cutting path id: path11715)


(Start cutting path id: path11717)
(Change tool to Default tool)

G00 Z0.100000
G00 X98.056927 Y108.678762
M03 S35
G01 Z-1.000000 F800.0(Penetrate)
G01 X80.784788 Y98.722095 Z-1.000000 F2500.000000
G00 Z0.100000
M05
(End cutting path id: path11717)


(Start cutting path id: path11719)
(Change tool to Default tool)

G00 Z0.100000
G00 X97.723305 Y110.083175
M03 S35
G01 Z-1.000000 F800.0(Penetrate)
G01 X79.736664 Y99.714655 Z-1.000000 F2500.000000
G00 Z0.100000
M05
(End cutting path id: path11719)


(Start cutting path id: path11835)
(Change tool to Default tool)

G00 Z0.100000
G00 X92.889521 Y118.990536
M03 S35
G01 Z-1.000000 F800.0(Penetrate)
G01 X92.889521 Y118.990536 Z-1.000000 F2500.000000
G00 Z0.100000
M05
(End cutting path id: path11835)


(Start cutting path id: path11837)
(Change tool to Default tool)

G00 Z0.100000
G00 X96.744175 Y122.809333
M03 S35
G01 Z-1.000000 F800.0(Penetrate)
G01 X87.653103 Y117.568731 Z-1.000000 F2500.000000
G00 Z0.100000
M05
(End cutting path id: path11837)


(Start cutting path id: path11839)
(Change tool to Default tool)

G00 Z0.100000
G00 X97.708654 Y124.962078
M03 S35
G01 Z-1.000000 F800.0(Penetrate)
G01 X85.306861 Y117.812959 Z-1.000000 F2500.000000
G00 Z0.100000
M05
(End cutting path id: path11839)


(Start cutting path id: path11829)
(Change tool to Default tool)

G00 Z0.100000
G00 X76.925701 Y128.638094
M03 S35
G01 Z-1.000000 F800.0(Penetrate)
G01 X67.716972 Y117.678459 Z-1.000000 F2500.000000
G00 Z0.100000
M05
(End cutting path id: path11829)


(Start cutting path id: path11841)
(Change tool to Default tool)

G00 Z0.100000
G00 X98.122180 Y126.797212
M03 S35
G01 Z-1.000000 F800.0(Penetrate)
G01 X83.511571 Y118.374816 Z-1.000000 F2500.000000
G00 Z0.100000
M05
(End cutting path id: path11841)


(Start cutting path id: path11843)
(Change tool to Default tool)

G00 Z0.100000
G00 X98.213701 Y128.446729
M03 S35
G01 Z-1.000000 F800.0(Penetrate)
G01 X82.038288 Y119.122290 Z-1.000000 F2500.000000
G00 Z0.100000
M05
(End cutting path id: path11843)


(Start cutting path id: path11845)
(Change tool to Default tool)

G00 Z0.100000
G00 X110.698456 Y117.714617
M03 S35
G01 Z-1.000000 F800.0(Penetrate)
G01 X110.698456 Y117.714617 Z-1.000000 F2500.000000
G00 Z0.100000
M05
(End cutting path id: path11845)


(Start cutting path id: path11847)
(Change tool to Default tool)

G00 Z0.100000
G00 X115.626755 Y119.984740
M03 S35
G01 Z-1.000000 F800.0(Penetrate)
G01 X105.291545 Y118.169500 Z-1.000000 F2500.000000
G00 Z0.100000
M05
(End cutting path id: path11847)


(Start cutting path id: path11849)
(Change tool to Default tool)

G00 Z0.100000
G00 X117.269345 Y121.677770
M03 S35
G01 Z-1.000000 F800.0(Penetrate)
G01 X103.170343 Y119.201478 Z-1.000000 F2500.000000
G00 Z0.100000
M05
(End cutting path id: path11849)


(Start cutting path id: path11851)
(Change tool to Default tool)

G00 Z0.100000
G00 X118.285585 Y123.260816
M03 S35
G01 Z-1.000000 F800.0(Penetrate)
G01 X101.675492 Y120.343474 Z-1.000000 F2500.000000
G00 Z0.100000
M05
(End cutting path id: path11851)


(Start cutting path id: path11853)
(Change tool to Default tool)

G00 Z0.100000
G00 X118.935757 Y124.779550
M03 S35
G01 Z-1.000000 F800.0(Penetrate)
G01 X100.546691 Y121.549765 Z-1.000000 F2500.000000
G00 Z0.100000
M05
(End cutting path id: path11853)


(Start cutting path id: path11929)
(Change tool to Default tool)

G00 Z0.100000
G00 X110.712711 Y138.997202
M03 S35
G01 Z-1.000000 F800.0(Penetrate)
G01 X110.712711 Y138.997202 Z-1.000000 F2500.000000
G00 Z0.100000
M05
(End cutting path id: path11929)


(Start cutting path id: path11931)
(Change tool to Default tool)

G00 Z0.100000
G00 X115.641010 Y141.267326
M03 S35
G01 Z-1.000000 F800.0(Penetrate)
G01 X105.305800 Y139.452086 Z-1.000000 F2500.000000
G00 Z0.100000
M05
(End cutting path id: path11931)


(Start cutting path id: path11935)
(Change tool to Default tool)

G00 Z0.100000
G00 X128.299611 Y138.985422
M03 S35
G01 Z-1.000000 F800.0(Penetrate)
G01 X128.299611 Y138.985422 Z-1.000000 F2500.000000
G00 Z0.100000
M05
(End cutting path id: path11935)


(Start cutting path id: path11937)
(Change tool to Default tool)

G00 Z0.100000
G00 X133.707126 Y139.433062
M03 S35
G01 Z-1.000000 F800.0(Penetrate)
G01 X123.374357 Y141.262146 Z-1.000000 F2500.000000
G00 Z0.100000
M05
(End cutting path id: path11937)


(Start cutting path id: path11855)
(Change tool to Default tool)

G00 Z0.100000
G00 X128.285355 Y117.702837
M03 S35
G01 Z-1.000000 F800.0(Penetrate)
G01 X128.285355 Y117.702837 Z-1.000000 F2500.000000
G00 Z0.100000
M05
(End cutting path id: path11855)


(Start cutting path id: path11857)
(Change tool to Default tool)

G00 Z0.100000
G00 X133.692871 Y118.150477
M03 S35
G01 Z-1.000000 F800.0(Penetrate)
G01 X123.360102 Y119.979561 Z-1.000000 F2500.000000
G00 Z0.100000
M05
(End cutting path id: path11857)


(Start cutting path id: path11859)
(Change tool to Default tool)

G00 Z0.100000
G00 X135.815453 Y119.179612
M03 S35
G01 Z-1.000000 F800.0(Penetrate)
G01 X121.719781 Y121.674789 Z-1.000000 F2500.000000
G00 Z0.100000
M05
(End cutting path id: path11859)


(Start cutting path id: path11733)
(Change tool to Default tool)

G00 Z0.100000
G00 X119.472432 Y106.402823
M03 S35
G01 Z-1.000000 F800.0(Penetrate)
G01 X99.024281 Y102.811372 Z-1.000000 F2500.000000
G00 Z0.100000
M05
(End cutting path id: path11733)


(Start cutting path id: path11721)
(Change tool to Default tool)

G00 Z0.100000
G00 X110.684200 Y96.432032
M03 S35
G01 Z-1.000000 F800.0(Penetrate)
G01 X110.684200 Y96.432032 Z-1.000000 F2500.000000
G00 Z0.100000
M05
(End cutting path id: path11721)


(Start cutting path id: path11723)
(Change tool to Default tool)

G00 Z0.100000
G00 X115.612500 Y98.702155
M03 S35
G01 Z-1.000000 F800.0(Penetrate)
G01 X105.277289 Y96.886915 Z-1.000000 F2500.000000
G00 Z0.100000
M05
(End cutting path id: path11723)


(Start cutting path id: path11725)
(Change tool to Default tool)

G00 Z0.100000
G00 X117.255089 Y100.395185
M03 S35
G01 Z-1.000000 F800.0(Penetrate)
G01 X103.156088 Y97.918892 Z-1.000000 F2500.000000
G00 Z0.100000
M05
(End cutting path id: path11725)


(Start cutting path id: path11727)
(Change tool to Default tool)

G00 Z0.100000
G00 X118.271330 Y101.978231
M03 S35
G01 Z-1.000000 F800.0(Penetrate)
G01 X101.661237 Y99.060889 Z-1.000000 F2500.000000
G00 Z0.100000
M05
(End cutting path id: path11727)


(Start cutting path id: path11729)
(Change tool to Default tool)

G00 Z0.100000
G00 X118.921501 Y103.496965
M03 S35
G01 Z-1.000000 F800.0(Penetrate)
G01 X100.532435 Y100.267180 Z-1.000000 F2500.000000
G00 Z0.100000
M05
(End cutting path id: path11729)


(Start cutting path id: path11731)
(Change tool to Default tool)

G00 Z0.100000
G00 X119.305610 Y104.968966
M03 S35
G01 Z-1.000000 F800.0(Penetrate)
G01 X99.669716 Y101.520185 Z-1.000000 F2500.000000
G00 Z0.100000
M05
(End cutting path id: path11731)


(Start cutting path id: path11573)
(Change tool to Default tool)

G00 Z0.100000
G00 X119.227963 Y87.888885
M03 S35
G01 Z-1.000000 F800.0(Penetrate)
G01 X98.283017 Y84.210188 Z-1.000000 F2500.000000
G00 Z0.100000
M05
(End cutting path id: path11573)


(Start cutting path id: path11557)
(Change tool to Default tool)

G00 Z0.100000
G00 X110.669945 Y75.149429
M03 S35
G01 Z-1.000000 F800.0(Penetrate)
G01 X110.669945 Y75.149429 Z-1.000000 F2500.000000
G00 Z0.100000
M05
(End cutting path id: path11557)


(Start cutting path id: path11559)
(Change tool to Default tool)

G00 Z0.100000
G00 X115.598245 Y77.419570
M03 S35
G01 Z-1.000000 F800.0(Penetrate)
G01 X105.263034 Y75.604330 Z-1.000000 F2500.000000
G00 Z0.100000
M05
(End cutting path id: path11559)


(Start cutting path id: path11561)
(Change tool to Default tool)

G00 Z0.100000
G00 X117.240834 Y79.112600
M03 S35
G01 Z-1.000000 F800.0(Penetrate)
G01 X103.141833 Y76.636307 Z-1.000000 F2500.000000
G00 Z0.100000
M05
(End cutting path id: path11561)


(Start cutting path id: path11563)
(Change tool to Default tool)

G00 Z0.100000
G00 X118.257074 Y80.695646
M03 S35
G01 Z-1.000000 F800.0(Penetrate)
G01 X101.646981 Y77.778304 Z-1.000000 F2500.000000
G00 Z0.100000
M05
(End cutting path id: path11563)


(Start cutting path id: path11565)
(Change tool to Default tool)

G00 Z0.100000
G00 X118.907246 Y82.214379
M03 S35
G01 Z-1.000000 F800.0(Penetrate)
G01 X100.518180 Y78.984595 Z-1.000000 F2500.000000
G00 Z0.100000
M05
(End cutting path id: path11565)


(Start cutting path id: path11567)
(Change tool to Default tool)

G00 Z0.100000
G00 X119.291354 Y83.686381
M03 S35
G01 Z-1.000000 F800.0(Penetrate)
G01 X99.655460 Y80.237600 Z-1.000000 F2500.000000
G00 Z0.100000
M05
(End cutting path id: path11567)


(Start cutting path id: path11569)
(Change tool to Default tool)

G00 Z0.100000
G00 X119.458177 Y85.120237
M03 S35
G01 Z-1.000000 F800.0(Penetrate)
G01 X99.010026 Y81.528786 Z-1.000000 F2500.000000
G00 Z0.100000
M05
(End cutting path id: path11569)


(Start cutting path id: path11571)
(Change tool to Default tool)

G00 Z0.100000
G00 X119.433132 Y86.520383
M03 S35
G01 Z-1.000000 F800.0(Penetrate)
G01 X98.556477 Y82.853666 Z-1.000000 F2500.000000
G00 Z0.100000
M05
(End cutting path id: path11571)


(Start cutting path id: path11373)
(Change tool to Default tool)

G00 Z0.100000
G00 X118.260722 Y69.248001
M03 S35
G01 Z-1.000000 F800.0(Penetrate)
G01 X98.264507 Y65.735933 Z-1.000000 F2500.000000
G00 Z0.100000
M05
(End cutting path id: path11373)


(Start cutting path id: path11353)
(Change tool to Default tool)

G00 Z0.100000
G00 X110.655690 Y53.866843
M03 S35
G01 Z-1.000000 F800.0(Penetrate)
G01 X110.655690 Y53.866843 Z-1.000000 F2500.000000
G00 Z0.100000
M05
(End cutting path id: path11353)


(Start cutting path id: path11123)
(Change tool to Default tool)

G00 Z0.100000
G00 X115.116602 Y51.629325
M03 S35
G01 Z-1.000000 F800.0(Penetrate)
G01 X99.944299 Y48.964513 Z-1.000000 F2500.000000
G00 Z0.100000
M05
(End cutting path id: path11123)


(Start cutting path id: path11121)
(Change tool to Default tool)

G00 Z0.100000
G00 X116.453075 Y50.459519
M03 S35
G01 Z-1.000000 F800.0(Penetrate)
G01 X99.086438 Y47.409313 Z-1.000000 F2500.000000
G00 Z0.100000
M05
(End cutting path id: path11121)


(Start cutting path id: path11119)
(Change tool to Default tool)

G00 Z0.100000
G00 X117.471477 Y49.233846
M03 S35
G01 Z-1.000000 F800.0(Penetrate)
G01 X98.546630 Y45.909961 Z-1.000000 F2500.000000
G00 Z0.100000
M05
(End cutting path id: path11119)


(Start cutting path id: path10823)
(Change tool to Default tool)

G00 Z0.100000
G00 X110.310221 Y32.314155
M03 S35
G01 Z-1.000000 F800.0(Penetrate)
G01 X103.764929 Y31.164562 Z-1.000000 F2500.000000
G00 Z0.100000
M05
(End cutting path id: path10823)


(Start cutting path id: path11097)
(Change tool to Default tool)

G00 Z0.100000
G00 X110.641435 Y32.584258
M03 S35
G01 Z-1.000000 F800.0(Penetrate)
G01 X110.641435 Y32.584258 Z-1.000000 F2500.000000
G00 Z0.100000
M05
(End cutting path id: path11097)


(Start cutting path id: path10821)
(Change tool to Default tool)

G00 Z0.100000
G00 X113.275749 Y31.430467
M03 S35
G01 Z-1.000000 F800.0(Penetrate)
G01 X101.278013 Y29.323226 Z-1.000000 F2500.000000
G00 Z0.100000
M05
(End cutting path id: path10821)


(Start cutting path id: path10819)
(Change tool to Default tool)

G00 Z0.100000
G00 X115.102347 Y30.346739
M03 S35
G01 Z-1.000000 F800.0(Penetrate)
G01 X99.930044 Y27.681946 Z-1.000000 F2500.000000
G00 Z0.100000
M05
(End cutting path id: path10819)


(Start cutting path id: path10817)
(Change tool to Default tool)

G00 Z0.100000
G00 X116.438819 Y29.176933
M03 S35
G01 Z-1.000000 F800.0(Penetrate)
G01 X99.072183 Y26.126727 Z-1.000000 F2500.000000
G00 Z0.100000
M05
(End cutting path id: path10817)


(Start cutting path id: path10815)
(Change tool to Default tool)

G00 Z0.100000
G00 X117.457222 Y27.951260
M03 S35
G01 Z-1.000000 F800.0(Penetrate)
G01 X98.532374 Y24.627375 Z-1.000000 F2500.000000
G00 Z0.100000
M05
(End cutting path id: path10815)


(Start cutting path id: path10793)
(Change tool to Default tool)

G00 Z0.100000
G00 X110.627180 Y11.301673
M03 S35
G01 Z-1.000000 F800.0(Penetrate)
G01 X110.627180 Y11.301673 Z-1.000000 F2500.000000
G00 Z0.100000
M05
(End cutting path id: path10793)


(Start cutting path id: path10795)
(Change tool to Default tool)

G00 Z0.100000
G00 X115.555479 Y13.571814
M03 S35
G01 Z-1.000000 F800.0(Penetrate)
G01 X105.220269 Y11.756574 Z-1.000000 F2500.000000
G00 Z0.100000
M05
(End cutting path id: path10795)


(Start cutting path id: path10797)
(Change tool to Default tool)

G00 Z0.100000
G00 X117.198069 Y15.264844
M03 S35
G01 Z-1.000000 F800.0(Penetrate)
G01 X103.099068 Y12.788551 Z-1.000000 F2500.000000
G00 Z0.100000
M05
(End cutting path id: path10797)


(Start cutting path id: path10799)
(Change tool to Default tool)

G00 Z0.100000
G00 X118.214309 Y16.847890
M03 S35
G01 Z-1.000000 F800.0(Penetrate)
G01 X101.604216 Y13.930548 Z-1.000000 F2500.000000
G00 Z0.100000
M05
(End cutting path id: path10799)


(Start cutting path id: path10801)
(Change tool to Default tool)

G00 Z0.100000
G00 X118.864481 Y18.366624
M03 S35
G01 Z-1.000000 F800.0(Penetrate)
G01 X100.475415 Y15.136839 Z-1.000000 F2500.000000
G00 Z0.100000
M05
(End cutting path id: path10801)


(Start cutting path id: path10803)
(Change tool to Default tool)

G00 Z0.100000
G00 X119.248589 Y19.838625
M03 S35
G01 Z-1.000000 F800.0(Penetrate)
G01 X99.612695 Y16.389844 Z-1.000000 F2500.000000
G00 Z0.100000
M05
(End cutting path id: path10803)


(Start cutting path id: path10805)
(Change tool to Default tool)

G00 Z0.100000
G00 X119.415412 Y21.272481
M03 S35
G01 Z-1.000000 F800.0(Penetrate)
G01 X98.967260 Y17.681030 Z-1.000000 F2500.000000
G00 Z0.100000
M05
(End cutting path id: path10805)


(Start cutting path id: path10807)
(Change tool to Default tool)

G00 Z0.100000
G00 X119.390367 Y22.672609
M03 S35
G01 Z-1.000000 F800.0(Penetrate)
G01 X98.513711 Y19.005910 Z-1.000000 F2500.000000
G00 Z0.100000
M05
(End cutting path id: path10807)


(Start cutting path id: path10813)
(Change tool to Default tool)

G00 Z0.100000
G00 X118.232212 Y26.682831
M03 S35
G01 Z-1.000000 F800.0(Penetrate)
G01 X98.235996 Y23.170780 Z-1.000000 F2500.000000
G00 Z0.100000
M05
(End cutting path id: path10813)


(Start cutting path id: path10811)
(Change tool to Default tool)

G00 Z0.100000
G00 X118.801729 Y25.378323
M03 S35
G01 Z-1.000000 F800.0(Penetrate)
G01 X98.145108 Y21.750263 Z-1.000000 F2500.000000
G00 Z0.100000
M05
(End cutting path id: path10811)


(Start cutting path id: path10809)
(Change tool to Default tool)

G00 Z0.100000
G00 X119.185197 Y24.041129
M03 S35
G01 Z-1.000000 F800.0(Penetrate)
G01 X98.240252 Y20.362433 Z-1.000000 F2500.000000
G00 Z0.100000
M05
(End cutting path id: path10809)


(Start cutting path id: path11099)
(Change tool to Default tool)

G00 Z0.100000
G00 X115.569734 Y34.854399
M03 S35
G01 Z-1.000000 F800.0(Penetrate)
G01 X105.234524 Y33.039159 Z-1.000000 F2500.000000
G00 Z0.100000
M05
(End cutting path id: path11099)


(Start cutting path id: path11101)
(Change tool to Default tool)

G00 Z0.100000
G00 X117.212324 Y36.547429
M03 S35
G01 Z-1.000000 F800.0(Penetrate)
G01 X103.113323 Y34.071136 Z-1.000000 F2500.000000
G00 Z0.100000
M05
(End cutting path id: path11101)


(Start cutting path id: path11103)
(Change tool to Default tool)

G00 Z0.100000
G00 X118.228564 Y38.130475
M03 S35
G01 Z-1.000000 F800.0(Penetrate)
G01 X101.618471 Y35.213133 Z-1.000000 F2500.000000
G00 Z0.100000
M05
(End cutting path id: path11103)


(Start cutting path id: path11105)
(Change tool to Default tool)

G00 Z0.100000
G00 X118.878736 Y39.649209
M03 S35
G01 Z-1.000000 F800.0(Penetrate)
G01 X100.489670 Y36.419424 Z-1.000000 F2500.000000
G00 Z0.100000
M05
(End cutting path id: path11105)


(Start cutting path id: path11107)
(Change tool to Default tool)

G00 Z0.100000
G00 X119.262844 Y41.121210
M03 S35
G01 Z-1.000000 F800.0(Penetrate)
G01 X99.626950 Y37.672429 Z-1.000000 F2500.000000
G00 Z0.100000
M05
(End cutting path id: path11107)


(Start cutting path id: path11109)
(Change tool to Default tool)

G00 Z0.100000
G00 X119.429667 Y42.555067
M03 S35
G01 Z-1.000000 F800.0(Penetrate)
G01 X98.981516 Y38.963616 Z-1.000000 F2500.000000
G00 Z0.100000
M05
(End cutting path id: path11109)


(Start cutting path id: path11111)
(Change tool to Default tool)

G00 Z0.100000
G00 X119.404622 Y43.955195
M03 S35
G01 Z-1.000000 F800.0(Penetrate)
G01 X98.527966 Y40.288495 Z-1.000000 F2500.000000
G00 Z0.100000
M05
(End cutting path id: path11111)


(Start cutting path id: path11117)
(Change tool to Default tool)

G00 Z0.100000
G00 X118.246467 Y47.965416
M03 S35
G01 Z-1.000000 F800.0(Penetrate)
G01 X98.250252 Y44.453366 Z-1.000000 F2500.000000
G00 Z0.100000
M05
(End cutting path id: path11117)


(Start cutting path id: path11115)
(Change tool to Default tool)

G00 Z0.100000
G00 X118.815984 Y46.660908
M03 S35
G01 Z-1.000000 F800.0(Penetrate)
G01 X98.159363 Y43.032849 Z-1.000000 F2500.000000
G00 Z0.100000
M05
(End cutting path id: path11115)


(Start cutting path id: path11113)
(Change tool to Default tool)

G00 Z0.100000
G00 X119.199452 Y45.323714
M03 S35
G01 Z-1.000000 F800.0(Penetrate)
G01 X98.254507 Y41.645018 Z-1.000000 F2500.000000
G00 Z0.100000
M05
(End cutting path id: path11113)


(Start cutting path id: path11355)
(Change tool to Default tool)

G00 Z0.100000
G00 X115.583989 Y56.136985
M03 S35
G01 Z-1.000000 F800.0(Penetrate)
G01 X105.248779 Y54.321745 Z-1.000000 F2500.000000
G00 Z0.100000
M05
(End cutting path id: path11355)


(Start cutting path id: path11357)
(Change tool to Default tool)

G00 Z0.100000
G00 X117.226579 Y57.830014
M03 S35
G01 Z-1.000000 F800.0(Penetrate)
G01 X103.127578 Y55.353722 Z-1.000000 F2500.000000
G00 Z0.100000
M05
(End cutting path id: path11357)


(Start cutting path id: path11359)
(Change tool to Default tool)

G00 Z0.100000
G00 X118.242819 Y59.413060
M03 S35
G01 Z-1.000000 F800.0(Penetrate)
G01 X101.632726 Y56.495718 Z-1.000000 F2500.000000
G00 Z0.100000
M05
(End cutting path id: path11359)


(Start cutting path id: path11361)
(Change tool to Default tool)

G00 Z0.100000
G00 X118.892991 Y60.931794
M03 S35
G01 Z-1.000000 F800.0(Penetrate)
G01 X100.503925 Y57.702009 Z-1.000000 F2500.000000
G00 Z0.100000
M05
(End cutting path id: path11361)


(Start cutting path id: path11363)
(Change tool to Default tool)

G00 Z0.100000
G00 X119.277099 Y62.403796
M03 S35
G01 Z-1.000000 F800.0(Penetrate)
G01 X99.641205 Y58.955015 Z-1.000000 F2500.000000
G00 Z0.100000
M05
(End cutting path id: path11363)


(Start cutting path id: path11365)
(Change tool to Default tool)

G00 Z0.100000
G00 X119.443922 Y63.837652
M03 S35
G01 Z-1.000000 F800.0(Penetrate)
G01 X98.995771 Y60.246201 Z-1.000000 F2500.000000
G00 Z0.100000
M05
(End cutting path id: path11365)


(Start cutting path id: path11367)
(Change tool to Default tool)

G00 Z0.100000
G00 X119.418877 Y65.237798
M03 S35
G01 Z-1.000000 F800.0(Penetrate)
G01 X98.542222 Y61.571080 Z-1.000000 F2500.000000
G00 Z0.100000
M05
(End cutting path id: path11367)


(Start cutting path id: path11371)
(Change tool to Default tool)

G00 Z0.100000
G00 X118.830239 Y67.943493
M03 S35
G01 Z-1.000000 F800.0(Penetrate)
G01 X98.173619 Y64.315434 Z-1.000000 F2500.000000
G00 Z0.100000
M05
(End cutting path id: path11371)


(Start cutting path id: path11369)
(Change tool to Default tool)

G00 Z0.100000
G00 X119.213707 Y66.606299
M03 S35
G01 Z-1.000000 F800.0(Penetrate)
G01 X98.268762 Y62.927603 Z-1.000000 F2500.000000
G00 Z0.100000
M05
(End cutting path id: path11369)


(Start cutting path id: path11375)
(Change tool to Default tool)

G00 Z0.100000
G00 X128.242590 Y53.855064
M03 S35
G01 Z-1.000000 F800.0(Penetrate)
G01 X128.242590 Y53.855064 Z-1.000000 F2500.000000
G00 Z0.100000
M05
(End cutting path id: path11375)


(Start cutting path id: path11377)
(Change tool to Default tool)

G00 Z0.100000
G00 X133.650105 Y54.302721
M03 S35
G01 Z-1.000000 F800.0(Penetrate)
G01 X123.317336 Y56.131805 Z-1.000000 F2500.000000
G00 Z0.100000
M05
(End cutting path id: path11377)


(Start cutting path id: path11379)
(Change tool to Default tool)

G00 Z0.100000
G00 X135.772687 Y55.331856
M03 S35
G01 Z-1.000000 F800.0(Penetrate)
G01 X121.677016 Y57.827033 Z-1.000000 F2500.000000
G00 Z0.100000
M05
(End cutting path id: path11379)


(Start cutting path id: path11381)
(Change tool to Default tool)

G00 Z0.100000
G00 X137.269067 Y56.471849
M03 S35
G01 Z-1.000000 F800.0(Penetrate)
G01 X120.662897 Y59.411439 Z-1.000000 F2500.000000
G00 Z0.100000
M05
(End cutting path id: path11381)


(Start cutting path id: path11575)
(Change tool to Default tool)

G00 Z0.100000
G00 X128.256845 Y75.137649
M03 S35
G01 Z-1.000000 F800.0(Penetrate)
G01 X128.256845 Y75.137649 Z-1.000000 F2500.000000
G00 Z0.100000
M05
(End cutting path id: path11575)


(Start cutting path id: path11577)
(Change tool to Default tool)

G00 Z0.100000
G00 X133.664361 Y75.585307
M03 S35
G01 Z-1.000000 F800.0(Penetrate)
G01 X123.331591 Y77.414390 Z-1.000000 F2500.000000
G00 Z0.100000
M05
(End cutting path id: path11577)


(Start cutting path id: path11579)
(Change tool to Default tool)

G00 Z0.100000
G00 X135.786942 Y76.614441
M03 S35
G01 Z-1.000000 F800.0(Penetrate)
G01 X121.691271 Y79.109619 Z-1.000000 F2500.000000
G00 Z0.100000
M05
(End cutting path id: path11579)


(Start cutting path id: path11581)
(Change tool to Default tool)

G00 Z0.100000
G00 X137.283323 Y77.754434
M03 S35
G01 Z-1.000000 F800.0(Penetrate)
G01 X120.677153 Y80.694025 Z-1.000000 F2500.000000
G00 Z0.100000
M05
(End cutting path id: path11581)


(Start cutting path id: path11735)
(Change tool to Default tool)

G00 Z0.100000
G00 X128.271100 Y96.420252
M03 S35
G01 Z-1.000000 F800.0(Penetrate)
G01 X128.271100 Y96.420252 Z-1.000000 F2500.000000
G00 Z0.100000
M05
(End cutting path id: path11735)


(Start cutting path id: path11737)
(Change tool to Default tool)

G00 Z0.100000
G00 X133.678616 Y96.867892
M03 S35
G01 Z-1.000000 F800.0(Penetrate)
G01 X123.345846 Y98.696975 Z-1.000000 F2500.000000
G00 Z0.100000
M05
(End cutting path id: path11737)


(Start cutting path id: path11739)
(Change tool to Default tool)

G00 Z0.100000
G00 X135.801198 Y97.897027
M03 S35
G01 Z-1.000000 F800.0(Penetrate)
G01 X121.705526 Y100.392204 Z-1.000000 F2500.000000
G00 Z0.100000
M05
(End cutting path id: path11739)


(Start cutting path id: path11741)
(Change tool to Default tool)

G00 Z0.100000
G00 X137.297578 Y99.037020
M03 S35
G01 Z-1.000000 F800.0(Penetrate)
G01 X120.691408 Y101.976610 Z-1.000000 F2500.000000
G00 Z0.100000
M05
(End cutting path id: path11741)


(Start cutting path id: path11743)
(Change tool to Default tool)

G00 Z0.100000
G00 X138.427994 Y100.241797
M03 S35
G01 Z-1.000000 F800.0(Penetrate)
G01 X120.043271 Y103.496213 Z-1.000000 F2500.000000
G00 Z0.100000
M05
(End cutting path id: path11743)


(Start cutting path id: path11745)
(Change tool to Default tool)

G00 Z0.100000
G00 X139.292391 Y101.493646
M03 S35
G01 Z-1.000000 F800.0(Penetrate)
G01 X119.661135 Y104.968728 Z-1.000000 F2500.000000
G00 Z0.100000
M05
(End cutting path id: path11745)


(Start cutting path id: path11747)
(Change tool to Default tool)

G00 Z0.100000
G00 X139.939555 Y102.783966
M03 S35
G01 Z-1.000000 F800.0(Penetrate)
G01 X119.496233 Y106.402807 Z-1.000000 F2500.000000
G00 Z0.100000
M05
(End cutting path id: path11747)


(Start cutting path id: path11861)
(Change tool to Default tool)

G00 Z0.100000
G00 X137.311833 Y120.319605
M03 S35
G01 Z-1.000000 F800.0(Penetrate)
G01 X120.705663 Y123.259195 Z-1.000000 F2500.000000
G00 Z0.100000
M05
(End cutting path id: path11861)


(Start cutting path id: path11863)
(Change tool to Default tool)

G00 Z0.100000
G00 X138.442249 Y121.524383
M03 S35
G01 Z-1.000000 F800.0(Penetrate)
G01 X120.057526 Y124.778799 Z-1.000000 F2500.000000
G00 Z0.100000
M05
(End cutting path id: path11863)


(Start cutting path id: path11865)
(Change tool to Default tool)

G00 Z0.100000
G00 X146.095984 Y118.954899
M03 S35
G01 Z-1.000000 F800.0(Penetrate)
G01 X146.095984 Y118.954899 Z-1.000000 F2500.000000
G00 Z0.100000
M05
(End cutting path id: path11865)


(Start cutting path id: path11867)
(Change tool to Default tool)

G00 Z0.100000
G00 X151.330492 Y117.526079
M03 S35
G01 Z-1.000000 F800.0(Penetrate)
G01 X142.246449 Y122.778856 Z-1.000000 F2500.000000
G00 Z0.100000
M05
(End cutting path id: path11867)


(Start cutting path id: path11869)
(Change tool to Default tool)

G00 Z0.100000
G00 X153.677059 Y117.767165
M03 S35
G01 Z-1.000000 F800.0(Penetrate)
G01 X141.284854 Y124.932890 Z-1.000000 F2500.000000
G00 Z0.100000
M05
(End cutting path id: path11869)


(Start cutting path id: path11871)
(Change tool to Default tool)

G00 Z0.100000
G00 X155.473100 Y118.326616
M03 S35
G01 Z-1.000000 F800.0(Penetrate)
G01 X140.873786 Y126.768577 Z-1.000000 F2500.000000
G00 Z0.100000
M05
(End cutting path id: path11871)


(Start cutting path id: path11873)
(Change tool to Default tool)

G00 Z0.100000
G00 X156.947383 Y119.072116
M03 S35
G01 Z-1.000000 F800.0(Penetrate)
G01 X140.784476 Y128.418215 Z-1.000000 F2500.000000
G00 Z0.100000
M05
(End cutting path id: path11873)


(Start cutting path id: path11875)
(Change tool to Default tool)

G00 Z0.100000
G00 X164.549115 Y121.318066
M03 S35
G01 Z-1.000000 F800.0(Penetrate)
G01 X164.549115 Y121.318066 Z-1.000000 F2500.000000
G00 Z0.100000
M05
(End cutting path id: path11875)


(Start cutting path id: path11877)
(Change tool to Default tool)

G00 Z0.100000
G00 X168.979241 Y118.185103
M03 S35
G01 Z-1.000000 F800.0(Penetrate)
G01 X162.239589 Y126.228054 Z-1.000000 F2500.000000
G00 Z0.100000
M05
(End cutting path id: path11877)


(Start cutting path id: path11879)
(Change tool to Default tool)

G00 Z0.100000
G00 X171.266752 Y117.609101
M03 S35
G01 Z-1.000000 F800.0(Penetrate)
G01 X162.072713 Y128.581063 Z-1.000000 F2500.000000
G00 Z0.100000
M05
(End cutting path id: path11879)


(Start cutting path id: path11881)
(Change tool to Default tool)

G00 Z0.100000
G00 X173.145822 Y117.520530
M03 S35
G01 Z-1.000000 F800.0(Penetrate)
G01 X162.314279 Y130.446622 Z-1.000000 F2500.000000
G00 Z0.100000
M05
(End cutting path id: path11881)


(Start cutting path id: path11883)
(Change tool to Default tool)

G00 Z0.100000
G00 X174.786185 Y117.716827
M03 S35
G01 Z-1.000000 F800.0(Penetrate)
G01 X162.794568 Y132.027331 Z-1.000000 F2500.000000
G00 Z0.100000
M05
(End cutting path id: path11883)


(Start cutting path id: path11885)
(Change tool to Default tool)

G00 Z0.100000
G00 X183.985984 Y124.505613
M03 S35
G01 Z-1.000000 F800.0(Penetrate)
G01 X183.986002 Y124.505613 Z-1.000000 F2500.000000
G00 Z0.100000
M05
(End cutting path id: path11885)


(Start cutting path id: path11887)
(Change tool to Default tool)

G00 Z0.100000
G00 X187.077415 Y120.046381
M03 S35
G01 Z-1.000000 F800.0(Penetrate)
G01 X183.495067 Y129.909380 Z-1.000000 F2500.000000
G00 Z0.100000
M05
(End cutting path id: path11887)


(Start cutting path id: path11889)
(Change tool to Default tool)

G00 Z0.100000
G00 X189.029970 Y118.722750
M03 S35
G01 Z-1.000000 F800.0(Penetrate)
G01 X184.143045 Y132.177546 Z-1.000000 F2500.000000
G00 Z0.100000
M05
(End cutting path id: path11889)


(Start cutting path id: path11891)
(Change tool to Default tool)

G00 Z0.100000
G00 X190.765434 Y117.996827
M03 S35
G01 Z-1.000000 F800.0(Penetrate)
G01 X185.008095 Y133.848005 Z-1.000000 F2500.000000
G00 Z0.100000
M05
(End cutting path id: path11891)


(Start cutting path id: path11893)
(Change tool to Default tool)

G00 Z0.100000
G00 X192.374004 Y117.620254
M03 S35
G01 Z-1.000000 F800.0(Penetrate)
G01 X186.000040 Y135.169114 Z-1.000000 F2500.000000
G00 Z0.100000
M05
(End cutting path id: path11893)


(Start cutting path id: path11895)
(Change tool to Default tool)

G00 Z0.100000
G00 X204.629266 Y128.131322
M03 S35
G01 Z-1.000000 F800.0(Penetrate)
G01 X204.629266 Y128.131322 Z-1.000000 F2500.000000
G00 Z0.100000
M05
(End cutting path id: path11895)


(Start cutting path id: path11897)
(Change tool to Default tool)

G00 Z0.100000
G00 X206.009120 Y122.883689
M03 S35
G01 Z-1.000000 F800.0(Penetrate)
G01 X206.016148 Y133.377103 Z-1.000000 F2500.000000
G00 Z0.100000
M05
(End cutting path id: path11897)


(Start cutting path id: path11899)
(Change tool to Default tool)

G00 Z0.100000
G00 X207.391208 Y120.972065
M03 S35
G01 Z-1.000000 F800.0(Penetrate)
G01 X207.400796 Y135.286873 Z-1.000000 F2500.000000
G00 Z0.100000
M05
(End cutting path id: path11899)


(Start cutting path id: path11901)
(Change tool to Default tool)

G00 Z0.100000
G00 X208.773722 Y119.696364
M03 S35
G01 Z-1.000000 F800.0(Penetrate)
G01 X208.785018 Y136.560721 Z-1.000000 F2500.000000
G00 Z0.100000
M05
(End cutting path id: path11901)


(Start cutting path id: path11903)
(Change tool to Default tool)

G00 Z0.100000
G00 X210.156485 Y118.792347
M03 S35
G01 Z-1.000000 F800.0(Penetrate)
G01 X210.168991 Y137.462885 Z-1.000000 F2500.000000
G00 Z0.100000
M05
(End cutting path id: path11903)


(Start cutting path id: path11791)
(Change tool to Default tool)

G00 Z0.100000
G00 X204.615011 Y106.848737
M03 S35
G01 Z-1.000000 F800.0(Penetrate)
G01 X204.615011 Y106.848737 Z-1.000000 F2500.000000
G00 Z0.100000
M05
(End cutting path id: path11791)


(Start cutting path id: path11793)
(Change tool to Default tool)

G00 Z0.100000
G00 X205.994865 Y101.601103
M03 S35
G01 Z-1.000000 F800.0(Penetrate)
G01 X206.001893 Y112.094517 Z-1.000000 F2500.000000
G00 Z0.100000
M05
(End cutting path id: path11793)


(Start cutting path id: path11795)
(Change tool to Default tool)

G00 Z0.100000
G00 X207.376953 Y99.689479
M03 S35
G01 Z-1.000000 F800.0(Penetrate)
G01 X207.386541 Y114.004288 Z-1.000000 F2500.000000
G00 Z0.100000
M05
(End cutting path id: path11795)


(Start cutting path id: path11797)
(Change tool to Default tool)

G00 Z0.100000
G00 X208.759467 Y98.413779
M03 S35
G01 Z-1.000000 F800.0(Penetrate)
G01 X208.770763 Y115.278135 Z-1.000000 F2500.000000
G00 Z0.100000
M05
(End cutting path id: path11797)


(Start cutting path id: path11799)
(Change tool to Default tool)

G00 Z0.100000
G00 X210.142230 Y97.509762
M03 S35
G01 Z-1.000000 F800.0(Penetrate)
G01 X210.154736 Y116.180300 Z-1.000000 F2500.000000
G00 Z0.100000
M05
(End cutting path id: path11799)


(Start cutting path id: path11801)
(Change tool to Default tool)

G00 Z0.100000
G00 X211.525174 Y96.875873
M03 S35
G01 Z-1.000000 F800.0(Penetrate)
G01 X211.538528 Y116.812335 Z-1.000000 F2500.000000
G00 Z0.100000
M05
(End cutting path id: path11801)


(Start cutting path id: path11803)
(Change tool to Default tool)

G00 Z0.100000
G00 X212.908266 Y96.462596
M03 S35
G01 Z-1.000000 F800.0(Penetrate)
G01 X212.922172 Y117.223758 Z-1.000000 F2500.000000
G00 Z0.100000
M05
(End cutting path id: path11803)


(Start cutting path id: path11789)
(Change tool to Default tool)

G00 Z0.100000
G00 X195.317117 Y96.299702
M03 S35
G01 Z-1.000000 F800.0(Penetrate)
G01 X188.229445 Y115.813566 Z-1.000000 F2500.000000
G00 Z0.100000
M05
(End cutting path id: path11789)


(Start cutting path id: path11777)
(Change tool to Default tool)

G00 Z0.100000
G00 X183.971729 Y103.223027
M03 S35
G01 Z-1.000000 F800.0(Penetrate)
G01 X183.971746 Y103.223027 Z-1.000000 F2500.000000
G00 Z0.100000
M05
(End cutting path id: path11777)


(Start cutting path id: path11779)
(Change tool to Default tool)

G00 Z0.100000
G00 X187.063160 Y98.763796
M03 S35
G01 Z-1.000000 F800.0(Penetrate)
G01 X183.480812 Y108.626794 Z-1.000000 F2500.000000
G00 Z0.100000
M05
(End cutting path id: path11779)


(Start cutting path id: path11781)
(Change tool to Default tool)

G00 Z0.100000
G00 X189.015714 Y97.440165
M03 S35
G01 Z-1.000000 F800.0(Penetrate)
G01 X184.128790 Y110.894961 Z-1.000000 F2500.000000
G00 Z0.100000
M05
(End cutting path id: path11781)


(Start cutting path id: path11775)
(Change tool to Default tool)

G00 Z0.100000
G00 X177.563938 Y97.410041
M03 S35
G01 Z-1.000000 F800.0(Penetrate)
G01 X164.229576 Y113.322959 Z-1.000000 F2500.000000
G00 Z0.100000
M05
(End cutting path id: path11775)


(Start cutting path id: path11763)
(Change tool to Default tool)

G00 Z0.100000
G00 X164.534860 Y100.035481
M03 S35
G01 Z-1.000000 F800.0(Penetrate)
G01 X164.534860 Y100.035481 Z-1.000000 F2500.000000
G00 Z0.100000
M05
(End cutting path id: path11763)


(Start cutting path id: path11761)
(Change tool to Default tool)

G00 Z0.100000
G00 X159.223006 Y99.661415
M03 S35
G01 Z-1.000000 F800.0(Penetrate)
G01 X141.250271 Y110.054021 Z-1.000000 F2500.000000
G00 Z0.100000
M05
(End cutting path id: path11761)


(Start cutting path id: path11749)
(Change tool to Default tool)

G00 Z0.100000
G00 X146.081729 Y97.672313
M03 S35
G01 Z-1.000000 F800.0(Penetrate)
G01 X146.081729 Y97.672313 Z-1.000000 F2500.000000
G00 Z0.100000
M05
(End cutting path id: path11749)


(Start cutting path id: path11751)
(Change tool to Default tool)

G00 Z0.100000
G00 X151.316237 Y96.243494
M03 S35
G01 Z-1.000000 F800.0(Penetrate)
G01 X142.232193 Y101.496270 Z-1.000000 F2500.000000
G00 Z0.100000
M05
(End cutting path id: path11751)


(Start cutting path id: path11753)
(Change tool to Default tool)

G00 Z0.100000
G00 X153.662804 Y96.484579
M03 S35
G01 Z-1.000000 F800.0(Penetrate)
G01 X141.270599 Y103.650305 Z-1.000000 F2500.000000
G00 Z0.100000
M05
(End cutting path id: path11753)


(Start cutting path id: path11755)
(Change tool to Default tool)

G00 Z0.100000
