%
(Header)
(Generated by gcodetools from Inkscape.)
(Using default header. To add your own header create file "header" in the output dir.)
M3
(Header end.)
G21 (All units in mm)

(Start cutting path id: path27896)
(Change tool to Default tool)
M05
G00 Z0.100000
G00 X209.520434 Y153.471673
M03 S35
G01 Z-1.000000 F800.0(Penetrate)
G01 X197.112332 Y160.646611 Z-1.000000 F2500.000000
G00 Z0.100000
M05
(End cutting path id: path27896)


(Start cutting path id: path27894)
(Change tool to Default tool)

G00 Z0.100000
G00 X210.012054 Y151.531519
M03 S35
G01 Z-1.000000 F800.0(Penetrate)
G01 X195.185542 Y160.104847 Z-1.000000 F2500.000000
G00 Z0.100000
M05
(End cutting path id: path27894)


(Start cutting path id: path27892)
(Change tool to Default tool)

G00 Z0.100000
G00 X210.148158 Y149.796922
M03 S35
G01 Z-1.000000 F800.0(Penetrate)
G01 X193.614284 Y159.357526 Z-1.000000 F2500.000000
G00 Z0.100000
M05
(End cutting path id: path27892)


(Start cutting path id: path27852)
(Change tool to Default tool)

G00 Z0.100000
G00 X176.351897 Y153.734404
M03 S35
G01 Z-1.000000 F800.0(Penetrate)
G01 X162.119025 Y139.520585 Z-1.000000 F2500.000000
G00 Z0.100000
M05
(End cutting path id: path27852)


(Start cutting path id: path27664)
(Change tool to Default tool)

G00 Z0.100000
G00 X159.042642 Y138.804302
M03 S35
G01 Z-1.000000 F800.0(Penetrate)
G01 X139.943592 Y138.817094 Z-1.000000 F2500.000000
G00 Z0.100000
M05
(End cutting path id: path27664)


(Start cutting path id: path27794)
(Change tool to Default tool)

G00 Z0.100000
G00 X139.570432 Y141.022715
M03 S35
G01 Z-1.000000 F800.0(Penetrate)
G01 X126.338217 Y141.031578 Z-1.000000 F2500.000000
G00 Z0.100000
M05
(End cutting path id: path27794)


(Start cutting path id: path27796)
(Change tool to Default tool)

G00 Z0.100000
G00 X141.141193 Y142.455153
M03 S35
G01 Z-1.000000 F800.0(Penetrate)
G01 X124.769377 Y142.466119 Z-1.000000 F2500.000000
G00 Z0.100000
M05
(End cutting path id: path27796)


(Start cutting path id: path27776)
(Change tool to Default tool)

G00 Z0.100000
G00 X110.463399 Y146.776173
M03 S35
G01 Z-1.000000 F800.0(Penetrate)
G01 X89.291854 Y146.790354 Z-1.000000 F2500.000000
G00 Z0.100000
M05
(End cutting path id: path27776)


(Start cutting path id: path27744)
(Change tool to Default tool)

G00 Z0.100000
G00 X94.134160 Y147.631271
M03 S35
G01 Z-1.000000 F800.0(Penetrate)
G01 X85.575550 Y139.084119 Z-1.000000 F2500.000000
G00 Z0.100000
M05
(End cutting path id: path27744)


(Start cutting path id: path27746)
(Change tool to Default tool)

G00 Z0.100000
G00 X94.362857 Y149.607001
M03 S35
G01 Z-1.000000 F800.0(Penetrate)
G01 X83.599534 Y138.858068 Z-1.000000 F2500.000000
G00 Z0.100000
M05
(End cutting path id: path27746)


(Start cutting path id: path27748)
(Change tool to Default tool)

G00 Z0.100000
G00 X94.341137 Y150.625970
M03 S35
G01 Z-1.000000 F800.0(Penetrate)
G01 X82.580576 Y138.881154 Z-1.000000 F2500.000000
G00 Z0.100000
M05
(End cutting path id: path27748)


(Start cutting path id: path27752)
(Change tool to Default tool)

G00 Z0.100000
G00 X93.356786 Y154.490953
M03 S35
G01 Z-1.000000 F800.0(Penetrate)
G01 X78.716916 Y139.870682 Z-1.000000 F2500.000000
G00 Z0.100000
M05
(End cutting path id: path27752)


(Start cutting path id: path27750)
(Change tool to Default tool)

G00 Z0.100000
G00 X93.149087 Y154.917923
M03 S35
G01 Z-1.000000 F800.0(Penetrate)
G01 X78.290224 Y140.078952 Z-1.000000 F2500.000000
G00 Z0.100000
M05
(End cutting path id: path27750)


(Start cutting path id: path27756)
(Change tool to Default tool)

G00 Z0.100000
G00 X92.854955 Y155.453749
M03 S35
G01 Z-1.000000 F800.0(Penetrate)
G01 X77.754774 Y140.373801 Z-1.000000 F2500.000000
G00 Z0.100000
M05
(End cutting path id: path27756)


(Start cutting path id: path27766)
(Change tool to Default tool)

G00 Z0.100000
G00 X82.421301 Y160.870419
M03 S35
G01 Z-1.000000 F800.0(Penetrate)
G01 X72.352105 Y150.814702 Z-1.000000 F2500.000000
G00 Z0.100000
M05
(End cutting path id: path27766)


(Start cutting path id: path27764)
(Change tool to Default tool)

G00 Z0.100000
G00 X85.567062 Y160.681352
M03 S35
G01 Z-1.000000 F800.0(Penetrate)
G01 X72.536958 Y147.668691 Z-1.000000 F2500.000000
G00 Z0.100000
M05
(End cutting path id: path27764)


(Start cutting path id: path27742)
(Change tool to Default tool)

G00 Z0.100000
G00 X56.262030 Y140.654477
M03 S35
G01 Z-1.000000 F800.0(Penetrate)
G01 X56.274416 Y159.145506 Z-1.000000 F2500.000000
G00 Z0.100000
M05
(End cutting path id: path27742)


(Start cutting path id: path27740)
(Change tool to Default tool)

G00 Z0.100000
G00 X52.769583 Y139.166795
M03 S35
G01 Z-1.000000 F800.0(Penetrate)
G01 X52.783965 Y160.637866 Z-1.000000 F2500.000000
G00 Z0.100000
M05
(End cutting path id: path27740)


(Start cutting path id: path27722)
(Change tool to Default tool)

G00 Z0.100000
G00 X41.740070 Y142.902508
M03 S35
G01 Z-1.000000 F800.0(Penetrate)
G01 X41.749457 Y156.916931 Z-1.000000 F2500.000000
G00 Z0.100000
M05
(End cutting path id: path27722)


(Start cutting path id: path27724)
(Change tool to Default tool)

G00 Z0.100000
G00 X43.689404 Y141.047754
M03 S35
G01 Z-1.000000 F800.0(Penetrate)
G01 X43.701274 Y158.769072 Z-1.000000 F2500.000000
G00 Z0.100000
M05
(End cutting path id: path27724)


(Start cutting path id: path27726)
(Change tool to Default tool)

G00 Z0.100000
G00 X43.988677 Y140.833412
M03 S35
G01 Z-1.000000 F800.0(Penetrate)
G01 X44.000833 Y158.983013 Z-1.000000 F2500.000000
G00 Z0.100000
M05
(End cutting path id: path27726)


(Start cutting path id: path27730)
(Change tool to Default tool)

G00 Z0.100000
G00 X45.612695 Y139.903808
M03 S35
G01 Z-1.000000 F800.0(Penetrate)
G01 X45.626096 Y159.910459 Z-1.000000 F2500.000000
G00 Z0.100000
M05
(End cutting path id: path27730)


(Start cutting path id: path27728)
(Change tool to Default tool)

G00 Z0.100000
G00 X45.966442 Y139.746935
M03 S35
G01 Z-1.000000 F800.0(Penetrate)
G01 X45.980070 Y160.066840 Z-1.000000 F2500.000000
G00 Z0.100000
M05
(End cutting path id: path27728)


(Start cutting path id: path27734)
(Change tool to Default tool)

G00 Z0.100000
G00 X47.391591 Y139.256480
M03 S35
G01 Z-1.000000 F800.0(Penetrate)
G01 X47.405857 Y160.555385 Z-1.000000 F2500.000000
G00 Z0.100000
M05
(End cutting path id: path27734)


(Start cutting path id: path27736)
(Change tool to Default tool)

G00 Z0.100000
G00 X48.841447 Y138.968645
M03 S35
G01 Z-1.000000 F800.0(Penetrate)
G01 X48.856098 Y160.841277 Z-1.000000 F2500.000000
G00 Z0.100000
M05
(End cutting path id: path27736)


(Start cutting path id: path27732)
(Change tool to Default tool)

G00 Z0.100000
G00 X48.923885 Y138.958280
M03 S35
G01 Z-1.000000 F800.0(Penetrate)
G01 X48.938549 Y160.851532 Z-1.000000 F2500.000000
G00 Z0.100000
M05
(End cutting path id: path27732)


(Start cutting path id: path27738)
(Change tool to Default tool)

G00 Z0.100000
G00 X51.113767 Y138.910354
M03 S35
G01 Z-1.000000 F800.0(Penetrate)
G01 X51.128493 Y160.896525 Z-1.000000 F2500.000000
G00 Z0.100000
M05
(End cutting path id: path27738)


(Start cutting path id: path27588)
(Change tool to Default tool)

G00 Z0.100000
G00 X43.480454 Y138.481835
M03 S35
G01 Z-1.000000 F800.0(Penetrate)
G01 X23.941471 Y138.494923 Z-1.000000 F2500.000000
G00 Z0.100000
M05
(End cutting path id: path27588)


(Start cutting path id: path27562)
(Change tool to Default tool)

G00 Z0.100000
G00 X25.735315 Y140.327082
M03 S35
G01 Z-1.000000 F800.0(Penetrate)
G01 X8.608527 Y140.338554 Z-1.000000 F2500.000000
G00 Z0.100000
M05
(End cutting path id: path27562)


(Start cutting path id: path27566)
(Change tool to Default tool)

G00 Z0.100000
G00 X22.201642 Y143.196430
M03 S35
G01 Z-1.000000 F800.0(Penetrate)
G01 X12.146040 Y143.203166 Z-1.000000 F2500.000000
G00 Z0.100000
M05
(End cutting path id: path27566)


(Start cutting path id: path27564)
(Change tool to Default tool)

G00 Z0.100000
G00 X24.339486 Y141.761508
M03 S35
G01 Z-1.000000 F800.0(Penetrate)
G01 X10.006276 Y141.771108 Z-1.000000 F2500.000000
G00 Z0.100000
M05
(End cutting path id: path27564)


(Start cutting path id: path27560)
(Change tool to Default tool)

G00 Z0.100000
G00 X26.720485 Y138.892932
M03 S35
G01 Z-1.000000 F800.0(Penetrate)
G01 X7.621436 Y138.905724 Z-1.000000 F2500.000000
G00 Z0.100000
M05
(End cutting path id: path27560)


(Start cutting path id: path27558)
(Change tool to Default tool)

G00 Z0.100000
G00 X27.414290 Y137.458976
M03 S35
G01 Z-1.000000 F800.0(Penetrate)
G01 X6.925711 Y137.472700 Z-1.000000 F2500.000000
G00 Z0.100000
M05
(End cutting path id: path27558)


(Start cutting path id: path27556)
(Change tool to Default tool)

G00 Z0.100000
G00 X27.873609 Y136.025178
M03 S35
G01 Z-1.000000 F800.0(Penetrate)
G01 X6.464472 Y136.039518 Z-1.000000 F2500.000000
G00 Z0.100000
M05
(End cutting path id: path27556)


(Start cutting path id: path27540)
(Change tool to Default tool)

G00 Z0.100000
G00 X23.777467 Y124.559996
M03 S35
G01 Z-1.000000 F800.0(Penetrate)
G01 X10.545251 Y124.568859 Z-1.000000 F2500.000000
G00 Z0.100000
M05
(End cutting path id: path27540)


(Start cutting path id: path27214)
(Change tool to Default tool)

G00 Z0.100000
G00 X13.767872 Y110.802287
M03 S35
G01 Z-1.000000 F800.0(Penetrate)
G01 X6.652705 Y103.696663 Z-1.000000 F2500.000000
G00 Z0.100000
M05
(End cutting path id: path27214)


(Start cutting path id: path27212)
(Change tool to Default tool)

G00 Z0.100000
G00 X16.294181 Y111.299339
M03 S35
G01 Z-1.000000 F800.0(Penetrate)
G01 X6.152287 Y101.171022 Z-1.000000 F2500.000000
G00 Z0.100000
M05
(End cutting path id: path27212)


(Start cutting path id: path27210)
(Change tool to Default tool)

G00 Z0.100000
G00 X18.295481 Y111.272049
M03 S35
G01 Z-1.000000 F800.0(Penetrate)
G01 X6.176896 Y99.169687 Z-1.000000 F2500.000000
G00 Z0.100000
M05
(End cutting path id: path27210)


(Start cutting path id: path27208)
(Change tool to Default tool)

G00 Z0.100000
G00 X20.006195 Y110.954579
M03 S35
G01 Z-1.000000 F800.0(Penetrate)
G01 X6.492092 Y97.458532 Z-1.000000 F2500.000000
G00 Z0.100000
M05
(End cutting path id: path27208)


(Start cutting path id: path27206)
(Change tool to Default tool)

G00 Z0.100000
G00 X21.510752 Y110.431193
M03 S35
G01 Z-1.000000 F800.0(Penetrate)
G01 X7.013444 Y95.953293 Z-1.000000 F2500.000000
G00 Z0.100000
M05
(End cutting path id: path27206)


(Start cutting path id: path27204)
(Change tool to Default tool)

G00 Z0.100000
G00 X22.849391 Y109.742129
M03 S35
G01 Z-1.000000 F800.0(Penetrate)
G01 X7.700715 Y94.613732 Z-1.000000 F2500.000000
G00 Z0.100000
M05
(End cutting path id: path27204)


(Start cutting path id: path27188)
(Change tool to Default tool)

G00 Z0.100000
G00 X28.060092 Y98.738619
M03 S35
G01 Z-1.000000 F800.0(Penetrate)
G01 X18.697234 Y89.388295 Z-1.000000 F2500.000000
G00 Z0.100000
M05
(End cutting path id: path27188)


(Start cutting path id: path27190)
(Change tool to Default tool)

G00 Z0.100000
G00 X28.157890 Y100.862197
M03 S35
G01 Z-1.000000 F800.0(Penetrate)
G01 X16.573527 Y89.293343 Z-1.000000 F2500.000000
G00 Z0.100000
M05
(End cutting path id: path27190)


(Start cutting path id: path27192)
(Change tool to Default tool)

G00 Z0.100000
G00 X27.919749 Y102.650287
M03 S35
G01 Z-1.000000 F800.0(Penetrate)
G01 X14.785758 Y89.533878 Z-1.000000 F2500.000000
G00 Z0.100000
M05
(End cutting path id: path27192)


(Start cutting path id: path27194)
(Change tool to Default tool)

G00 Z0.100000
G00 X27.456235 Y104.213304
M03 S35
G01 Z-1.000000 F800.0(Penetrate)
G01 X13.223363 Y89.999486 Z-1.000000 F2500.000000
G00 Z0.100000
M05
(End cutting path id: path27194)


(Start cutting path id: path27196)
(Change tool to Default tool)

G00 Z0.100000
G00 X26.817129 Y105.600965
M03 S35
G01 Z-1.000000 F800.0(Penetrate)
G01 X11.836559 Y90.640431 Z-1.000000 F2500.000000
G00 Z0.100000
M05
(End cutting path id: path27196)


(Start cutting path id: path27198)
(Change tool to Default tool)

G00 Z0.100000
G00 X26.027995 Y106.838798
M03 S35
G01 Z-1.000000 F800.0(Penetrate)
G01 X10.599803 Y91.431223 Z-1.000000 F2500.000000
G00 Z0.100000
M05
(End cutting path id: path27198)


(Start cutting path id: path27200)
(Change tool to Default tool)

G00 Z0.100000
G00 X25.101760 Y107.939696
M03 S35
G01 Z-1.000000 F800.0(Penetrate)
G01 X9.500128 Y92.358951 Z-1.000000 F2500.000000
G00 Z0.100000
M05
(End cutting path id: path27200)


(Start cutting path id: path27202)
(Change tool to Default tool)

G00 Z0.100000
G00 X24.043022 Y108.908287
M03 S35
G01 Z-1.000000 F800.0(Penetrate)
G01 X8.532975 Y93.418985 Z-1.000000 F2500.000000
G00 Z0.100000
M05
(End cutting path id: path27202)


(Start cutting path id: path27542)
(Change tool to Default tool)

G00 Z0.100000
G00 X25.348227 Y125.992435
M03 S35
G01 Z-1.000000 F800.0(Penetrate)
G01 X8.976411 Y126.003401 Z-1.000000 F2500.000000
G00 Z0.100000
M05
(End cutting path id: path27542)


(Start cutting path id: path27544)
(Change tool to Default tool)

G00 Z0.100000
G00 X26.444190 Y127.425191
M03 S35
G01 Z-1.000000 F800.0(Penetrate)
G01 X7.882369 Y127.437624 Z-1.000000 F2500.000000
G00 Z0.100000
M05
(End cutting path id: path27544)


(Start cutting path id: path27546)
(Change tool to Default tool)

G00 Z0.100000
G00 X27.221661 Y128.858161
M03 S35
G01 Z-1.000000 F800.0(Penetrate)
G01 X7.106819 Y128.871634 Z-1.000000 F2500.000000
G00 Z0.100000
M05
(End cutting path id: path27546)


(Start cutting path id: path27548)
(Change tool to Default tool)

G00 Z0.100000
G00 X27.750972 Y130.291298
M03 S35
G01 Z-1.000000 F800.0(Penetrate)
G01 X6.579427 Y130.305478 Z-1.000000 F2500.000000
G00 Z0.100000
M05
(End cutting path id: path27548)


(Start cutting path id: path27550)
(Change tool to Default tool)

G00 Z0.100000
G00 X28.068256 Y131.724576
M03 S35
G01 Z-1.000000 F800.0(Penetrate)
G01 X6.264064 Y131.739180 Z-1.000000 F2500.000000
G00 Z0.100000
M05
(End cutting path id: path27550)


(Start cutting path id: path27552)
(Change tool to Default tool)

G00 Z0.100000
G00 X28.191761 Y133.157984
M03 S35
G01 Z-1.000000 F800.0(Penetrate)
G01 X6.142479 Y133.172752 Z-1.000000 F2500.000000
G00 Z0.100000
M05
(End cutting path id: path27552)


(Start cutting path id: path27554)
(Change tool to Default tool)

G00 Z0.100000
G00 X28.128012 Y134.591517
M03 S35
G01 Z-1.000000 F800.0(Penetrate)
G01 X6.208149 Y134.606199 Z-1.000000 F2500.000000
G00 Z0.100000
M05
(End cutting path id: path27554)


(Start cutting path id: path27568)
(Change tool to Default tool)

G00 Z0.100000
G00 X40.128901 Y124.410584
M03 S35
G01 Z-1.000000 F800.0(Penetrate)
G01 X27.274171 Y124.419194 Z-1.000000 F2500.000000
G00 Z0.100000
M05
(End cutting path id: path27568)


(Start cutting path id: path27570)
(Change tool to Default tool)

G00 Z0.100000
G00 X40.699595 Y124.848243
M03 S35
G01 Z-1.000000 F800.0(Penetrate)
G01 X26.704064 Y124.857617 Z-1.000000 F2500.000000
G00 Z0.100000
M05
(End cutting path id: path27570)


(Start cutting path id: path27574)
(Change tool to Default tool)

G00 Z0.100000
G00 X41.680141 Y125.757154
M03 S35
G01 Z-1.000000 F800.0(Penetrate)
G01 X25.724736 Y125.767841 Z-1.000000 F2500.000000
G00 Z0.100000
M05
(End cutting path id: path27574)


(Start cutting path id: path27572)
(Change tool to Default tool)

G00 Z0.100000
G00 X42.503337 Y126.724614
M03 S35
G01 Z-1.000000 F800.0(Penetrate)
G01 X24.902837 Y126.736402 Z-1.000000 F2500.000000
G00 Z0.100000
M05
(End cutting path id: path27572)


(Start cutting path id: path27578)
(Change tool to Default tool)

G00 Z0.100000
G00 X43.703108 Y128.718659
M03 S35
G01 Z-1.000000 F800.0(Penetrate)
G01 X23.705738 Y128.732054 Z-1.000000 F2500.000000
G00 Z0.100000
M05
(End cutting path id: path27578)


(Start cutting path id: path27576)
(Change tool to Default tool)

G00 Z0.100000
G00 X44.301907 Y130.316913
M03 S35
G01 Z-1.000000 F800.0(Penetrate)
G01 X23.109081 Y130.331108 Z-1.000000 F2500.000000
G00 Z0.100000
M05
(End cutting path id: path27576)


(Start cutting path id: path27580)
(Change tool to Default tool)

G00 Z0.100000
G00 X44.468518 Y130.968065
M03 S35
G01 Z-1.000000 F800.0(Penetrate)
G01 X22.943342 Y130.982483 Z-1.000000 F2500.000000
G00 Z0.100000
M05
(End cutting path id: path27580)


(Start cutting path id: path27590)
(Change tool to Default tool)

G00 Z0.100000
G00 X43.585329 Y138.275931
M03 S35
G01 Z-1.000000 F800.0(Penetrate)
G01 X23.836321 Y138.289159 Z-1.000000 F2500.000000
G00 Z0.100000
M05
(End cutting path id: path27590)


(Start cutting path id: path27586)
(Change tool to Default tool)

G00 Z0.100000
G00 X44.354653 Y136.243700
M03 S35
G01 Z-1.000000 F800.0(Penetrate)
G01 X23.064275 Y136.257960 Z-1.000000 F2500.000000
G00 Z0.100000
M05
(End cutting path id: path27586)


(Start cutting path id: path27584)
(Change tool to Default tool)

G00 Z0.100000
G00 X44.533230 Y135.471425
M03 S35
G01 Z-1.000000 F800.0(Penetrate)
G01 X22.884663 Y135.485925 Z-1.000000 F2500.000000
G00 Z0.100000
M05
(End cutting path id: path27584)


(Start cutting path id: path27582)
(Change tool to Default tool)

G00 Z0.100000
G00 X44.718448 Y133.967551
M03 S35
G01 Z-1.000000 F800.0(Penetrate)
G01 X22.697431 Y133.982300 Z-1.000000 F2500.000000
G00 Z0.100000
M05
(End cutting path id: path27582)


(Start cutting path id: path27368)
(Change tool to Default tool)

G00 Z0.100000
G00 X49.987286 Y105.799458
M03 S35
G01 Z-1.000000 F800.0(Penetrate)
G01 X39.212385 Y116.588804 Z-1.000000 F2500.000000
G00 Z0.100000
M05
(End cutting path id: path27368)


(Start cutting path id: path27370)
(Change tool to Default tool)

G00 Z0.100000
G00 X52.276127 Y105.986852
M03 S35
G01 Z-1.000000 F800.0(Penetrate)
G01 X39.402863 Y118.877392 Z-1.000000 F2500.000000
G00 Z0.100000
M05
(End cutting path id: path27370)


(Start cutting path id: path27376)
(Change tool to Default tool)

G00 Z0.100000
G00 X53.077423 Y106.168810
M03 S35
G01 Z-1.000000 F800.0(Penetrate)
G01 X39.585875 Y119.678443 Z-1.000000 F2500.000000
G00 Z0.100000
M05
(End cutting path id: path27376)


(Start cutting path id: path27374)
(Change tool to Default tool)

G00 Z0.100000
G00 X53.299508 Y106.230522
M03 S35
G01 Z-1.000000 F800.0(Penetrate)
G01 X39.647884 Y119.900446 Z-1.000000 F2500.000000
G00 Z0.100000
M05
(End cutting path id: path27374)


(Start cutting path id: path27372)
(Change tool to Default tool)

G00 Z0.100000
G00 X53.365646 Y106.249866
M03 S35
G01 Z-1.000000 F800.0(Penetrate)
G01 X39.667318 Y119.966557 Z-1.000000 F2500.000000
G00 Z0.100000
M05
(End cutting path id: path27372)


(Start cutting path id: path27378)
(Change tool to Default tool)

G00 Z0.100000
G00 X55.076264 Y106.915386
M03 S35
G01 Z-1.000000 F800.0(Penetrate)
G01 X40.335128 Y121.676283 Z-1.000000 F2500.000000
G00 Z0.100000
M05
(End cutting path id: path27378)


(Start cutting path id: path27380)
(Change tool to Default tool)

G00 Z0.100000
G00 X56.568861 Y107.795983
M03 S35
G01 Z-1.000000 F800.0(Penetrate)
G01 X41.217724 Y123.167698 Z-1.000000 F2500.000000
G00 Z0.100000
M05
(End cutting path id: path27380)


(Start cutting path id: path27382)
(Change tool to Default tool)

G00 Z0.100000
G00 X56.726804 Y107.908865
M03 S35
G01 Z-1.000000 F800.0(Penetrate)
G01 X41.330818 Y123.325490 Z-1.000000 F2500.000000
G00 Z0.100000
M05
(End cutting path id: path27382)


(Start cutting path id: path27386)
(Change tool to Default tool)

G00 Z0.100000
G00 X60.627228 Y113.131731
M03 S35
G01 Z-1.000000 F800.0(Penetrate)
G01 X46.558903 Y127.218914 Z-1.000000 F2500.000000
G00 Z0.100000
M05
(End cutting path id: path27386)


(Start cutting path id: path27384)
(Change tool to Default tool)

G00 Z0.100000
G00 X58.766352 Y109.835140
M03 S35
G01 Z-1.000000 F800.0(Penetrate)
G01 X43.259823 Y125.362456 Z-1.000000 F2500.000000
G00 Z0.100000
M05
(End cutting path id: path27384)


(Start cutting path id: path27240)
(Change tool to Default tool)

G00 Z0.100000
G00 X74.075672 Y108.527981
M03 S35
G01 Z-1.000000 F800.0(Penetrate)
G01 X59.467232 Y108.537766 Z-1.000000 F2500.000000
G00 Z0.100000
M05
(End cutting path id: path27240)


(Start cutting path id: path27238)
(Change tool to Default tool)

G00 Z0.100000
G00 X75.410906 Y107.117248
M03 S35
G01 Z-1.000000 F800.0(Penetrate)
G01 X58.130110 Y107.128823 Z-1.000000 F2500.000000
G00 Z0.100000
M05
(End cutting path id: path27238)


(Start cutting path id: path27236)
(Change tool to Default tool)

G00 Z0.100000
G00 X77.351743 Y103.359504
M03 S35
G01 Z-1.000000 F800.0(Penetrate)
G01 X56.184241 Y103.373683 Z-1.000000 F2500.000000
G00 Z0.100000
M05
(End cutting path id: path27236)


(Start cutting path id: path27216)
(Change tool to Default tool)

G00 Z0.100000
G00 X73.660391 Y91.666457
M03 S35
G01 Z-1.000000 F800.0(Penetrate)
G01 X59.859925 Y91.675701 Z-1.000000 F2500.000000
G00 Z0.100000
M05
(End cutting path id: path27216)


(Start cutting path id: path27048)
(Change tool to Default tool)

G00 Z0.100000
G00 X60.025096 Y78.708565
M03 S35
G01 Z-1.000000 F800.0(Penetrate)
G01 X60.031832 Y88.764166 Z-1.000000 F2500.000000
G00 Z0.100000
M05
(End cutting path id: path27048)


(Start cutting path id: path27046)
(Change tool to Default tool)

G00 Z0.100000
G00 X58.590174 Y76.570721
M03 S35
G01 Z-1.000000 F800.0(Penetrate)
G01 X58.599774 Y90.903930 Z-1.000000 F2500.000000
G00 Z0.100000
M05
(End cutting path id: path27046)


(Start cutting path id: path27044)
(Change tool to Default tool)

G00 Z0.100000
G00 X57.155748 Y75.174892
M03 S35
G01 Z-1.000000 F800.0(Penetrate)
G01 X57.167220 Y92.301680 Z-1.000000 F2500.000000
G00 Z0.100000
M05
(End cutting path id: path27044)


(Start cutting path id: path27218)
(Change tool to Default tool)

G00 Z0.100000
G00 X74.657879 Y92.570928
M03 S35
G01 Z-1.000000 F800.0(Penetrate)
G01 X58.863649 Y92.581507 Z-1.000000 F2500.000000
G00 Z0.100000
M05
(End cutting path id: path27218)


(Start cutting path id: path27222)
(Change tool to Default tool)

G00 Z0.100000
G00 X75.535967 Y93.588008
M03 S35
G01 Z-1.000000 F800.0(Penetrate)
G01 X57.986925 Y93.599763 Z-1.000000 F2500.000000
G00 Z0.100000
M05
(End cutting path id: path27222)


(Start cutting path id: path27220)
(Change tool to Default tool)

G00 Z0.100000
G00 X75.626688 Y93.708728
M03 S35
G01 Z-1.000000 F800.0(Penetrate)
G01 X57.896365 Y93.720604 Z-1.000000 F2500.000000
G00 Z0.100000
M05
(End cutting path id: path27220)


(Start cutting path id: path27226)
(Change tool to Default tool)

G00 Z0.100000
G00 X76.419298 Y94.942617
M03 S35
G01 Z-1.000000 F800.0(Penetrate)
G01 X57.105409 Y94.955553 Z-1.000000 F2500.000000
G00 Z0.100000
M05
(End cutting path id: path27226)


(Start cutting path id: path27224)
(Change tool to Default tool)

G00 Z0.100000
G00 X76.861707 Y95.837462
M03 S35
G01 Z-1.000000 F800.0(Penetrate)
G01 X56.664200 Y95.850990 Z-1.000000 F2500.000000
G00 Z0.100000
M05
(End cutting path id: path27224)


(Start cutting path id: path27230)
(Change tool to Default tool)

G00 Z0.100000
G00 X77.460109 Y97.584082
M03 S35
G01 Z-1.000000 F800.0(Penetrate)
G01 X56.068137 Y97.598410 Z-1.000000 F2500.000000
G00 Z0.100000
M05
(End cutting path id: path27230)


(Start cutting path id: path27228)
(Change tool to Default tool)

G00 Z0.100000
G00 X77.549832 Y97.970292
M03 S35
G01 Z-1.000000 F800.0(Penetrate)
G01 X55.978932 Y97.984741 Z-1.000000 F2500.000000
G00 Z0.100000
M05
(End cutting path id: path27228)


(Start cutting path id: path27234)
(Change tool to Default tool)

G00 Z0.100000
G00 X77.781851 Y100.762558
M03 S35
G01 Z-1.000000 F800.0(Penetrate)
G01 X55.750653 Y100.777315 Z-1.000000 F2500.000000
G00 Z0.100000
M05
(End cutting path id: path27234)


(Start cutting path id: path27232)
(Change tool to Default tool)

G00 Z0.100000
G00 X77.600329 Y102.323255
M03 S35
G01 Z-1.000000 F800.0(Penetrate)
G01 X55.934267 Y102.337767 Z-1.000000 F2500.000000
G00 Z0.100000
M05
(End cutting path id: path27232)


(Start cutting path id: path27042)
(Change tool to Default tool)

G00 Z0.100000
G00 X55.721598 Y74.189721
M03 S35
G01 Z-1.000000 F800.0(Penetrate)
G01 X55.734390 Y93.288771 Z-1.000000 F2500.000000
G00 Z0.100000
M05
(End cutting path id: path27042)


(Start cutting path id: path27040)
(Change tool to Default tool)

G00 Z0.100000
G00 X54.287642 Y73.495917
M03 S35
G01 Z-1.000000 F800.0(Penetrate)
G01 X54.301366 Y93.984496 Z-1.000000 F2500.000000
G00 Z0.100000
M05
(End cutting path id: path27040)


(Start cutting path id: path27038)
(Change tool to Default tool)

G00 Z0.100000
G00 X52.853844 Y73.036598
M03 S35
G01 Z-1.000000 F800.0(Penetrate)
G01 X52.868184 Y94.445735 Z-1.000000 F2500.000000
G00 Z0.100000
M05
(End cutting path id: path27038)


(Start cutting path id: path27022)
(Change tool to Default tool)

G00 Z0.100000
G00 X41.388662 Y77.132740
M03 S35
G01 Z-1.000000 F800.0(Penetrate)
G01 X41.397525 Y90.364955 Z-1.000000 F2500.000000
G00 Z0.100000
M05
(End cutting path id: path27022)


(Start cutting path id: path27024)
(Change tool to Default tool)

G00 Z0.100000
G00 X42.821101 Y75.561979
M03 S35
G01 Z-1.000000 F800.0(Penetrate)
G01 X42.832067 Y91.933795 Z-1.000000 F2500.000000
G00 Z0.100000
M05
(End cutting path id: path27024)


(Start cutting path id: path27026)
(Change tool to Default tool)

G00 Z0.100000
G00 X44.253857 Y74.466017
M03 S35
G01 Z-1.000000 F800.0(Penetrate)
G01 X44.266290 Y93.027838 Z-1.000000 F2500.000000
G00 Z0.100000
M05
(End cutting path id: path27026)


(Start cutting path id: path27028)
(Change tool to Default tool)

G00 Z0.100000
G00 X45.686827 Y73.688546
M03 S35
G01 Z-1.000000 F800.0(Penetrate)
G01 X45.700300 Y93.803388 Z-1.000000 F2500.000000
G00 Z0.100000
M05
(End cutting path id: path27028)


(Start cutting path id: path27030)
(Change tool to Default tool)

G00 Z0.100000
G00 X47.119963 Y73.159234
M03 S35
G01 Z-1.000000 F800.0(Penetrate)
G01 X47.134144 Y94.330779 Z-1.000000 F2500.000000
G00 Z0.100000
M05
(End cutting path id: path27030)


(Start cutting path id: path27032)
(Change tool to Default tool)

G00 Z0.100000
G00 X48.553241 Y72.841951
M03 S35
G01 Z-1.000000 F800.0(Penetrate)
G01 X48.567846 Y94.646143 Z-1.000000 F2500.000000
G00 Z0.100000
M05
(End cutting path id: path27032)


(Start cutting path id: path27034)
(Change tool to Default tool)

G00 Z0.100000
G00 X49.986649 Y72.718446
M03 S35
G01 Z-1.000000 F800.0(Penetrate)
G01 X50.001418 Y94.767728 Z-1.000000 F2500.000000
G00 Z0.100000
M05
(End cutting path id: path27034)


(Start cutting path id: path27036)
(Change tool to Default tool)

G00 Z0.100000
G00 X51.420183 Y72.782195
M03 S35
G01 Z-1.000000 F800.0(Penetrate)
G01 X51.434865 Y94.702058 Z-1.000000 F2500.000000
G00 Z0.100000
M05
(End cutting path id: path27036)


(Start cutting path id: path26896)
(Change tool to Default tool)

G00 Z0.100000
G00 X57.917853 Y60.581391
M03 S35
G01 Z-1.000000 F800.0(Penetrate)
G01 X57.926716 Y73.813607 Z-1.000000 F2500.000000
G00 Z0.100000
M05
(End cutting path id: path26896)


(Start cutting path id: path26898)
(Change tool to Default tool)

G00 Z0.100000
G00 X59.350291 Y59.010631
M03 S35
G01 Z-1.000000 F800.0(Penetrate)
G01 X59.361257 Y75.382447 Z-1.000000 F2500.000000
G00 Z0.100000
M05
(End cutting path id: path26898)


(Start cutting path id: path26900)
(Change tool to Default tool)

G00 Z0.100000
G00 X60.783048 Y57.914668
M03 S35
G01 Z-1.000000 F800.0(Penetrate)
G01 X60.795481 Y76.476490 Z-1.000000 F2500.000000
G00 Z0.100000
M05
(End cutting path id: path26900)


(Start cutting path id: path26902)
(Change tool to Default tool)

G00 Z0.100000
G00 X62.216018 Y57.137198
M03 S35
G01 Z-1.000000 F800.0(Penetrate)
G01 X62.229491 Y77.252040 Z-1.000000 F2500.000000
G00 Z0.100000
M05
(End cutting path id: path26902)


(Start cutting path id: path26904)
(Change tool to Default tool)

G00 Z0.100000
G00 X63.649154 Y56.607886
M03 S35
G01 Z-1.000000 F800.0(Penetrate)
G01 X63.663335 Y77.779431 Z-1.000000 F2500.000000
G00 Z0.100000
M05
(End cutting path id: path26904)


(Start cutting path id: path26922)
(Change tool to Default tool)

G00 Z0.100000
G00 X76.554287 Y62.157216
M03 S35
G01 Z-1.000000 F800.0(Penetrate)
G01 X76.561022 Y72.212818 Z-1.000000 F2500.000000
G00 Z0.100000
M05
(End cutting path id: path26922)


(Start cutting path id: path26920)
(Change tool to Default tool)

G00 Z0.100000
G00 X75.119364 Y60.019373
M03 S35
G01 Z-1.000000 F800.0(Penetrate)
G01 X75.128965 Y74.352582 Z-1.000000 F2500.000000
G00 Z0.100000
M05
(End cutting path id: path26920)


(Start cutting path id: path26918)
(Change tool to Default tool)

G00 Z0.100000
G00 X73.684939 Y58.623544
M03 S35
G01 Z-1.000000 F800.0(Penetrate)
G01 X73.696410 Y75.750331 Z-1.000000 F2500.000000
G00 Z0.100000
M05
(End cutting path id: path26918)


(Start cutting path id: path26916)
(Change tool to Default tool)

G00 Z0.100000
G00 X72.250788 Y57.638373
M03 S35
G01 Z-1.000000 F800.0(Penetrate)
G01 X72.263581 Y76.737422 Z-1.000000 F2500.000000
G00 Z0.100000
M05
(End cutting path id: path26916)


(Start cutting path id: path26914)
(Change tool to Default tool)

G00 Z0.100000
G00 X70.816833 Y56.944568
M03 S35
G01 Z-1.000000 F800.0(Penetrate)
G01 X70.830556 Y77.433147 Z-1.000000 F2500.000000
G00 Z0.100000
M05
(End cutting path id: path26914)


(Start cutting path id: path26912)
(Change tool to Default tool)

G00 Z0.100000
G00 X69.383035 Y56.485250
M03 S35
G01 Z-1.000000 F800.0(Penetrate)
G01 X69.397375 Y77.894386 Z-1.000000 F2500.000000
G00 Z0.100000
M05
(End cutting path id: path26912)


(Start cutting path id: path26910)
(Change tool to Default tool)

G00 Z0.100000
G00 X67.949374 Y56.230846
M03 S35
G01 Z-1.000000 F800.0(Penetrate)
G01 X67.964056 Y78.150710 Z-1.000000 F2500.000000
G00 Z0.100000
M05
(End cutting path id: path26910)


(Start cutting path id: path26908)
(Change tool to Default tool)

G00 Z0.100000
G00 X66.515840 Y56.167097
M03 S35
G01 Z-1.000000 F800.0(Penetrate)
G01 X66.530609 Y78.216379 Z-1.000000 F2500.000000
G00 Z0.100000
M05
(End cutting path id: path26908)


(Start cutting path id: path26906)
(Change tool to Default tool)

G00 Z0.100000
G00 X65.082432 Y56.290603
M03 S35
G01 Z-1.000000 F800.0(Penetrate)
G01 X65.097037 Y78.094794 Z-1.000000 F2500.000000
G00 Z0.100000
M05
(End cutting path id: path26906)


(Start cutting path id: path26794)
(Change tool to Default tool)

G00 Z0.100000
G00 X75.997846 Y56.630288
M03 S35
G01 Z-1.000000 F800.0(Penetrate)
G01 X67.292798 Y61.663940 Z-1.000000 F2500.000000
G00 Z0.100000
M05
(End cutting path id: path26794)


(Start cutting path id: path26792)
(Change tool to Default tool)

G00 Z0.100000
G00 X77.131806 Y54.318705
M03 S35
G01 Z-1.000000 F800.0(Penetrate)
G01 X64.723685 Y61.493624 Z-1.000000 F2500.000000
G00 Z0.100000
M05
(End cutting path id: path26792)


(Start cutting path id: path26790)
(Change tool to Default tool)

G00 Z0.100000
G00 X77.623425 Y52.378532
M03 S35
G01 Z-1.000000 F800.0(Penetrate)
G01 X62.796913 Y60.951860 Z-1.000000 F2500.000000
G00 Z0.100000
M05
(End cutting path id: path26790)


(Start cutting path id: path26788)
(Change tool to Default tool)

G00 Z0.100000
G00 X77.759529 Y50.643935
M03 S35
G01 Z-1.000000 F800.0(Penetrate)
G01 X61.225656 Y60.204539 Z-1.000000 F2500.000000
G00 Z0.100000
M05
(End cutting path id: path26788)


(Start cutting path id: path26786)
(Change tool to Default tool)

G00 Z0.100000
G00 X77.643400 Y49.055191
M03 S35
G01 Z-1.000000 F800.0(Penetrate)
G01 X59.906632 Y59.311365 Z-1.000000 F2500.000000
G00 Z0.100000
M05
(End cutting path id: path26786)


(Start cutting path id: path26784)
(Change tool to Default tool)

G00 Z0.100000
G00 X77.324271 Y47.583834
M03 S35
G01 Z-1.000000 F800.0(Penetrate)
G01 X58.790589 Y58.300822 Z-1.000000 F2500.000000
G00 Z0.100000
M05
(End cutting path id: path26784)


(Start cutting path id: path26768)
(Change tool to Default tool)

G00 Z0.100000
G00 X68.044326 Y39.702764
M03 S35
G01 Z-1.000000 F800.0(Penetrate)
G01 X56.589328 Y46.326547 Z-1.000000 F2500.000000
G00 Z0.100000
M05
(End cutting path id: path26768)


(Start cutting path id: path26770)
(Change tool to Default tool)

G00 Z0.100000
G00 X70.120858 Y40.157903
M03 S35
G01 Z-1.000000 F800.0(Penetrate)
G01 X55.947949 Y48.353308 Z-1.000000 F2500.000000
G00 Z0.100000
M05
(End cutting path id: path26770)


(Start cutting path id: path26772)
(Change tool to Default tool)

G00 Z0.100000
G00 X71.786377 Y40.850726
M03 S35
G01 Z-1.000000 F800.0(Penetrate)
G01 X55.717583 Y50.142404 Z-1.000000 F2500.000000
G00 Z0.100000
M05
(End cutting path id: path26772)


(Start cutting path id: path26774)
(Change tool to Default tool)

G00 Z0.100000
G00 X73.176184 Y41.702979
M03 S35
G01 Z-1.000000 F800.0(Penetrate)
G01 X55.762929 Y51.772068 Z-1.000000 F2500.000000
G00 Z0.100000
M05
(End cutting path id: path26774)


(Start cutting path id: path26776)
(Change tool to Default tool)

G00 Z0.100000
G00 X74.351143 Y42.679465
M03 S35
G01 Z-1.000000 F800.0(Penetrate)
G01 X56.023124 Y53.277519 Z-1.000000 F2500.000000
G00 Z0.100000
M05
(End cutting path id: path26776)


(Start cutting path id: path26778)
(Change tool to Default tool)

G00 Z0.100000
G00 X75.342539 Y43.762079
M03 S35
G01 Z-1.000000 F800.0(Penetrate)
G01 X56.466881 Y54.676823 Z-1.000000 F2500.000000
G00 Z0.100000
M05
(End cutting path id: path26778)


(Start cutting path id: path26780)
(Change tool to Default tool)

G00 Z0.100000
G00 X76.166207 Y44.941694
M03 S35
G01 Z-1.000000 F800.0(Penetrate)
G01 X57.078365 Y55.979125 Z-1.000000 F2500.000000
G00 Z0.100000
M05
(End cutting path id: path26780)


(Start cutting path id: path26782)
(Change tool to Default tool)

G00 Z0.100000
G00 X76.827771 Y46.215036
M03 S35
G01 Z-1.000000 F800.0(Penetrate)
G01 X57.851955 Y57.187683 Z-1.000000 F2500.000000
G00 Z0.100000
M05
(End cutting path id: path26782)


(Start cutting path id: path26722)
(Change tool to Default tool)

G00 Z0.100000
G00 X77.218543 Y37.488290
M03 S35
G01 Z-1.000000 F800.0(Penetrate)
G01 X70.112901 Y44.603457 Z-1.000000 F2500.000000
G00 Z0.100000
M05
(End cutting path id: path26722)


(Start cutting path id: path26720)
(Change tool to Default tool)

G00 Z0.100000
G00 X77.715577 Y34.961981
M03 S35
G01 Z-1.000000 F800.0(Penetrate)
G01 X67.587260 Y45.103875 Z-1.000000 F2500.000000
G00 Z0.100000
M05
(End cutting path id: path26720)


(Start cutting path id: path26718)
(Change tool to Default tool)

G00 Z0.100000
G00 X77.688287 Y32.960681
M03 S35
G01 Z-1.000000 F800.0(Penetrate)
G01 X65.585925 Y45.079266 Z-1.000000 F2500.000000
G00 Z0.100000
M05
(End cutting path id: path26718)


(Start cutting path id: path26716)
(Change tool to Default tool)

G00 Z0.100000
G00 X77.370799 Y31.249967
M03 S35
G01 Z-1.000000 F800.0(Penetrate)
G01 X63.874788 Y44.764088 Z-1.000000 F2500.000000
G00 Z0.100000
M05
(End cutting path id: path26716)


(Start cutting path id: path26714)
(Change tool to Default tool)

G00 Z0.100000
G00 X76.847449 Y29.745410
M03 S35
G01 Z-1.000000 F800.0(Penetrate)
G01 X62.369531 Y44.242736 Z-1.000000 F2500.000000
G00 Z0.100000
M05
(End cutting path id: path26714)


(Start cutting path id: path26712)
(Change tool to Default tool)

G00 Z0.100000
G00 X76.158367 Y28.406771
M03 S35
G01 Z-1.000000 F800.0(Penetrate)
G01 X61.029970 Y43.555447 Z-1.000000 F2500.000000
G00 Z0.100000
M05
(End cutting path id: path26712)


(Start cutting path id: path26696)
(Change tool to Default tool)

G00 Z0.100000
G00 X65.154857 Y23.196070
M03 S35
G01 Z-1.000000 F800.0(Penetrate)
G01 X55.804533 Y32.558928 Z-1.000000 F2500.000000
G00 Z0.100000
M05
(End cutting path id: path26696)


(Start cutting path id: path26698)
(Change tool to Default tool)

G00 Z0.100000
G00 X67.278435 Y23.098273
M03 S35
G01 Z-1.000000 F800.0(Penetrate)
G01 X55.709581 Y34.682635 Z-1.000000 F2500.000000
G00 Z0.100000
M05
(End cutting path id: path26698)


(Start cutting path id: path26700)
(Change tool to Default tool)

G00 Z0.100000
G00 X69.066525 Y23.336413
M03 S35
G01 Z-1.000000 F800.0(Penetrate)
G01 X55.950116 Y36.470404 Z-1.000000 F2500.000000
G00 Z0.100000
M05
(End cutting path id: path26700)


(Start cutting path id: path26702)
(Change tool to Default tool)

G00 Z0.100000
G00 X70.629542 Y23.799927
M03 S35
G01 Z-1.000000 F800.0(Penetrate)
G01 X56.415724 Y38.032799 Z-1.000000 F2500.000000
G00 Z0.100000
M05
(End cutting path id: path26702)


(Start cutting path id: path26704)
(Change tool to Default tool)

G00 Z0.100000
G00 X72.017185 Y24.439033
M03 S35
G01 Z-1.000000 F800.0(Penetrate)
G01 X57.056688 Y39.419603 Z-1.000000 F2500.000000
G00 Z0.100000
M05
(End cutting path id: path26704)


(Start cutting path id: path26706)
(Change tool to Default tool)

G00 Z0.100000
G00 X73.255018 Y25.228167
M03 S35
G01 Z-1.000000 F800.0(Penetrate)
G01 X57.847461 Y40.656359 Z-1.000000 F2500.000000
G00 Z0.100000
M05
(End cutting path id: path26706)


(Start cutting path id: path26708)
(Change tool to Default tool)

G00 Z0.100000
G00 X74.355934 Y26.154402
M03 S35
G01 Z-1.000000 F800.0(Penetrate)
G01 X58.775189 Y41.756034 Z-1.000000 F2500.000000
G00 Z0.100000
M05
(End cutting path id: path26708)


(Start cutting path id: path26710)
(Change tool to Default tool)

G00 Z0.100000
G00 X75.324507 Y27.213140
M03 S35
G01 Z-1.000000 F800.0(Penetrate)
G01 X59.835223 Y42.723187 Z-1.000000 F2500.000000
G00 Z0.100000
M05
(End cutting path id: path26710)


(Start cutting path id: path26620)
(Change tool to Default tool)

G00 Z0.100000
G00 X88.285169 Y27.370229
M03 S35
G01 Z-1.000000 F800.0(Penetrate)
G01 X78.229567 Y27.376964 Z-1.000000 F2500.000000
G00 Z0.100000
M05
(End cutting path id: path26620)


(Start cutting path id: path26618)
(Change tool to Default tool)

G00 Z0.100000
G00 X90.423013 Y25.935306
M03 S35
G01 Z-1.000000 F800.0(Penetrate)
G01 X76.089803 Y25.944907 Z-1.000000 F2500.000000
G00 Z0.100000
M05
(End cutting path id: path26618)


(Start cutting path id: path26616)
(Change tool to Default tool)

G00 Z0.100000
G00 X91.818842 Y24.500881
M03 S35
G01 Z-1.000000 F800.0(Penetrate)
G01 X74.692054 Y24.512352 Z-1.000000 F2500.000000
G00 Z0.100000
M05
(End cutting path id: path26616)


(Start cutting path id: path26614)
(Change tool to Default tool)

G00 Z0.100000
G00 X92.804012 Y23.066730
M03 S35
G01 Z-1.000000 F800.0(Penetrate)
G01 X73.704963 Y23.079523 Z-1.000000 F2500.000000
G00 Z0.100000
M05
(End cutting path id: path26614)


(Start cutting path id: path26612)
(Change tool to Default tool)

G00 Z0.100000
G00 X93.497817 Y21.632775
M03 S35
G01 Z-1.000000 F800.0(Penetrate)
G01 X73.009238 Y21.646498 Z-1.000000 F2500.000000
G00 Z0.100000
M05
(End cutting path id: path26612)


(Start cutting path id: path26610)
(Change tool to Default tool)

G00 Z0.100000
G00 X93.957136 Y20.198976
M03 S35
G01 Z-1.000000 F800.0(Penetrate)
G01 X72.547999 Y20.213316 Z-1.000000 F2500.000000
G00 Z0.100000
M05
(End cutting path id: path26610)


(Start cutting path id: path26594)
(Change tool to Default tool)

G00 Z0.100000
G00 X89.860994 Y8.733795
M03 S35
G01 Z-1.000000 F800.0(Penetrate)
G01 X76.628778 Y8.742658 Z-1.000000 F2500.000000
G00 Z0.100000
M05
(End cutting path id: path26594)


(Start cutting path id: path26596)
(Change tool to Default tool)

G00 Z0.100000
G00 X91.431754 Y10.166233
M03 S35
G01 Z-1.000000 F800.0(Penetrate)
G01 X75.059938 Y10.177199 Z-1.000000 F2500.000000
G00 Z0.100000
M05
(End cutting path id: path26596)


(Start cutting path id: path26598)
(Change tool to Default tool)

G00 Z0.100000
G00 X92.527717 Y11.598990
M03 S35
G01 Z-1.000000 F800.0(Penetrate)
G01 X73.965896 Y11.611423 Z-1.000000 F2500.000000
G00 Z0.100000
M05
(End cutting path id: path26598)


(Start cutting path id: path26600)
(Change tool to Default tool)

G00 Z0.100000
G00 X93.305188 Y13.031960
M03 S35
G01 Z-1.000000 F800.0(Penetrate)
G01 X73.190345 Y13.045433 Z-1.000000 F2500.000000
G00 Z0.100000
M05
(End cutting path id: path26600)


(Start cutting path id: path26602)
(Change tool to Default tool)

G00 Z0.100000
G00 X93.834499 Y14.465096
M03 S35
G01 Z-1.000000 F800.0(Penetrate)
G01 X72.662954 Y14.479277 Z-1.000000 F2500.000000
G00 Z0.100000
M05
(End cutting path id: path26602)


(Start cutting path id: path26604)
(Change tool to Default tool)

G00 Z0.100000
G00 X94.151783 Y15.898374
M03 S35
G01 Z-1.000000 F800.0(Penetrate)
G01 X72.347591 Y15.912979 Z-1.000000 F2500.000000
G00 Z0.100000
M05
(End cutting path id: path26604)


(Start cutting path id: path26606)
(Change tool to Default tool)

G00 Z0.100000
G00 X94.275288 Y17.331782
M03 S35
G01 Z-1.000000 F800.0(Penetrate)
G01 X72.226006 Y17.346551 Z-1.000000 F2500.000000
G00 Z0.100000
M05
(End cutting path id: path26606)


(Start cutting path id: path26608)
(Change tool to Default tool)

G00 Z0.100000
G00 X94.211539 Y18.765315
M03 S35
G01 Z-1.000000 F800.0(Penetrate)
G01 X72.291675 Y18.779997 Z-1.000000 F2500.000000
G00 Z0.100000
M05
(End cutting path id: path26608)


(Start cutting path id: path26796)
(Change tool to Default tool)

G00 Z0.100000
G00 X101.124865 Y39.680607
M03 S35
G01 Z-1.000000 F800.0(Penetrate)
G01 X89.669867 Y46.304390 Z-1.000000 F2500.000000
G00 Z0.100000
M05
(End cutting path id: path26796)


(Start cutting path id: path26798)
(Change tool to Default tool)

G00 Z0.100000
G00 X103.201397 Y40.135746
M03 S35
G01 Z-1.000000 F800.0(Penetrate)
G01 X89.028488 Y48.331150 Z-1.000000 F2500.000000
G00 Z0.100000
M05
(End cutting path id: path26798)


(Start cutting path id: path26800)
(Change tool to Default tool)

G00 Z0.100000
G00 X104.866916 Y40.828568
M03 S35
G01 Z-1.000000 F800.0(Penetrate)
G01 X88.798122 Y50.120246 Z-1.000000 F2500.000000
G00 Z0.100000
M05
(End cutting path id: path26800)


(Start cutting path id: path26824)
(Change tool to Default tool)

G00 Z0.100000
G00 X107.008688 Y44.764344
M03 S35
G01 Z-1.000000 F800.0(Penetrate)
G01 X107.016538 Y56.484320 Z-1.000000 F2500.000000
G00 Z0.100000
M05
(End cutting path id: path26824)


(Start cutting path id: path26822)
(Change tool to Default tool)

G00 Z0.100000
G00 X109.078385 Y56.608130
M03 S35
G01 Z-1.000000 F800.0(Penetrate)
G01 X100.373337 Y61.641783 Z-1.000000 F2500.000000
G00 Z0.100000
M05
(End cutting path id: path26822)


(Start cutting path id: path26820)
(Change tool to Default tool)

G00 Z0.100000
G00 X110.212345 Y54.296547
M03 S35
G01 Z-1.000000 F800.0(Penetrate)
G01 X97.804224 Y61.471466 Z-1.000000 F2500.000000
G00 Z0.100000
M05
(End cutting path id: path26820)


(Start cutting path id: path26818)
(Change tool to Default tool)

G00 Z0.100000
G00 X110.703964 Y52.356374
M03 S35
G01 Z-1.000000 F800.0(Penetrate)
G01 X95.877452 Y60.929703 Z-1.000000 F2500.000000
G00 Z0.100000
M05
(End cutting path id: path26818)


(Start cutting path id: path26816)
(Change tool to Default tool)

G00 Z0.100000
G00 X110.840068 Y50.621778
M03 S35
G01 Z-1.000000 F800.0(Penetrate)
G01 X94.306195 Y60.182381 Z-1.000000 F2500.000000
G00 Z0.100000
M05
(End cutting path id: path26816)


(Start cutting path id: path26814)
(Change tool to Default tool)

G00 Z0.100000
G00 X110.723939 Y49.033033
M03 S35
G01 Z-1.000000 F800.0(Penetrate)
G01 X92.987171 Y59.289207 Z-1.000000 F2500.000000
G00 Z0.100000
M05
(End cutting path id: path26814)


(Start cutting path id: path26812)
(Change tool to Default tool)

G00 Z0.100000
G00 X110.404810 Y47.561677
M03 S35
G01 Z-1.000000 F800.0(Penetrate)
G01 X91.871128 Y58.278664 Z-1.000000 F2500.000000
G00 Z0.100000
M05
(End cutting path id: path26812)


(Start cutting path id: path26810)
(Change tool to Default tool)

G00 Z0.100000
G00 X109.908310 Y46.192879
M03 S35
G01 Z-1.000000 F800.0(Penetrate)
G01 X90.932494 Y57.165526 Z-1.000000 F2500.000000
G00 Z0.100000
M05
(End cutting path id: path26810)


(Start cutting path id: path26802)
(Change tool to Default tool)

G00 Z0.100000
G00 X106.256723 Y41.680822
M03 S35
G01 Z-1.000000 F800.0(Penetrate)
G01 X88.843468 Y51.749911 Z-1.000000 F2500.000000
G00 Z0.100000
M05
(End cutting path id: path26802)


(Start cutting path id: path26804)
(Change tool to Default tool)

G00 Z0.100000
G00 X107.431682 Y42.657308
M03 S35
G01 Z-1.000000 F800.0(Penetrate)
G01 X89.103663 Y53.255361 Z-1.000000 F2500.000000
G00 Z0.100000
M05
(End cutting path id: path26804)


(Start cutting path id: path26806)
(Change tool to Default tool)

G00 Z0.100000
G00 X108.423096 Y43.739921
M03 S35
G01 Z-1.000000 F800.0(Penetrate)
G01 X89.547420 Y54.654665 Z-1.000000 F2500.000000
G00 Z0.100000
M05
(End cutting path id: path26806)


(Start cutting path id: path26808)
(Change tool to Default tool)

G00 Z0.100000
G00 X109.246746 Y44.919537
M03 S35
G01 Z-1.000000 F800.0(Penetrate)
G01 X90.158904 Y55.956968 Z-1.000000 F2500.000000
G00 Z0.100000
M05
(End cutting path id: path26808)


(Start cutting path id: path26826)
(Change tool to Default tool)

G00 Z0.100000
G00 X108.727940 Y42.653003
M03 S35
G01 Z-1.000000 F800.0(Penetrate)
G01 X108.738617 Y58.593375 Z-1.000000 F2500.000000
G00 Z0.100000
M05
(End cutting path id: path26826)


(Start cutting path id: path26830)
(Change tool to Default tool)

G00 Z0.100000
G00 X108.802949 Y42.581884
M03 S35
G01 Z-1.000000 F800.0(Penetrate)
G01 X108.813721 Y58.664393 Z-1.000000 F2500.000000
G00 Z0.100000
M05
(End cutting path id: path26830)


(Start cutting path id: path27068)
(Change tool to Default tool)

G00 Z0.100000
G00 X117.268409 Y72.707968
M03 S35
G01 Z-1.000000 F800.0(Penetrate)
G01 X106.404773 Y78.989798 Z-1.000000 F2500.000000
G00 Z0.100000
M05
(End cutting path id: path27068)


(Start cutting path id: path27050)
(Change tool to Default tool)

G00 Z0.100000
G00 X94.299842 Y84.418890
M03 S35
G01 Z-1.000000 F800.0(Penetrate)
G01 X82.582260 Y72.716994 Z-1.000000 F2500.000000
G00 Z0.100000
M05
(End cutting path id: path27050)


(Start cutting path id: path27056)
(Change tool to Default tool)

G00 Z0.100000
G00 X93.908638 Y86.711487
M03 S35
G01 Z-1.000000 F800.0(Penetrate)
G01 X80.290188 Y73.111269 Z-1.000000 F2500.000000
G00 Z0.100000
M05
(End cutting path id: path27056)


(Start cutting path id: path27052)
(Change tool to Default tool)

G00 Z0.100000
G00 X93.896665 Y86.753655
M03 S35
G01 Z-1.000000 F800.0(Penetrate)
G01 X80.248037 Y73.123298 Z-1.000000 F2500.000000
G00 Z0.100000
M05
(End cutting path id: path27052)


(Start cutting path id: path27054)
(Change tool to Default tool)

G00 Z0.100000
G00 X93.386498 Y88.165452
M03 S35
G01 Z-1.000000 F800.0(Penetrate)
G01 X78.836925 Y73.635356 Z-1.000000 F2500.000000
G00 Z0.100000
M05
(End cutting path id: path27054)


(Start cutting path id: path27058)
(Change tool to Default tool)

G00 Z0.100000
G00 X93.072010 Y88.820161
M03 S35
G01 Z-1.000000 F800.0(Penetrate)
G01 X78.182637 Y73.950721 Z-1.000000 F2500.000000
G00 Z0.100000
M05
(End cutting path id: path27058)


(Start cutting path id: path27062)
(Change tool to Default tool)

G00 Z0.100000
G00 X92.328223 Y90.044879
M03 S35
G01 Z-1.000000 F800.0(Penetrate)
G01 X76.958917 Y74.696148 Z-1.000000 F2500.000000
G00 Z0.100000
M05
(End cutting path id: path27062)


(Start cutting path id: path27060)
(Change tool to Default tool)

G00 Z0.100000
G00 X92.044284 Y90.432222
M03 S35
G01 Z-1.000000 F800.0(Penetrate)
G01 X76.571955 Y74.980606 Z-1.000000 F2500.000000
G00 Z0.100000
M05
(End cutting path id: path27060)


(Start cutting path id: path27066)
(Change tool to Default tool)

G00 Z0.100000
G00 X87.873745 Y93.752094
M03 S35
G01 Z-1.000000 F800.0(Penetrate)
G01 X73.257672 Y79.155588 Z-1.000000 F2500.000000
G00 Z0.100000
M05
(End cutting path id: path27066)


(Start cutting path id: path27064)
(Change tool to Default tool)

G00 Z0.100000
G00 X89.418710 Y92.891002
M03 S35
G01 Z-1.000000 F800.0(Penetrate)
G01 X74.116694 Y77.609471 Z-1.000000 F2500.000000
G00 Z0.100000
M05
(End cutting path id: path27064)


(Start cutting path id: path27388)
(Change tool to Default tool)

G00 Z0.100000
G00 X98.343071 Y105.867892
M03 S35
G01 Z-1.000000 F800.0(Penetrate)
G01 X88.933168 Y115.290409 Z-1.000000 F2500.000000
G00 Z0.100000
M05
(End cutting path id: path27388)


(Start cutting path id: path27392)
(Change tool to Default tool)

G00 Z0.100000
G00 X102.149245 Y106.004170
M03 S35
G01 Z-1.000000 F800.0(Penetrate)
G01 X89.074545 Y119.096397 Z-1.000000 F2500.000000
G00 Z0.100000
M05
(End cutting path id: path27392)


(Start cutting path id: path27390)
(Change tool to Default tool)

G00 Z0.100000
G00 X102.348567 Y106.048438
M03 S35
G01 Z-1.000000 F800.0(Penetrate)
G01 X89.119098 Y119.295659 Z-1.000000 F2500.000000
G00 Z0.100000
M05
(End cutting path id: path27390)


(Start cutting path id: path27396)
(Change tool to Default tool)

G00 Z0.100000
G00 X103.773380 Y106.482107
M03 S35
G01 Z-1.000000 F800.0(Penetrate)
G01 X89.554657 Y120.719890 Z-1.000000 F2500.000000
G00 Z0.100000
M05
(End cutting path id: path27396)


(Start cutting path id: path27592)
(Change tool to Default tool)

G00 Z0.100000
G00 X107.582976 Y126.709233
M03 S35
G01 Z-1.000000 F800.0(Penetrate)
G01 X107.591839 Y139.941449 Z-1.000000 F2500.000000
G00 Z0.100000
M05
(End cutting path id: path27592)


(Start cutting path id: path27768)
(Change tool to Default tool)

G00 Z0.100000
G00 X106.489893 Y141.044872
M03 S35
G01 Z-1.000000 F800.0(Penetrate)
G01 X93.257678 Y141.053735 Z-1.000000 F2500.000000
G00 Z0.100000
M05
(End cutting path id: path27768)


(Start cutting path id: path27770)
(Change tool to Default tool)

G00 Z0.100000
G00 X108.060654 Y142.477311
M03 S35
G01 Z-1.000000 F800.0(Penetrate)
G01 X91.688838 Y142.488277 Z-1.000000 F2500.000000
G00 Z0.100000
M05
(End cutting path id: path27770)


(Start cutting path id: path27754)
(Change tool to Default tool)

G00 Z0.100000
G00 X92.248621 Y156.379363
M03 S35
G01 Z-1.000000 F800.0(Penetrate)
G01 X76.829992 Y140.981375 Z-1.000000 F2500.000000
G00 Z0.100000
M05
(End cutting path id: path27754)


(Start cutting path id: path27762)
(Change tool to Default tool)

G00 Z0.100000
G00 X85.858036 Y160.617220
M03 S35
G01 Z-1.000000 F800.0(Penetrate)
G01 X72.600700 Y147.377632 Z-1.000000 F2500.000000
G00 Z0.100000
M05
(End cutting path id: path27762)


(Start cutting path id: path27760)
(Change tool to Default tool)

G00 Z0.100000
G00 X87.309788 Y160.169108
M03 S35
G01 Z-1.000000 F800.0(Penetrate)
G01 X73.046866 Y145.925280 Z-1.000000 F2500.000000
G00 Z0.100000
M05
(End cutting path id: path27760)


(Start cutting path id: path27758)
(Change tool to Default tool)

G00 Z0.100000
G00 X91.812038 Y156.939195
M03 S35
G01 Z-1.000000 F800.0(Penetrate)
G01 X76.270745 Y141.418707 Z-1.000000 F2500.000000
G00 Z0.100000
M05
(End cutting path id: path27758)


(Start cutting path id: path27772)
(Change tool to Default tool)

G00 Z0.100000
G00 X109.156617 Y143.910067
M03 S35
G01 Z-1.000000 F800.0(Penetrate)
G01 X90.594795 Y143.922500 Z-1.000000 F2500.000000
G00 Z0.100000
M05
(End cutting path id: path27772)


(Start cutting path id: path27774)
(Change tool to Default tool)

G00 Z0.100000
G00 X109.934106 Y145.343037
M03 S35
G01 Z-1.000000 F800.0(Penetrate)
G01 X89.819245 Y145.356510 Z-1.000000 F2500.000000
G00 Z0.100000
M05
(End cutting path id: path27774)


(Start cutting path id: path27778)
(Change tool to Default tool)

G00 Z0.100000
G00 X110.780682 Y148.209451
M03 S35
G01 Z-1.000000 F800.0(Penetrate)
G01 X88.976490 Y148.224056 Z-1.000000 F2500.000000
G00 Z0.100000
M05
(End cutting path id: path27778)


(Start cutting path id: path27792)
(Change tool to Default tool)

G00 Z0.100000
G00 X107.051912 Y158.246384
M03 S35
G01 Z-1.000000 F800.0(Penetrate)
G01 X92.718703 Y158.255984 Z-1.000000 F2500.000000
G00 Z0.100000
M05
(End cutting path id: path27792)


(Start cutting path id: path27790)
(Change tool to Default tool)

G00 Z0.100000
G00 X108.447741 Y156.811958
M03 S35
G01 Z-1.000000 F800.0(Penetrate)
G01 X91.320954 Y156.823430 Z-1.000000 F2500.000000
G00 Z0.100000
M05
(End cutting path id: path27790)


(Start cutting path id: path27788)
(Change tool to Default tool)

G00 Z0.100000
G00 X109.432912 Y155.377807
M03 S35
G01 Z-1.000000 F800.0(Penetrate)
G01 X90.333863 Y155.390600 Z-1.000000 F2500.000000
G00 Z0.100000
M05
(End cutting path id: path27788)


(Start cutting path id: path27786)
(Change tool to Default tool)

G00 Z0.100000
G00 X110.126716 Y153.943852
M03 S35
G01 Z-1.000000 F800.0(Penetrate)
G01 X89.638138 Y153.957575 Z-1.000000 F2500.000000
G00 Z0.100000
M05
(End cutting path id: path27786)


(Start cutting path id: path27784)
(Change tool to Default tool)

G00 Z0.100000
G00 X110.586035 Y152.510054
M03 S35
G01 Z-1.000000 F800.0(Penetrate)
G01 X89.176898 Y152.524394 Z-1.000000 F2500.000000
G00 Z0.100000
M05
(End cutting path id: path27784)


(Start cutting path id: path27782)
(Change tool to Default tool)

G00 Z0.100000
G00 X110.840438 Y151.076393
M03 S35
G01 Z-1.000000 F800.0(Penetrate)
G01 X88.920575 Y151.091075 Z-1.000000 F2500.000000
G00 Z0.100000
M05
(End cutting path id: path27782)


(Start cutting path id: path27780)
(Change tool to Default tool)

G00 Z0.100000
G00 X110.904187 Y149.642859
M03 S35
G01 Z-1.000000 F800.0(Penetrate)
G01 X88.854906 Y149.657628 Z-1.000000 F2500.000000
G00 Z0.100000
M05
(End cutting path id: path27780)


(Start cutting path id: path27594)
(Change tool to Default tool)

G00 Z0.100000
G00 X109.015415 Y125.138473
M03 S35
G01 Z-1.000000 F800.0(Penetrate)
G01 X109.026381 Y141.510289 Z-1.000000 F2500.000000
G00 Z0.100000
M05
(End cutting path id: path27594)


(Start cutting path id: path27596)
(Change tool to Default tool)

G00 Z0.100000
G00 X110.448172 Y124.042510
M03 S35
G01 Z-1.000000 F800.0(Penetrate)
G01 X110.460604 Y142.604331 Z-1.000000 F2500.000000
G00 Z0.100000
M05
(End cutting path id: path27596)


(Start cutting path id: path27598)
(Change tool to Default tool)

G00 Z0.100000
G00 X111.881141 Y123.265039
M03 S35
G01 Z-1.000000 F800.0(Penetrate)
G01 X111.894615 Y143.379900 Z-1.000000 F2500.000000
G00 Z0.100000
M05
(End cutting path id: path27598)


(Start cutting path id: path27600)
(Change tool to Default tool)

G00 Z0.100000
G00 X113.314278 Y122.735728
M03 S35
G01 Z-1.000000 F800.0(Penetrate)
G01 X113.328458 Y143.907273 Z-1.000000 F2500.000000
G00 Z0.100000
M05
(End cutting path id: path27600)


(Start cutting path id: path27616)
(Change tool to Default tool)

G00 Z0.100000
G00 X124.784488 Y126.147214
M03 S35
G01 Z-1.000000 F800.0(Penetrate)
G01 X124.794088 Y140.480424 Z-1.000000 F2500.000000
G00 Z0.100000
M05
(End cutting path id: path27616)


(Start cutting path id: path27614)
(Change tool to Default tool)

G00 Z0.100000
G00 X123.350062 Y124.751386
M03 S35
G01 Z-1.000000 F800.0(Penetrate)
G01 X123.361534 Y141.878173 Z-1.000000 F2500.000000
G00 Z0.100000
M05
(End cutting path id: path27614)


(Start cutting path id: path27612)
(Change tool to Default tool)

G00 Z0.100000
G00 X121.915912 Y123.766215
M03 S35
G01 Z-1.000000 F800.0(Penetrate)
G01 X121.928704 Y142.865264 Z-1.000000 F2500.000000
G00 Z0.100000
M05
(End cutting path id: path27612)


(Start cutting path id: path27610)
(Change tool to Default tool)

G00 Z0.100000
G00 X120.481956 Y123.072410
M03 S35
G01 Z-1.000000 F800.0(Penetrate)
G01 X120.495680 Y143.560989 Z-1.000000 F2500.000000
G00 Z0.100000
M05
(End cutting path id: path27610)


(Start cutting path id: path27608)
(Change tool to Default tool)

G00 Z0.100000
G00 X119.048158 Y122.613091
M03 S35
G01 Z-1.000000 F800.0(Penetrate)
G01 X119.062498 Y144.022228 Z-1.000000 F2500.000000
G00 Z0.100000
M05
(End cutting path id: path27608)


(Start cutting path id: path27606)
(Change tool to Default tool)

G00 Z0.100000
G00 X117.614497 Y122.358688
M03 S35
G01 Z-1.000000 F800.0(Penetrate)
G01 X117.629179 Y144.278552 Z-1.000000 F2500.000000
G00 Z0.100000
M05
(End cutting path id: path27606)


(Start cutting path id: path27604)
(Change tool to Default tool)

G00 Z0.100000
G00 X116.180964 Y122.294939
M03 S35
G01 Z-1.000000 F800.0(Penetrate)
G01 X116.195732 Y144.344221 Z-1.000000 F2500.000000
G00 Z0.100000
M05
(End cutting path id: path27604)


(Start cutting path id: path27602)
(Change tool to Default tool)

G00 Z0.100000
G00 X114.747556 Y122.418444
M03 S35
G01 Z-1.000000 F800.0(Penetrate)
G01 X114.762160 Y144.222636 Z-1.000000 F2500.000000
G00 Z0.100000
M05
(End cutting path id: path27602)


(Start cutting path id: path27618)
(Change tool to Default tool)

G00 Z0.100000
G00 X128.610797 Y123.170802
M03 S35
G01 Z-1.000000 F800.0(Penetrate)
G01 X122.002364 Y134.634663 Z-1.000000 F2500.000000
G00 Z0.100000
M05
(End cutting path id: path27618)


(Start cutting path id: path27620)
(Change tool to Default tool)

G00 Z0.100000
G00 X130.636696 Y122.526708
M03 S35
G01 Z-1.000000 F800.0(Penetrate)
G01 X122.460285 Y136.710583 Z-1.000000 F2500.000000
G00 Z0.100000
M05
(End cutting path id: path27620)


(Start cutting path id: path27622)
(Change tool to Default tool)

G00 Z0.100000
G00 X132.425481 Y122.293946
M03 S35
G01 Z-1.000000 F800.0(Penetrate)
G01 X123.155338 Y138.375172 Z-1.000000 F2500.000000
G00 Z0.100000
M05
(End cutting path id: path27622)


(Start cutting path id: path27624)
(Change tool to Default tool)

G00 Z0.100000
G00 X134.055205 Y122.337109
M03 S35
G01 Z-1.000000 F800.0(Penetrate)
G01 X124.009452 Y139.763837 Z-1.000000 F2500.000000
G00 Z0.100000
M05
(End cutting path id: path27624)


(Start cutting path id: path27798)
(Change tool to Default tool)

G00 Z0.100000
G00 X142.237156 Y143.887910
M03 S35
G01 Z-1.000000 F800.0(Penetrate)
G01 X123.675334 Y143.900343 Z-1.000000 F2500.000000
G00 Z0.100000
M05
(End cutting path id: path27798)


(Start cutting path id: path27800)
(Change tool to Default tool)

G00 Z0.100000
G00 X143.014645 Y145.320880
M03 S35
G01 Z-1.000000 F800.0(Penetrate)
G01 X122.899766 Y145.334353 Z-1.000000 F2500.000000
G00 Z0.100000
M05
(End cutting path id: path27800)


(Start cutting path id: path27802)
(Change tool to Default tool)

G00 Z0.100000
G00 X143.543938 Y146.754016
M03 S35
G01 Z-1.000000 F800.0(Penetrate)
G01 X122.372393 Y146.768197 Z-1.000000 F2500.000000
G00 Z0.100000
M05
(End cutting path id: path27802)


(Start cutting path id: path27818)
(Change tool to Default tool)

G00 Z0.100000
G00 X140.132451 Y158.224226
M03 S35
G01 Z-1.000000 F800.0(Penetrate)
G01 X125.799242 Y158.233827 Z-1.000000 F2500.000000
G00 Z0.100000
M05
(End cutting path id: path27818)


(Start cutting path id: path27816)
(Change tool to Default tool)

G00 Z0.100000
G00 X141.528280 Y156.789801
M03 S35
G01 Z-1.000000 F800.0(Penetrate)
G01 X124.401493 Y156.801272 Z-1.000000 F2500.000000
G00 Z0.100000
M05
(End cutting path id: path27816)


(Start cutting path id: path27814)
(Change tool to Default tool)

G00 Z0.100000
G00 X142.513451 Y155.355650
M03 S35
G01 Z-1.000000 F800.0(Penetrate)
G01 X123.414402 Y155.368443 Z-1.000000 F2500.000000
G00 Z0.100000
M05
(End cutting path id: path27814)


(Start cutting path id: path27812)
(Change tool to Default tool)

G00 Z0.100000
G00 X143.207255 Y153.921695
M03 S35
G01 Z-1.000000 F800.0(Penetrate)
G01 X122.718677 Y153.935418 Z-1.000000 F2500.000000
G00 Z0.100000
M05
(End cutting path id: path27812)


(Start cutting path id: path27810)
(Change tool to Default tool)

G00 Z0.100000
G00 X143.666574 Y152.487896
M03 S35
G01 Z-1.000000 F800.0(Penetrate)
G01 X122.257437 Y152.502236 Z-1.000000 F2500.000000
G00 Z0.100000
M05
(End cutting path id: path27810)


(Start cutting path id: path27808)
(Change tool to Default tool)

G00 Z0.100000
G00 X143.920977 Y151.054235
M03 S35
G01 Z-1.000000 F800.0(Penetrate)
G01 X122.001114 Y151.068917 Z-1.000000 F2500.000000
G00 Z0.100000
M05
(End cutting path id: path27808)


(Start cutting path id: path27806)
(Change tool to Default tool)

G00 Z0.100000
G00 X143.984727 Y149.620702
M03 S35
G01 Z-1.000000 F800.0(Penetrate)
G01 X121.935445 Y149.635471 Z-1.000000 F2500.000000
G00 Z0.100000
M05
(End cutting path id: path27806)


(Start cutting path id: path27804)
(Change tool to Default tool)

G00 Z0.100000
G00 X143.861221 Y148.187294
M03 S35
G01 Z-1.000000 F800.0(Penetrate)
G01 X122.057029 Y148.201898 Z-1.000000 F2500.000000
G00 Z0.100000
M05
(End cutting path id: path27804)


(Start cutting path id: path27642)
(Change tool to Default tool)

G00 Z0.100000
G00 X143.788756 Y131.284833
M03 S35
G01 Z-1.000000 F800.0(Penetrate)
G01 X136.630447 Y143.702555 Z-1.000000 F2500.000000
G00 Z0.100000
M05
(End cutting path id: path27642)


(Start cutting path id: path27820)
(Change tool to Default tool)

G00 Z0.100000
G00 X150.812146 Y138.888987
M03 S35
G01 Z-1.000000 F800.0(Penetrate)
G01 X139.357148 Y145.512771 Z-1.000000 F2500.000000
G00 Z0.100000
M05
(End cutting path id: path27820)


(Start cutting path id: path27822)
(Change tool to Default tool)

G00 Z0.100000
G00 X152.888678 Y139.344145
M03 S35
G01 Z-1.000000 F800.0(Penetrate)
G01 X138.715769 Y147.539531 Z-1.000000 F2500.000000
G00 Z0.100000
M05
(End cutting path id: path27822)


(Start cutting path id: path27824)
(Change tool to Default tool)

G00 Z0.100000
G00 X154.554197 Y140.036949
M03 S35
G01 Z-1.000000 F800.0(Penetrate)
G01 X138.485403 Y149.328627 Z-1.000000 F2500.000000
G00 Z0.100000
M05
(End cutting path id: path27824)


(Start cutting path id: path27826)
(Change tool to Default tool)

G00 Z0.100000
G00 X155.944004 Y140.889202
M03 S35
G01 Z-1.000000 F800.0(Penetrate)
G01 X138.530749 Y150.958292 Z-1.000000 F2500.000000
G00 Z0.100000
M05
(End cutting path id: path27826)


(Start cutting path id: path27668)
(Change tool to Default tool)

G00 Z0.100000
G00 X156.661642 Y141.672878
M03 S35
G01 Z-1.000000 F800.0(Penetrate)
G01 X142.328433 Y141.682478 Z-1.000000 F2500.000000
G00 Z0.100000
M05
(End cutting path id: path27668)


(Start cutting path id: path27640)
(Change tool to Default tool)

G00 Z0.100000
G00 X143.244412 Y129.358789
M03 S35
G01 Z-1.000000 F800.0(Penetrate)
G01 X134.690953 Y144.196772 Z-1.000000 F2500.000000
G00 Z0.100000
M05
(End cutting path id: path27640)


(Start cutting path id: path27638)
(Change tool to Default tool)

G00 Z0.100000
G00 X142.494986 Y127.788534
M03 S35
G01 Z-1.000000 F800.0(Penetrate)
G01 X132.956540 Y144.335200 Z-1.000000 F2500.000000
G00 Z0.100000
M05
(End cutting path id: path27638)


(Start cutting path id: path27636)
(Change tool to Default tool)

G00 Z0.100000
G00 X141.600046 Y126.470708
M03 S35
G01 Z-1.000000 F800.0(Penetrate)
G01 X131.367642 Y144.221199 Z-1.000000 F2500.000000
G00 Z0.100000
M05
(End cutting path id: path27636)


(Start cutting path id: path27634)
(Change tool to Default tool)

G00 Z0.100000
G00 X140.587990 Y125.356020
M03 S35
G01 Z-1.000000 F800.0(Penetrate)
G01 X129.895859 Y143.904042 Z-1.000000 F2500.000000
G00 Z0.100000
M05
(End cutting path id: path27634)


(Start cutting path id: path27632)
(Change tool to Default tool)

G00 Z0.100000
G00 X139.473614 Y124.418878
M03 S35
G01 Z-1.000000 F800.0(Penetrate)
G01 X128.526397 Y143.409376 Z-1.000000 F2500.000000
G00 Z0.100000
M05
(End cutting path id: path27632)


(Start cutting path id: path27626)
(Change tool to Default tool)

G00 Z0.100000
G00 X135.561003 Y122.595286
M03 S35
G01 Z-1.000000 F800.0(Penetrate)
G01 X124.987512 Y140.937486 Z-1.000000 F2500.000000
G00 Z0.100000
M05
(End cutting path id: path27626)


(Start cutting path id: path27628)
(Change tool to Default tool)

G00 Z0.100000
G00 X136.960882 Y123.037150
M03 S35
G01 Z-1.000000 F800.0(Penetrate)
G01 X126.071452 Y141.927449 Z-1.000000 F2500.000000
G00 Z0.100000
M05
(End cutting path id: path27628)


(Start cutting path id: path27630)
(Change tool to Default tool)

G00 Z0.100000
G00 X138.264021 Y123.646908
M03 S35
G01 Z-1.000000 F800.0(Penetrate)
G01 X127.252170 Y142.749519 Z-1.000000 F2500.000000
G00 Z0.100000
M05
(End cutting path id: path27630)


(Start cutting path id: path27828)
(Change tool to Default tool)

G00 Z0.100000
G00 X157.118963 Y141.865688
M03 S35
G01 Z-1.000000 F800.0(Penetrate)
G01 X138.790944 Y152.463742 Z-1.000000 F2500.000000
G00 Z0.100000
M05
(End cutting path id: path27828)


(Start cutting path id: path27844)
(Change tool to Default tool)

G00 Z0.100000
G00 X159.899626 Y153.504910
M03 S35
G01 Z-1.000000 F800.0(Penetrate)
G01 X147.491505 Y160.679847 Z-1.000000 F2500.000000
G00 Z0.100000
M05
(End cutting path id: path27844)


(Start cutting path id: path27842)
(Change tool to Default tool)

G00 Z0.100000
G00 X160.391245 Y151.564755
M03 S35
G01 Z-1.000000 F800.0(Penetrate)
G01 X145.564733 Y160.138083 Z-1.000000 F2500.000000
G00 Z0.100000
M05
(End cutting path id: path27842)


(Start cutting path id: path27840)
(Change tool to Default tool)

G00 Z0.100000
G00 X160.527349 Y149.830159
M03 S35
G01 Z-1.000000 F800.0(Penetrate)
G01 X143.993476 Y159.390762 Z-1.000000 F2500.000000
G00 Z0.100000
M05
(End cutting path id: path27840)


(Start cutting path id: path27838)
(Change tool to Default tool)

G00 Z0.100000
G00 X160.411220 Y148.241414
M03 S35
G01 Z-1.000000 F800.0(Penetrate)
G01 X142.674452 Y158.497588 Z-1.000000 F2500.000000
G00 Z0.100000
M05
(End cutting path id: path27838)


(Start cutting path id: path27836)
(Change tool to Default tool)

G00 Z0.100000
G00 X160.092091 Y146.770058
M03 S35
G01 Z-1.000000 F800.0(Penetrate)
G01 X141.558409 Y157.487027 Z-1.000000 F2500.000000
G00 Z0.100000
M05
(End cutting path id: path27836)


(Start cutting path id: path27834)
(Change tool to Default tool)

G00 Z0.100000
G00 X159.595591 Y145.401260
M03 S35
G01 Z-1.000000 F800.0(Penetrate)
G01 X140.619775 Y156.373906 Z-1.000000 F2500.000000
G00 Z0.100000
M05
(End cutting path id: path27834)


(Start cutting path id: path27832)
(Change tool to Default tool)

G00 Z0.100000
G00 X158.934027 Y144.127899
M03 S35
G01 Z-1.000000 F800.0(Penetrate)
G01 X139.846185 Y155.165349 Z-1.000000 F2500.000000
G00 Z0.100000
M05
(End cutting path id: path27832)


(Start cutting path id: path27830)
(Change tool to Default tool)

G00 Z0.100000
G00 X158.110377 Y142.948302
M03 S35
G01 Z-1.000000 F800.0(Penetrate)
G01 X139.234683 Y153.863028 Z-1.000000 F2500.000000
G00 Z0.100000
M05
(End cutting path id: path27830)


(Start cutting path id: path27666)
(Change tool to Default tool)

G00 Z0.100000
G00 X158.057471 Y140.238452
M03 S35
G01 Z-1.000000 F800.0(Penetrate)
G01 X140.930683 Y140.249924 Z-1.000000 F2500.000000
G00 Z0.100000
M05
(End cutting path id: path27666)


(Start cutting path id: path27662)
(Change tool to Default tool)

G00 Z0.100000
G00 X159.736446 Y137.370346
M03 S35
G01 Z-1.000000 F800.0(Penetrate)
G01 X139.247867 Y137.384070 Z-1.000000 F2500.000000
G00 Z0.100000
M05
(End cutting path id: path27662)


(Start cutting path id: path27434)
(Change tool to Default tool)

G00 Z0.100000
G00 X143.932049 Y117.619014
M03 S35
G01 Z-1.000000 F800.0(Penetrate)
G01 X133.803732 Y127.760907 Z-1.000000 F2500.000000
G00 Z0.100000
M05
(End cutting path id: path27434)


(Start cutting path id: path27432)
(Change tool to Default tool)

G00 Z0.100000
G00 X143.904759 Y115.617714
M03 S35
G01 Z-1.000000 F800.0(Penetrate)
G01 X131.802397 Y127.736298 Z-1.000000 F2500.000000
G00 Z0.100000
M05
(End cutting path id: path27432)


(Start cutting path id: path27430)
(Change tool to Default tool)

G00 Z0.100000
G00 X143.587289 Y113.906982
M03 S35
G01 Z-1.000000 F800.0(Penetrate)
G01 X130.091260 Y127.421121 Z-1.000000 F2500.000000
G00 Z0.100000
M05
(End cutting path id: path27430)


(Start cutting path id: path27428)
(Change tool to Default tool)

G00 Z0.100000
G00 X143.063903 Y112.402443
M03 S35
G01 Z-1.000000 F800.0(Penetrate)
G01 X128.586003 Y126.899750 Z-1.000000 F2500.000000
G00 Z0.100000
M05
(End cutting path id: path27428)


(Start cutting path id: path27426)
(Change tool to Default tool)

G00 Z0.100000
G00 X142.374839 Y111.063803
M03 S35
G01 Z-1.000000 F800.0(Penetrate)
G01 X127.246442 Y126.212480 Z-1.000000 F2500.000000
G00 Z0.100000
M05
(End cutting path id: path27426)


(Start cutting path id: path27408)
(Change tool to Default tool)

G00 Z0.100000
G00 X110.815639 Y115.560943
M03 S35
G01 Z-1.000000 F800.0(Penetrate)
G01 X98.642919 Y127.749981 Z-1.000000 F2500.000000
G00 Z0.100000
M05
(End cutting path id: path27408)


(Start cutting path id: path27404)
(Change tool to Default tool)

G00 Z0.100000
G00 X110.251406 Y113.108030
M03 S35
G01 Z-1.000000 F800.0(Penetrate)
G01 X96.189252 Y127.189035 Z-1.000000 F2500.000000
G00 Z0.100000
M05
(End cutting path id: path27404)


(Start cutting path id: path27406)
(Change tool to Default tool)

G00 Z0.100000
G00 X109.476875 Y111.399534
M03 S35
G01 Z-1.000000 F800.0(Penetrate)
G01 X94.479720 Y126.416793 Z-1.000000 F2500.000000
G00 Z0.100000
M05
(End cutting path id: path27406)


(Start cutting path id: path27400)
(Change tool to Default tool)

G00 Z0.100000
G00 X108.393451 Y109.809581
M03 S35
G01 Z-1.000000 F800.0(Penetrate)
G01 X92.888317 Y125.335500 Z-1.000000 F2500.000000
G00 Z0.100000
M05
(End cutting path id: path27400)


(Start cutting path id: path27398)
(Change tool to Default tool)

G00 Z0.100000
G00 X104.625945 Y106.847720
M03 S35
G01 Z-1.000000 F800.0(Penetrate)
G01 X89.921411 Y121.571965 Z-1.000000 F2500.000000
G00 Z0.100000
M05
(End cutting path id: path27398)


(Start cutting path id: path27394)
(Change tool to Default tool)

G00 Z0.100000
G00 X104.872293 Y106.969677
M03 S35
G01 Z-1.000000 F800.0(Penetrate)
G01 X90.043699 Y121.818149 Z-1.000000 F2500.000000
G00 Z0.100000
M05
(End cutting path id: path27394)


(Start cutting path id: path27402)
(Change tool to Default tool)

G00 Z0.100000
G00 X107.969473 Y109.321119
M03 S35
G01 Z-1.000000 F800.0(Penetrate)
G01 X92.399287 Y124.912176 Z-1.000000 F2500.000000
G00 Z0.100000
M05
(End cutting path id: path27402)


(Start cutting path id: path27266)
(Change tool to Default tool)

G00 Z0.100000
G00 X127.194140 Y102.427781
M03 S35
G01 Z-1.000000 F800.0(Penetrate)
G01 X118.590090 Y111.043364 Z-1.000000 F2500.000000
G00 Z0.100000
M05
(End cutting path id: path27266)


(Start cutting path id: path27410)
(Change tool to Default tool)

G00 Z0.100000
G00 X131.371329 Y105.853102
M03 S35
G01 Z-1.000000 F800.0(Penetrate)
G01 X122.021005 Y115.215961 Z-1.000000 F2500.000000
G00 Z0.100000
M05
(End cutting path id: path27410)


(Start cutting path id: path27412)
(Change tool to Default tool)

G00 Z0.100000
G00 X133.494907 Y105.755305
M03 S35
G01 Z-1.000000 F800.0(Penetrate)
G01 X121.926052 Y117.339667 Z-1.000000 F2500.000000
G00 Z0.100000
M05
(End cutting path id: path27412)


(Start cutting path id: path27414)
(Change tool to Default tool)

G00 Z0.100000
G00 X135.282996 Y105.993445
M03 S35
G01 Z-1.000000 F800.0(Penetrate)
G01 X122.166588 Y119.127437 Z-1.000000 F2500.000000
G00 Z0.100000
M05
(End cutting path id: path27414)


(Start cutting path id: path27416)
(Change tool to Default tool)

G00 Z0.100000
G00 X136.846014 Y106.456959
M03 S35
G01 Z-1.000000 F800.0(Penetrate)
G01 X122.632195 Y120.689832 Z-1.000000 F2500.000000
G00 Z0.100000
M05
(End cutting path id: path27416)


(Start cutting path id: path27418)
(Change tool to Default tool)

G00 Z0.100000
G00 X138.233675 Y107.096047
M03 S35
G01 Z-1.000000 F800.0(Penetrate)
G01 X123.273141 Y122.076635 Z-1.000000 F2500.000000
G00 Z0.100000
M05
(End cutting path id: path27418)


(Start cutting path id: path27420)
(Change tool to Default tool)

G00 Z0.100000
G00 X139.471508 Y107.885181
M03 S35
G01 Z-1.000000 F800.0(Penetrate)
G01 X124.063933 Y123.313410 Z-1.000000 F2500.000000
G00 Z0.100000
M05
(End cutting path id: path27420)


(Start cutting path id: path27422)
(Change tool to Default tool)

G00 Z0.100000
G00 X140.572406 Y108.811416
M03 S35
G01 Z-1.000000 F800.0(Penetrate)
G01 X124.991642 Y124.413067 Z-1.000000 F2500.000000
G00 Z0.100000
M05
(End cutting path id: path27422)


(Start cutting path id: path27424)
(Change tool to Default tool)

G00 Z0.100000
G00 X141.540997 Y109.870172
M03 S35
G01 Z-1.000000 F800.0(Penetrate)
G01 X126.051695 Y125.380238 Z-1.000000 F2500.000000
G00 Z0.100000
M05
(End cutting path id: path27424)


(Start cutting path id: path27288)
(Change tool to Default tool)

G00 Z0.100000
G00 X142.197025 Y106.199243
M03 S35
G01 Z-1.000000 F800.0(Penetrate)
G01 X123.664976 Y106.211656 Z-1.000000 F2500.000000
G00 Z0.100000
M05
(End cutting path id: path27288)


(Start cutting path id: path27264)
(Change tool to Default tool)

G00 Z0.100000
G00 X127.125129 Y97.733310
M03 S35
G01 Z-1.000000 F800.0(Penetrate)
G01 X113.895532 Y110.980642 Z-1.000000 F2500.000000
G00 Z0.100000
M05
(End cutting path id: path27264)


(Start cutting path id: path27262)
(Change tool to Default tool)

G00 Z0.100000
G00 X126.621399 Y96.134865
M03 S35
G01 Z-1.000000 F800.0(Penetrate)
G01 X112.296413 Y110.479054 Z-1.000000 F2500.000000
G00 Z0.100000
M05
(End cutting path id: path27262)


(Start cutting path id: path27258)
(Change tool to Default tool)

G00 Z0.100000
G00 X126.043529 Y94.915608
M03 S35
G01 Z-1.000000 F800.0(Penetrate)
G01 X111.076384 Y109.902817 Z-1.000000 F2500.000000
G00 Z0.100000
M05
(End cutting path id: path27258)


(Start cutting path id: path27242)
(Change tool to Default tool)

G00 Z0.100000
G00 X115.183009 Y89.277944
M03 S35
G01 Z-1.000000 F800.0(Penetrate)
G01 X105.424175 Y99.049860 Z-1.000000 F2500.000000
G00 Z0.100000
M05
(End cutting path id: path27242)


(Start cutting path id: path27244)
(Change tool to Default tool)

G00 Z0.100000
G00 X117.609267 Y89.280031
M03 S35
G01 Z-1.000000 F800.0(Penetrate)
G01 X105.429512 Y101.476112 Z-1.000000 F2500.000000
G00 Z0.100000
M05
(End cutting path id: path27244)


(Start cutting path id: path27246)
(Change tool to Default tool)

G00 Z0.100000
G00 X117.914314 Y89.318365
M03 S35
G01 Z-1.000000 F800.0(Penetrate)
G01 X105.468256 Y101.781108 Z-1.000000 F2500.000000
G00 Z0.100000
M05
(End cutting path id: path27246)


(Start cutting path id: path27248)
(Change tool to Default tool)

G00 Z0.100000
G00 X120.802278 Y90.134734
M03 S35
G01 Z-1.000000 F800.0(Penetrate)
G01 X106.288473 Y104.667976 Z-1.000000 F2500.000000
G00 Z0.100000
M05
(End cutting path id: path27248)


(Start cutting path id: path27250)
(Change tool to Default tool)

G00 Z0.100000
G00 X121.422313 Y90.428992
M03 S35
G01 Z-1.000000 F800.0(Penetrate)
G01 X106.583581 Y105.287616 Z-1.000000 F2500.000000
G00 Z0.100000
M05
(End cutting path id: path27250)


(Start cutting path id: path27252)
(Change tool to Default tool)

G00 Z0.100000
G00 X122.116420 Y90.817518
M03 S35
G01 Z-1.000000 F800.0(Penetrate)
G01 X106.973055 Y105.981201 Z-1.000000 F2500.000000
G00 Z0.100000
M05
(End cutting path id: path27252)


(Start cutting path id: path27254)
(Change tool to Default tool)

G00 Z0.100000
G00 X122.691629 Y91.192377
M03 S35
G01 Z-1.000000 F800.0(Penetrate)
G01 X107.348665 Y106.555908 Z-1.000000 F2500.000000
G00 Z0.100000
M05
(End cutting path id: path27254)


(Start cutting path id: path27256)
(Change tool to Default tool)

G00 Z0.100000
G00 X124.318651 Y92.578869
M03 S35
G01 Z-1.000000 F800.0(Penetrate)
G01 X108.737336 Y108.181071 Z-1.000000 F2500.000000
G00 Z0.100000
M05
(End cutting path id: path27256)


(Start cutting path id: path27260)
(Change tool to Default tool)

G00 Z0.100000
G00 X125.827630 Y94.541465
M03 S35
G01 Z-1.000000 F800.0(Penetrate)
G01 X110.701970 Y109.687420 Z-1.000000 F2500.000000
G00 Z0.100000
M05
(End cutting path id: path27260)


(Start cutting path id: path27086)
(Change tool to Default tool)

G00 Z0.100000
G00 X127.358450 Y82.713903
M03 S35
G01 Z-1.000000 F800.0(Penetrate)
G01 X110.043553 Y92.726138 Z-1.000000 F2500.000000
G00 Z0.100000
M05
(End cutting path id: path27086)


(Start cutting path id: path27088)
(Change tool to Default tool)

G00 Z0.100000
G00 X127.191866 Y81.553677
M03 S35
G01 Z-1.000000 F800.0(Penetrate)
G01 X109.121077 Y92.002990 Z-1.000000 F2500.000000
G00 Z0.100000
M05
(End cutting path id: path27088)


(Start cutting path id: path27084)
(Change tool to Default tool)

G00 Z0.100000
G00 X126.816989 Y80.153224
M03 S35
G01 Z-1.000000 F800.0(Penetrate)
G01 X108.094306 Y90.979485 Z-1.000000 F2500.000000
G00 Z0.100000
M05
(End cutting path id: path27084)


(Start cutting path id: path27070)
(Change tool to Default tool)

G00 Z0.100000
G00 X119.934558 Y73.261880
M03 S35
G01 Z-1.000000 F800.0(Penetrate)
G01 X105.554865 Y81.576862 Z-1.000000 F2500.000000
G00 Z0.100000
M05
(End cutting path id: path27070)


(Start cutting path id: path27072)
(Change tool to Default tool)

G00 Z0.100000
G00 X121.358526 Y73.861853
M03 S35
G01 Z-1.000000 F800.0(Penetrate)
G01 X105.364503 Y83.110274 Z-1.000000 F2500.000000
G00 Z0.100000
M05
(End cutting path id: path27072)


(Start cutting path id: path27074)
(Change tool to Default tool)

G00 Z0.100000
G00 X121.523545 Y73.947182
M03 S35
G01 Z-1.000000 F800.0(Penetrate)
G01 X105.356155 Y83.295879 Z-1.000000 F2500.000000
G00 Z0.100000
M05
(End cutting path id: path27074)


(Start cutting path id: path27076)
(Change tool to Default tool)

G00 Z0.100000
G00 X123.423147 Y75.217820
M03 S35
G01 Z-1.000000 F800.0(Penetrate)
G01 X105.509816 Y85.576093 Z-1.000000 F2500.000000
G00 Z0.100000
M05
(End cutting path id: path27076)


(Start cutting path id: path27078)
(Change tool to Default tool)

G00 Z0.100000
G00 X124.182093 Y75.910754
M03 S35
G01 Z-1.000000 F800.0(Penetrate)
G01 X105.731797 Y86.579534 Z-1.000000 F2500.000000
G00 Z0.100000
M05
(End cutting path id: path27078)


(Start cutting path id: path27082)
(Change tool to Default tool)

G00 Z0.100000
G00 X125.154213 Y77.025671
M03 S35
G01 Z-1.000000 F800.0(Penetrate)
G01 X106.213155 Y87.978225 Z-1.000000 F2500.000000
G00 Z0.100000
M05
(End cutting path id: path27082)


(Start cutting path id: path27080)
(Change tool to Default tool)

G00 Z0.100000
G00 X125.779276 Y77.939874
M03 S35
G01 Z-1.000000 F800.0(Penetrate)
G01 X106.693675 Y88.975999 Z-1.000000 F2500.000000
G00 Z0.100000
M05
(End cutting path id: path27080)


(Start cutting path id: path27268)
(Change tool to Default tool)

G00 Z0.100000
G00 X138.313289 Y90.606017
M03 S35
G01 Z-1.000000 F800.0(Penetrate)
G01 X127.527820 Y90.613242 Z-1.000000 F2500.000000
G00 Z0.100000
M05
(End cutting path id: path27268)


(Start cutting path id: path27270)
(Change tool to Default tool)

G00 Z0.100000
G00 X141.640483 Y93.470109
M03 S35
G01 Z-1.000000 F800.0(Penetrate)
G01 X124.204466 Y93.481787 Z-1.000000 F2500.000000
G00 Z0.100000
M05
(End cutting path id: path27270)


(Start cutting path id: path27272)
(Change tool to Default tool)

G00 Z0.100000
G00 X141.697634 Y93.544465
M03 S35
G01 Z-1.000000 F800.0(Penetrate)
G01 X124.147415 Y93.556220 Z-1.000000 F2500.000000
G00 Z0.100000
M05
(End cutting path id: path27272)


(Start cutting path id: path27274)
(Change tool to Default tool)

G00 Z0.100000
G00 X142.638890 Y95.005701
M03 S35
G01 Z-1.000000 F800.0(Penetrate)
G01 X123.208117 Y95.018716 Z-1.000000 F2500.000000
G00 Z0.100000
M05
(End cutting path id: path27274)


(Start cutting path id: path27276)
(Change tool to Default tool)

G00 Z0.100000
G00 X142.882943 Y95.487539
M03 S35
G01 Z-1.000000 F800.0(Penetrate)
G01 X122.964710 Y95.500881 Z-1.000000 F2500.000000
G00 Z0.100000
M05
(End cutting path id: path27276)


(Start cutting path id: path27278)
(Change tool to Default tool)

G00 Z0.100000
G00 X143.469074 Y96.994223
M03 S35
G01 Z-1.000000 F800.0(Penetrate)
G01 X122.380598 Y97.008348 Z-1.000000 F2500.000000
G00 Z0.100000
M05
(End cutting path id: path27278)


(Start cutting path id: path27280)
(Change tool to Default tool)

G00 Z0.100000
G00 X143.729532 Y98.014933
M03 S35
G01 Z-1.000000 F800.0(Penetrate)
G01 X122.121507 Y98.029406 Z-1.000000 F2500.000000
G00 Z0.100000
M05
(End cutting path id: path27280)


(Start cutting path id: path27282)
(Change tool to Default tool)

G00 Z0.100000
G00 X143.784085 Y98.300418
M03 S35
G01 Z-1.000000 F800.0(Penetrate)
G01 X122.067336 Y98.314964 Z-1.000000 F2500.000000
G00 Z0.100000
M05
(End cutting path id: path27282)


(Start cutting path id: path27284)
(Change tool to Default tool)

G00 Z0.100000
G00 X143.953811 Y100.253987
M03 S35
G01 Z-1.000000 F800.0(Penetrate)
G01 X121.900228 Y100.268759 Z-1.000000 F2500.000000
G00 Z0.100000
M05
(End cutting path id: path27284)


(Start cutting path id: path27286)
(Change tool to Default tool)

G00 Z0.100000
G00 X143.937689 Y100.824399
M03 S35
G01 Z-1.000000 F800.0(Penetrate)
G01 X121.917114 Y100.839148 Z-1.000000 F2500.000000
G00 Z0.100000
M05
(End cutting path id: path27286)


(Start cutting path id: path27436)
(Change tool to Default tool)

G00 Z0.100000
G00 X147.911599 Y105.842023
M03 S35
G01 Z-1.000000 F800.0(Penetrate)
G01 X138.561274 Y115.204882 Z-1.000000 F2500.000000
G00 Z0.100000
M05
(End cutting path id: path27436)


(Start cutting path id: path27438)
(Change tool to Default tool)

G00 Z0.100000
G00 X150.035176 Y105.744226
M03 S35
G01 Z-1.000000 F800.0(Penetrate)
G01 X138.466322 Y117.328588 Z-1.000000 F2500.000000
G00 Z0.100000
M05
(End cutting path id: path27438)


(Start cutting path id: path27440)
(Change tool to Default tool)

G00 Z0.100000
G00 X151.823266 Y105.982366
M03 S35
G01 Z-1.000000 F800.0(Penetrate)
G01 X138.706857 Y119.116358 Z-1.000000 F2500.000000
G00 Z0.100000
M05
(End cutting path id: path27440)


(Start cutting path id: path27644)
(Change tool to Default tool)

G00 Z0.100000
G00 X156.099623 Y124.471366
M03 S35
G01 Z-1.000000 F800.0(Penetrate)
G01 X142.867408 Y124.480229 Z-1.000000 F2500.000000
G00 Z0.100000
M05
(End cutting path id: path27644)


(Start cutting path id: path27646)
(Change tool to Default tool)

G00 Z0.100000
G00 X157.670384 Y125.903805
M03 S35
G01 Z-1.000000 F800.0(Penetrate)
G01 X141.298567 Y125.914771 Z-1.000000 F2500.000000
G00 Z0.100000
M05
(End cutting path id: path27646)


(Start cutting path id: path27648)
(Change tool to Default tool)

G00 Z0.100000
G00 X158.766346 Y127.336561
M03 S35
G01 Z-1.000000 F800.0(Penetrate)
G01 X140.204525 Y127.348994 Z-1.000000 F2500.000000
G00 Z0.100000
M05
(End cutting path id: path27648)


(Start cutting path id: path27650)
(Change tool to Default tool)

G00 Z0.100000
G00 X159.543835 Y128.769531
M03 S35
G01 Z-1.000000 F800.0(Penetrate)
G01 X139.428956 Y128.783004 Z-1.000000 F2500.000000
G00 Z0.100000
M05
(End cutting path id: path27650)


(Start cutting path id: path27652)
(Change tool to Default tool)

G00 Z0.100000
G00 X160.073128 Y130.202667
M03 S35
G01 Z-1.000000 F800.0(Penetrate)
G01 X138.901583 Y130.216848 Z-1.000000 F2500.000000
G00 Z0.100000
M05
(End cutting path id: path27652)


(Start cutting path id: path27654)
(Change tool to Default tool)

G00 Z0.100000
G00 X160.390412 Y131.635946
M03 S35
G01 Z-1.000000 F800.0(Penetrate)
G01 X138.586220 Y131.650550 Z-1.000000 F2500.000000
G00 Z0.100000
M05
(End cutting path id: path27654)


(Start cutting path id: path27656)
(Change tool to Default tool)

G00 Z0.100000
G00 X160.513917 Y133.069354
M03 S35
G01 Z-1.000000 F800.0(Penetrate)
G01 X138.464635 Y133.084122 Z-1.000000 F2500.000000
G00 Z0.100000
M05
(End cutting path id: path27656)


(Start cutting path id: path27660)
(Change tool to Default tool)

G00 Z0.100000
G00 X160.195765 Y135.936548
M03 S35
G01 Z-1.000000 F800.0(Penetrate)
G01 X138.786628 Y135.950888 Z-1.000000 F2500.000000
G00 Z0.100000
M05
(End cutting path id: path27660)


(Start cutting path id: path27658)
(Change tool to Default tool)

G00 Z0.100000
G00 X160.450168 Y134.502887
M03 S35
G01 Z-1.000000 F800.0(Penetrate)
G01 X138.530305 Y134.517569 Z-1.000000 F2500.000000
G00 Z0.100000
M05
(End cutting path id: path27658)


(Start cutting path id: path27486)
(Change tool to Default tool)

G00 Z0.100000
G00 X165.167685 Y127.739900
M03 S35
G01 Z-1.000000 F800.0(Penetrate)
G01 X155.025791 Y117.611583 Z-1.000000 F2500.000000
G00 Z0.100000
M05
(End cutting path id: path27486)


(Start cutting path id: path27460)
(Change tool to Default tool)

G00 Z0.100000
G00 X160.472318 Y117.607935
M03 S35
G01 Z-1.000000 F800.0(Penetrate)
G01 X150.344002 Y127.749829 Z-1.000000 F2500.000000
G00 Z0.100000
M05
(End cutting path id: path27460)


(Start cutting path id: path27670)
(Change tool to Default tool)

G00 Z0.100000
G00 X164.462947 Y122.371214
M03 S35
G01 Z-1.000000 F800.0(Penetrate)
G01 X155.112622 Y131.734073 Z-1.000000 F2500.000000
G00 Z0.100000
M05
(End cutting path id: path27670)


(Start cutting path id: path27484)
(Change tool to Default tool)

G00 Z0.100000
G00 X167.168985 Y127.712609
M03 S35
G01 Z-1.000000 F800.0(Penetrate)
G01 X155.050401 Y115.610248 Z-1.000000 F2500.000000
G00 Z0.100000
M05
(End cutting path id: path27484)


(Start cutting path id: path27456)
(Change tool to Default tool)

G00 Z0.100000
G00 X160.127559 Y113.895903
M03 S35
G01 Z-1.000000 F800.0(Penetrate)
G01 X146.631529 Y127.410042 Z-1.000000 F2500.000000
G00 Z0.100000
M05
(End cutting path id: path27456)


(Start cutting path id: path27458)
(Change tool to Default tool)

G00 Z0.100000
G00 X160.445028 Y115.606635
M03 S35
G01 Z-1.000000 F800.0(Penetrate)
G01 X148.342667 Y127.725219 Z-1.000000 F2500.000000
G00 Z0.100000
M05
(End cutting path id: path27458)


(Start cutting path id: path27454)
(Change tool to Default tool)

G00 Z0.100000
G00 X159.604172 Y112.391364
M03 S35
G01 Z-1.000000 F800.0(Penetrate)
G01 X145.126272 Y126.888671 Z-1.000000 F2500.000000
G00 Z0.100000
M05
(End cutting path id: path27454)


(Start cutting path id: path27452)
(Change tool to Default tool)

G00 Z0.100000
G00 X158.915108 Y111.052725
M03 S35
G01 Z-1.000000 F800.0(Penetrate)
G01 X143.786711 Y126.201401 Z-1.000000 F2500.000000
G00 Z0.100000
M05
(End cutting path id: path27452)


(Start cutting path id: path27450)
(Change tool to Default tool)

G00 Z0.100000
G00 X158.081267 Y109.859093
M03 S35
G01 Z-1.000000 F800.0(Penetrate)
G01 X142.591964 Y125.369160 Z-1.000000 F2500.000000
G00 Z0.100000
M05
(End cutting path id: path27450)


(Start cutting path id: path27442)
(Change tool to Default tool)

G00 Z0.100000
G00 X153.386283 Y106.445881
M03 S35
G01 Z-1.000000 F800.0(Penetrate)
G01 X139.172465 Y120.678753 Z-1.000000 F2500.000000
G00 Z0.100000
M05
(End cutting path id: path27442)


(Start cutting path id: path27444)
(Change tool to Default tool)

G00 Z0.100000
G00 X154.773945 Y107.084968
M03 S35
G01 Z-1.000000 F800.0(Penetrate)
G01 X139.813411 Y122.065557 Z-1.000000 F2500.000000
G00 Z0.100000
M05
(End cutting path id: path27444)


(Start cutting path id: path27446)
(Change tool to Default tool)

G00 Z0.100000
G00 X156.011778 Y107.874103
M03 S35
G01 Z-1.000000 F800.0(Penetrate)
G01 X140.604203 Y123.302332 Z-1.000000 F2500.000000
G00 Z0.100000
M05
(End cutting path id: path27446)


(Start cutting path id: path27448)
(Change tool to Default tool)

G00 Z0.100000
G00 X157.112676 Y108.800337
M03 S35
G01 Z-1.000000 F800.0(Penetrate)
G01 X141.531912 Y124.401988 Z-1.000000 F2500.000000
G00 Z0.100000
M05
(End cutting path id: path27448)


(Start cutting path id: path27672)
(Change tool to Default tool)

G00 Z0.100000
G00 X166.586524 Y122.273417
M03 S35
G01 Z-1.000000 F800.0(Penetrate)
G01 X155.017670 Y133.857779 Z-1.000000 F2500.000000
G00 Z0.100000
M05
(End cutting path id: path27672)


(Start cutting path id: path27482)
(Change tool to Default tool)

G00 Z0.100000
G00 X168.879699 Y127.395140
M03 S35
G01 Z-1.000000 F800.0(Penetrate)
G01 X155.365578 Y113.899092 Z-1.000000 F2500.000000
G00 Z0.100000
M05
(End cutting path id: path27482)


(Start cutting path id: path27674)
(Change tool to Default tool)

G00 Z0.100000
G00 X168.374614 Y122.511557
M03 S35
G01 Z-1.000000 F800.0(Penetrate)
G01 X155.258206 Y135.645549 Z-1.000000 F2500.000000
G00 Z0.100000
M05
(End cutting path id: path27674)


(Start cutting path id: path27480)
(Change tool to Default tool)

G00 Z0.100000
G00 X170.384256 Y126.871753
M03 S35
G01 Z-1.000000 F800.0(Penetrate)
G01 X155.886949 Y112.393854 Z-1.000000 F2500.000000
G00 Z0.100000
M05
(End cutting path id: path27480)


(Start cutting path id: path27676)
(Change tool to Default tool)

G00 Z0.100000
G00 X169.937632 Y122.975071
M03 S35
G01 Z-1.000000 F800.0(Penetrate)
G01 X155.723813 Y137.207944 Z-1.000000 F2500.000000
G00 Z0.100000
M05
(End cutting path id: path27676)


(Start cutting path id: path27478)
(Change tool to Default tool)

G00 Z0.100000
G00 X171.722896 Y126.182689
M03 S35
G01 Z-1.000000 F800.0(Penetrate)
G01 X156.574219 Y111.054293 Z-1.000000 F2500.000000
G00 Z0.100000
M05
(End cutting path id: path27478)


(Start cutting path id: path27314)
(Change tool to Default tool)

G00 Z0.100000
G00 X173.179754 Y108.581260
M03 S35
G01 Z-1.000000 F800.0(Penetrate)
G01 X158.846545 Y108.590861 Z-1.000000 F2500.000000
G00 Z0.100000
M05
(End cutting path id: path27314)


(Start cutting path id: path27312)
(Change tool to Default tool)

G00 Z0.100000
G00 X174.575583 Y107.146834
M03 S35
G01 Z-1.000000 F800.0(Penetrate)
G01 X157.448795 Y107.158306 Z-1.000000 F2500.000000
G00 Z0.100000
M05
(End cutting path id: path27312)


(Start cutting path id: path27310)
(Change tool to Default tool)

G00 Z0.100000
G00 X175.560754 Y105.712684
M03 S35
G01 Z-1.000000 F800.0(Penetrate)
G01 X156.461704 Y105.725477 Z-1.000000 F2500.000000
G00 Z0.100000
M05
(End cutting path id: path27310)


(Start cutting path id: path27308)
(Change tool to Default tool)

G00 Z0.100000
G00 X176.254558 Y104.278729
M03 S35
G01 Z-1.000000 F800.0(Penetrate)
G01 X155.765979 Y104.292452 Z-1.000000 F2500.000000
G00 Z0.100000
M05
(End cutting path id: path27308)


(Start cutting path id: path27316)
(Change tool to Default tool)

G00 Z0.100000
G00 X173.721897 Y93.584379
M03 S35
G01 Z-1.000000 F800.0(Penetrate)
G01 X173.730760 Y106.816595 Z-1.000000 F2500.000000
G00 Z0.100000
M05
(End cutting path id: path27316)


(Start cutting path id: path27306)
(Change tool to Default tool)

G00 Z0.100000
G00 X176.713877 Y102.844930
M03 S35
G01 Z-1.000000 F800.0(Penetrate)
G01 X155.304740 Y102.859270 Z-1.000000 F2500.000000
G00 Z0.100000
M05
(End cutting path id: path27306)


(Start cutting path id: path27290)
(Change tool to Default tool)

G00 Z0.100000
G00 X172.617735 Y91.379749
M03 S35
G01 Z-1.000000 F800.0(Penetrate)
G01 X159.385520 Y91.388612 Z-1.000000 F2500.000000
G00 Z0.100000
M05
(End cutting path id: path27290)


(Start cutting path id: path27292)
(Change tool to Default tool)

G00 Z0.100000
G00 X174.188496 Y92.812187
M03 S35
G01 Z-1.000000 F800.0(Penetrate)
G01 X157.816679 Y92.823153 Z-1.000000 F2500.000000
G00 Z0.100000
M05
(End cutting path id: path27292)


(Start cutting path id: path27318)
(Change tool to Default tool)

G00 Z0.100000
G00 X175.154336 Y92.013619
M03 S35
G01 Z-1.000000 F800.0(Penetrate)
G01 X175.165301 Y108.385435 Z-1.000000 F2500.000000
G00 Z0.100000
M05
(End cutting path id: path27318)


(Start cutting path id: path27462)
(Change tool to Default tool)

G00 Z0.100000
G00 X176.933597 Y115.179180
M03 S35
G01 Z-1.000000 F800.0(Penetrate)
G01 X167.570738 Y105.828856 Z-1.000000 F2500.000000
G00 Z0.100000
M05
(End cutting path id: path27462)


(Start cutting path id: path27304)
(Change tool to Default tool)

G00 Z0.100000
G00 X176.968280 Y101.411269
M03 S35
G01 Z-1.000000 F800.0(Penetrate)
G01 X155.048417 Y101.425951 Z-1.000000 F2500.000000
G00 Z0.100000
M05
(End cutting path id: path27304)


(Start cutting path id: path27294)
(Change tool to Default tool)

G00 Z0.100000
G00 X175.284458 Y94.244944
M03 S35
G01 Z-1.000000 F800.0(Penetrate)
G01 X156.722637 Y94.257376 Z-1.000000 F2500.000000
G00 Z0.100000
M05
(End cutting path id: path27294)


(Start cutting path id: path27296)
(Change tool to Default tool)

G00 Z0.100000
G00 X176.061947 Y95.677914
M03 S35
G01 Z-1.000000 F800.0(Penetrate)
G01 X155.947068 Y95.691387 Z-1.000000 F2500.000000
G00 Z0.100000
M05
(End cutting path id: path27296)


(Start cutting path id: path27298)
(Change tool to Default tool)

G00 Z0.100000
G00 X176.591240 Y97.111050
M03 S35
G01 Z-1.000000 F800.0(Penetrate)
G01 X155.419695 Y97.125231 Z-1.000000 F2500.000000
G00 Z0.100000
M05
(End cutting path id: path27298)


(Start cutting path id: path27300)
(Change tool to Default tool)

G00 Z0.100000
G00 X176.908524 Y98.544328
M03 S35
G01 Z-1.000000 F800.0(Penetrate)
G01 X155.104332 Y98.558932 Z-1.000000 F2500.000000
G00 Z0.100000
M05
(End cutting path id: path27300)


(Start cutting path id: path27302)
(Change tool to Default tool)

G00 Z0.100000
G00 X177.032029 Y99.977736
M03 S35
G01 Z-1.000000 F800.0(Penetrate)
G01 X154.982747 Y99.992505 Z-1.000000 F2500.000000
G00 Z0.100000
M05
(End cutting path id: path27302)


(Start cutting path id: path27320)
(Change tool to Default tool)

G00 Z0.100000
G00 X176.587092 Y90.917656
M03 S35
G01 Z-1.000000 F800.0(Penetrate)
G01 X176.599525 Y109.479477 Z-1.000000 F2500.000000
G00 Z0.100000
M05
(End cutting path id: path27320)


(Start cutting path id: path27464)
(Change tool to Default tool)

G00 Z0.100000
G00 X177.031394 Y117.302757
M03 S35
G01 Z-1.000000 F800.0(Penetrate)
G01 X165.447032 Y105.733903 Z-1.000000 F2500.000000
G00 Z0.100000
M05
(End cutting path id: path27464)


(Start cutting path id: path27466)
(Change tool to Default tool)

G00 Z0.100000
G00 X176.793254 Y119.090847
M03 S35
G01 Z-1.000000 F800.0(Penetrate)
G01 X163.659262 Y105.974439 Z-1.000000 F2500.000000
G00 Z0.100000
M05
(End cutting path id: path27466)


(Start cutting path id: path27678)
(Change tool to Default tool)

G00 Z0.100000
G00 X171.325293 Y123.614159
M03 S35
G01 Z-1.000000 F800.0(Penetrate)
G01 X156.364759 Y138.594747 Z-1.000000 F2500.000000
G00 Z0.100000
M05
(End cutting path id: path27678)


(Start cutting path id: path27694)
(Change tool to Default tool)

G00 Z0.100000
G00 X177.023667 Y134.137126
M03 S35
G01 Z-1.000000 F800.0(Penetrate)
G01 X166.895350 Y144.279019 Z-1.000000 F2500.000000
G00 Z0.100000
M05
(End cutting path id: path27694)


(Start cutting path id: path27846)
(Change tool to Default tool)

G00 Z0.100000
G00 X176.955754 Y148.259719
M03 S35
G01 Z-1.000000 F800.0(Penetrate)
G01 X167.592896 Y138.909395 Z-1.000000 F2500.000000
G00 Z0.100000
M05
(End cutting path id: path27846)


(Start cutting path id: path27692)
(Change tool to Default tool)

G00 Z0.100000
G00 X176.996376 Y132.135826
M03 S35
G01 Z-1.000000 F800.0(Penetrate)
G01 X164.894015 Y144.254410 Z-1.000000 F2500.000000
G00 Z0.100000
M05
(End cutting path id: path27692)


(Start cutting path id: path27848)
(Change tool to Default tool)

G00 Z0.100000
G00 X177.053551 Y150.383296
M03 S35
G01 Z-1.000000 F800.0(Penetrate)
G01 X165.469189 Y138.814442 Z-1.000000 F2500.000000
G00 Z0.100000
M05
(End cutting path id: path27848)


(Start cutting path id: path27690)
(Change tool to Default tool)

G00 Z0.100000
G00 X176.678907 Y130.425094
M03 S35
G01 Z-1.000000 F800.0(Penetrate)
G01 X163.182878 Y143.939233 Z-1.000000 F2500.000000
G00 Z0.100000
M05
(End cutting path id: path27690)


(Start cutting path id: path27850)
(Change tool to Default tool)

G00 Z0.100000
G00 X176.815411 Y152.171386
M03 S35
G01 Z-1.000000 F800.0(Penetrate)
G01 X163.681420 Y139.054978 Z-1.000000 F2500.000000
G00 Z0.100000
M05
(End cutting path id: path27850)


(Start cutting path id: path27688)
(Change tool to Default tool)

G00 Z0.100000
G00 X176.155520 Y128.920555
M03 S35
G01 Z-1.000000 F800.0(Penetrate)
G01 X161.677621 Y143.417862 Z-1.000000 F2500.000000
G00 Z0.100000
M05
(End cutting path id: path27688)


(Start cutting path id: path27870)
(Change tool to Default tool)

G00 Z0.100000
G00 X165.189843 Y160.820439
M03 S35
G01 Z-1.000000 F800.0(Penetrate)
G01 X155.047949 Y150.692122 Z-1.000000 F2500.000000
G00 Z0.100000
M05
(End cutting path id: path27870)


(Start cutting path id: path27868)
(Change tool to Default tool)

G00 Z0.100000
G00 X167.191143 Y160.793148
M03 S35
G01 Z-1.000000 F800.0(Penetrate)
G01 X155.072558 Y148.690787 Z-1.000000 F2500.000000
G00 Z0.100000
M05
(End cutting path id: path27868)


(Start cutting path id: path27866)
(Change tool to Default tool)

G00 Z0.100000
G00 X168.901856 Y160.475679
M03 S35
G01 Z-1.000000 F800.0(Penetrate)
G01 X155.387736 Y146.979631 Z-1.000000 F2500.000000
G00 Z0.100000
M05
(End cutting path id: path27866)


(Start cutting path id: path27864)
(Change tool to Default tool)

G00 Z0.100000
G00 X170.406414 Y159.952292
M03 S35
G01 Z-1.000000 F800.0(Penetrate)
G01 X155.909106 Y145.474393 Z-1.000000 F2500.000000
G00 Z0.100000
M05
(End cutting path id: path27864)


(Start cutting path id: path27862)
(Change tool to Default tool)

G00 Z0.100000
G00 X171.745053 Y159.263228
M03 S35
G01 Z-1.000000 F800.0(Penetrate)
G01 X156.596376 Y144.134832 Z-1.000000 F2500.000000
G00 Z0.100000
M05
(End cutting path id: path27862)


(Start cutting path id: path27860)
(Change tool to Default tool)

G00 Z0.100000
G00 X172.938684 Y158.429387
M03 S35
G01 Z-1.000000 F800.0(Penetrate)
G01 X157.428618 Y142.940084 Z-1.000000 F2500.000000
G00 Z0.100000
M05
(End cutting path id: path27860)


(Start cutting path id: path27854)
(Change tool to Default tool)

G00 Z0.100000
G00 X175.712810 Y155.122065
M03 S35
G01 Z-1.000000 F800.0(Penetrate)
G01 X160.732221 Y140.161531 Z-1.000000 F2500.000000
G00 Z0.100000
M05
(End cutting path id: path27854)


(Start cutting path id: path27476)
(Change tool to Default tool)

G00 Z0.100000
G00 X172.916527 Y125.348848
M03 S35
G01 Z-1.000000 F800.0(Penetrate)
G01 X157.406460 Y109.859545 Z-1.000000 F2500.000000
G00 Z0.100000
M05
(End cutting path id: path27476)


(Start cutting path id: path27680)
(Change tool to Default tool)

G00 Z0.100000
G00 X172.563126 Y124.403293
M03 S35
G01 Z-1.000000 F800.0(Penetrate)
G01 X157.155551 Y139.831522 Z-1.000000 F2500.000000
G00 Z0.100000
M05
(End cutting path id: path27680)


(Start cutting path id: path27682)
(Change tool to Default tool)

G00 Z0.100000
G00 X173.664024 Y125.329528
M03 S35
G01 Z-1.000000 F800.0(Penetrate)
G01 X158.083260 Y140.931179 Z-1.000000 F2500.000000
G00 Z0.100000
M05
(End cutting path id: path27682)


(Start cutting path id: path27686)
(Change tool to Default tool)

G00 Z0.100000
G00 X175.466456 Y127.581915
M03 S35
G01 Z-1.000000 F800.0(Penetrate)
G01 X160.338059 Y142.730592 Z-1.000000 F2500.000000
G00 Z0.100000
M05
(End cutting path id: path27686)


(Start cutting path id: path27856)
(Change tool to Default tool)

G00 Z0.100000
G00 X174.923675 Y156.359898
M03 S35
G01 Z-1.000000 F800.0(Penetrate)
G01 X159.495446 Y140.952323 Z-1.000000 F2500.000000
G00 Z0.100000
M05
(End cutting path id: path27856)


(Start cutting path id: path27684)
(Change tool to Default tool)

G00 Z0.100000
G00 X174.632615 Y126.388284
M03 S35
G01 Z-1.000000 F800.0(Penetrate)
G01 X159.143312 Y141.898350 Z-1.000000 F2500.000000
G00 Z0.100000
M05
(End cutting path id: path27684)


(Start cutting path id: path27858)
(Change tool to Default tool)

G00 Z0.100000
G00 X173.997440 Y157.460796
M03 S35
G01 Z-1.000000 F800.0(Penetrate)
G01 X158.395790 Y141.880032 Z-1.000000 F2500.000000
G00 Z0.100000
M05
(End cutting path id: path27858)


(Start cutting path id: path27474)
(Change tool to Default tool)

G00 Z0.100000
G00 X173.975283 Y124.380257
M03 S35
G01 Z-1.000000 F800.0(Penetrate)
G01 X158.373632 Y108.799493 Z-1.000000 F2500.000000
G00 Z0.100000
M05
(End cutting path id: path27474)


(Start cutting path id: path27468)
(Change tool to Default tool)

G00 Z0.100000
G00 X176.329739 Y120.653865
M03 S35
G01 Z-1.000000 F800.0(Penetrate)
G01 X162.096867 Y106.440046 Z-1.000000 F2500.000000
G00 Z0.100000
M05
(End cutting path id: path27468)


(Start cutting path id: path27470)
(Change tool to Default tool)

G00 Z0.100000
G00 X175.690652 Y122.041526
M03 S35
G01 Z-1.000000 F800.0(Penetrate)
G01 X160.710063 Y107.080992 Z-1.000000 F2500.000000
G00 Z0.100000
M05
(End cutting path id: path27470)


(Start cutting path id: path27472)
(Change tool to Default tool)

G00 Z0.100000
G00 X174.901517 Y123.279359
M03 S35
G01 Z-1.000000 F800.0(Penetrate)
G01 X159.473289 Y107.871784 Z-1.000000 F2500.000000
G00 Z0.100000
M05
(End cutting path id: path27472)


(Start cutting path id: path27696)
(Change tool to Default tool)

G00 Z0.100000
G00 X178.231605 Y123.137565
M03 S35
G01 Z-1.000000 F800.0(Penetrate)
G01 X171.623173 Y134.601426 Z-1.000000 F2500.000000
G00 Z0.100000
M05
(End cutting path id: path27696)


(Start cutting path id: path27698)
(Change tool to Default tool)

G00 Z0.100000
G00 X180.257505 Y122.493472
M03 S35
G01 Z-1.000000 F800.0(Penetrate)
G01 X172.081093 Y136.677347 Z-1.000000 F2500.000000
G00 Z0.100000
M05
(End cutting path id: path27698)


(Start cutting path id: path27700)
(Change tool to Default tool)

G00 Z0.100000
G00 X182.046290 Y122.260710
M03 S35
G01 Z-1.000000 F800.0(Penetrate)
G01 X172.776146 Y138.341936 Z-1.000000 F2500.000000
G00 Z0.100000
M05
(End cutting path id: path27700)


(Start cutting path id: path27702)
(Change tool to Default tool)

G00 Z0.100000
G00 X183.676014 Y122.303872
M03 S35
G01 Z-1.000000 F800.0(Penetrate)
G01 X173.630261 Y139.730600 Z-1.000000 F2500.000000
G00 Z0.100000
M05
(End cutting path id: path27702)


(Start cutting path id: path27704)
(Change tool to Default tool)

G00 Z0.100000
G00 X185.181812 Y122.562050
M03 S35
G01 Z-1.000000 F800.0(Penetrate)
G01 X174.608320 Y140.904250 Z-1.000000 F2500.000000
G00 Z0.100000
M05
(End cutting path id: path27704)


(Start cutting path id: path27720)
(Change tool to Default tool)

G00 Z0.100000
G00 X193.409546 Y131.251597
M03 S35
G01 Z-1.000000 F800.0(Penetrate)
