%
(Header)
(Generated by gcodetools from Inkscape.)
(Using default header. To add your own header create file "header" in the output dir.)
M3
(Header end.)
G21 (All units in mm)

(Start cutting path id: path6039)
(Change tool to Default tool)
M05
G00 Z0.100000
G00 X242.940706 Y185.164907
M03 S35
G01 Z-1.000000 F800.0(Penetrate)
G01 X234.089816 Y200.518837 Z-1.000000 F2500.000000
G00 Z0.100000
M05
(End cutting path id: path6039)


(Start cutting path id: path6037)
(Change tool to Default tool)

G00 Z0.100000
G00 X242.267673 Y182.783443
M03 S35
G01 Z-1.000000 F800.0(Penetrate)
G01 X231.691722 Y201.129914 Z-1.000000 F2500.000000
G00 Z0.100000
M05
(End cutting path id: path6037)


(Start cutting path id: path6035)
(Change tool to Default tool)

G00 Z0.100000
G00 X241.341043 Y180.841897
M03 S35
G01 Z-1.000000 F800.0(Penetrate)
G01 X229.547203 Y201.301073 Z-1.000000 F2500.000000
G00 Z0.100000
M05
(End cutting path id: path6035)


(Start cutting path id: path6033)
(Change tool to Default tool)

G00 Z0.100000
G00 X240.234492 Y179.212467
M03 S35
G01 Z-1.000000 F800.0(Penetrate)
G01 X227.582604 Y201.160116 Z-1.000000 F2500.000000
G00 Z0.100000
M05
(End cutting path id: path6033)


(Start cutting path id: path6031)
(Change tool to Default tool)

G00 Z0.100000
G00 X238.983155 Y177.834207
M03 S35
G01 Z-1.000000 F800.0(Penetrate)
G01 X225.762814 Y200.767966 Z-1.000000 F2500.000000
G00 Z0.100000
M05
(End cutting path id: path6031)


(Start cutting path id: path6015)
(Change tool to Default tool)

G00 Z0.100000
G00 X224.173894 Y175.132288
M03 S35
G01 Z-1.000000 F800.0(Penetrate)
G01 X216.002878 Y189.306814 Z-1.000000 F2500.000000
G00 Z0.100000
M05
(End cutting path id: path6015)


(Start cutting path id: path6017)
(Change tool to Default tool)

G00 Z0.100000
G00 X226.678824 Y174.335896
M03 S35
G01 Z-1.000000 F800.0(Penetrate)
G01 X216.569075 Y191.873592 Z-1.000000 F2500.000000
G00 Z0.100000
M05
(End cutting path id: path6017)


(Start cutting path id: path6019)
(Change tool to Default tool)

G00 Z0.100000
G00 X228.890573 Y174.048097
M03 S35
G01 Z-1.000000 F800.0(Penetrate)
G01 X217.428476 Y193.931779 Z-1.000000 F2500.000000
G00 Z0.100000
M05
(End cutting path id: path6019)


(Start cutting path id: path6021)
(Change tool to Default tool)

G00 Z0.100000
G00 X230.905650 Y174.101465
M03 S35
G01 Z-1.000000 F800.0(Penetrate)
G01 X218.484548 Y195.648797 Z-1.000000 F2500.000000
G00 Z0.100000
M05
(End cutting path id: path6021)


(Start cutting path id: path6023)
(Change tool to Default tool)

G00 Z0.100000
G00 X232.767498 Y174.420690
M03 S35
G01 Z-1.000000 F800.0(Penetrate)
G01 X219.693872 Y197.099959 Z-1.000000 F2500.000000
G00 Z0.100000
M05
(End cutting path id: path6023)


(Start cutting path id: path6025)
(Change tool to Default tool)

G00 Z0.100000
G00 X234.498383 Y174.967034
M03 S35
G01 Z-1.000000 F800.0(Penetrate)
G01 X221.034114 Y198.324002 Z-1.000000 F2500.000000
G00 Z0.100000
M05
(End cutting path id: path6025)


(Start cutting path id: path6027)
(Change tool to Default tool)

G00 Z0.100000
G00 X236.109653 Y175.720970
M03 S35
G01 Z-1.000000 F800.0(Penetrate)
G01 X222.494017 Y199.340452 Z-1.000000 F2500.000000
G00 Z0.100000
M05
(End cutting path id: path6027)


(Start cutting path id: path6029)
(Change tool to Default tool)

G00 Z0.100000
G00 X237.605258 Y176.675475
M03 S35
G01 Z-1.000000 F800.0(Penetrate)
G01 X224.069539 Y200.156335 Z-1.000000 F2500.000000
G00 Z0.100000
M05
(End cutting path id: path6029)


(Start cutting path id: path5919)
(Change tool to Default tool)

G00 Z0.100000
G00 X263.569171 Y168.254064
M03 S35
G01 Z-1.000000 F800.0(Penetrate)
G01 X251.045983 Y180.794040 Z-1.000000 F2500.000000
G00 Z0.100000
M05
(End cutting path id: path5919)


(Start cutting path id: path5917)
(Change tool to Default tool)

G00 Z0.100000
G00 X263.535428 Y165.779550
M03 S35
G01 Z-1.000000 F800.0(Penetrate)
G01 X248.571426 Y180.763611 Z-1.000000 F2500.000000
G00 Z0.100000
M05
(End cutting path id: path5917)


(Start cutting path id: path5915)
(Change tool to Default tool)

G00 Z0.100000
G00 X263.142892 Y163.664310
M03 S35
G01 Z-1.000000 F800.0(Penetrate)
G01 X246.455662 Y180.373909 Z-1.000000 F2500.000000
G00 Z0.100000
M05
(End cutting path id: path5915)


(Start cutting path id: path5913)
(Change tool to Default tool)

G00 Z0.100000
G00 X262.495772 Y161.804019
M03 S35
G01 Z-1.000000 F800.0(Penetrate)
G01 X244.594505 Y179.729259 Z-1.000000 F2500.000000
G00 Z0.100000
M05
(End cutting path id: path5913)


(Start cutting path id: path5911)
(Change tool to Default tool)

G00 Z0.100000
G00 X261.643776 Y160.148854
M03 S35
G01 Z-1.000000 F800.0(Penetrate)
G01 X242.938223 Y178.879482 Z-1.000000 F2500.000000
G00 Z0.100000
M05
(End cutting path id: path5911)


(Start cutting path id: path5895)
(Change tool to Default tool)

G00 Z0.100000
G00 X248.038453 Y153.706066
M03 S35
G01 Z-1.000000 F800.0(Penetrate)
G01 X236.477193 Y165.282802 Z-1.000000 F2500.000000
G00 Z0.100000
M05
(End cutting path id: path5895)


(Start cutting path id: path5897)
(Change tool to Default tool)

G00 Z0.100000
G00 X250.664157 Y153.585145
M03 S35
G01 Z-1.000000 F800.0(Penetrate)
G01 X236.359789 Y167.908665 Z-1.000000 F2500.000000
G00 Z0.100000
M05
(End cutting path id: path5897)


(Start cutting path id: path5899)
(Change tool to Default tool)

G00 Z0.100000
G00 X252.875024 Y153.879594
M03 S35
G01 Z-1.000000 F800.0(Penetrate)
G01 X236.657200 Y170.119158 Z-1.000000 F2500.000000
G00 Z0.100000
M05
(End cutting path id: path5899)


(Start cutting path id: path5901)
(Change tool to Default tool)

G00 Z0.100000
G00 X254.807599 Y154.452708
M03 S35
G01 Z-1.000000 F800.0(Penetrate)
G01 X237.232902 Y172.050986 Z-1.000000 F2500.000000
G00 Z0.100000
M05
(End cutting path id: path5901)


(Start cutting path id: path5903)
(Change tool to Default tool)

G00 Z0.100000
G00 X256.523399 Y155.242909
M03 S35
G01 Z-1.000000 F800.0(Penetrate)
G01 X238.025401 Y173.765704 Z-1.000000 F2500.000000
G00 Z0.100000
M05
(End cutting path id: path5903)


(Start cutting path id: path5905)
(Change tool to Default tool)

G00 Z0.100000
G00 X258.053899 Y156.218637
M03 S35
G01 Z-1.000000 F800.0(Penetrate)
G01 X239.003201 Y175.294918 Z-1.000000 F2500.000000
G00 Z0.100000
M05
(End cutting path id: path5905)


(Start cutting path id: path5907)
(Change tool to Default tool)

G00 Z0.100000
G00 X259.415108 Y157.363883
M03 S35
G01 Z-1.000000 F800.0(Penetrate)
G01 X240.150247 Y176.654591 Z-1.000000 F2500.000000
G00 Z0.100000
M05
(End cutting path id: path5907)


(Start cutting path id: path5909)
(Change tool to Default tool)

G00 Z0.100000
G00 X260.612725 Y158.672985
M03 S35
G01 Z-1.000000 F800.0(Penetrate)
G01 X241.460929 Y177.850454 Z-1.000000 F2500.000000
G00 Z0.100000
M05
(End cutting path id: path5909)


(Start cutting path id: path5685)
(Change tool to Default tool)

G00 Z0.100000
G00 X201.997100 Y123.838502
M03 S35
G01 Z-1.000000 F800.0(Penetrate)
G01 X193.146187 Y139.192432 Z-1.000000 F2500.000000
G00 Z0.100000
M05
(End cutting path id: path5685)


(Start cutting path id: path5683)
(Change tool to Default tool)

G00 Z0.100000
G00 X201.324044 Y121.457039
M03 S35
G01 Z-1.000000 F800.0(Penetrate)
G01 X190.748093 Y139.803509 Z-1.000000 F2500.000000
G00 Z0.100000
M05
(End cutting path id: path5683)


(Start cutting path id: path5681)
(Change tool to Default tool)

G00 Z0.100000
G00 X200.397414 Y119.515492
M03 S35
G01 Z-1.000000 F800.0(Penetrate)
G01 X188.603573 Y139.974668 Z-1.000000 F2500.000000
G00 Z0.100000
M05
(End cutting path id: path5681)


(Start cutting path id: path5679)
(Change tool to Default tool)

G00 Z0.100000
G00 X199.290863 Y117.886062
M03 S35
G01 Z-1.000000 F800.0(Penetrate)
G01 X186.638975 Y139.833712 Z-1.000000 F2500.000000
G00 Z0.100000
M05
(End cutting path id: path5679)


(Start cutting path id: path5803)
(Change tool to Default tool)

G00 Z0.100000
G00 X161.189461 Y144.800012
M03 S35
G01 Z-1.000000 F800.0(Penetrate)
G01 X145.704528 Y160.305702 Z-1.000000 F2500.000000
G00 Z0.100000
M05
(End cutting path id: path5803)


(Start cutting path id: path5887)
(Change tool to Default tool)

G00 Z0.100000
G00 X139.988443 Y162.376792
M03 S35
G01 Z-1.000000 F800.0(Penetrate)
G01 X116.669431 Y175.860871 Z-1.000000 F2500.000000
G00 Z0.100000
M05
(End cutting path id: path5887)


(Start cutting path id: path5865)
(Change tool to Default tool)

G00 Z0.100000
G00 X116.841562 Y176.538716
M03 S35
G01 Z-1.000000 F800.0(Penetrate)
G01 X97.562450 Y157.285413 Z-1.000000 F2500.000000
G00 Z0.100000
M05
(End cutting path id: path5865)


(Start cutting path id: path5837)
(Change tool to Default tool)

G00 Z0.100000
G00 X96.288971 Y157.961886
M03 S35
G01 Z-1.000000 F800.0(Penetrate)
G01 X73.311999 Y171.248154 Z-1.000000 F2500.000000
G00 Z0.100000
M05
(End cutting path id: path5837)


(Start cutting path id: path5825)
(Change tool to Default tool)

G00 Z0.100000
G00 X74.267772 Y156.549796
M03 S35
G01 Z-1.000000 F800.0(Penetrate)
G01 X74.282199 Y178.089411 Z-1.000000 F2500.000000
G00 Z0.100000
M05
(End cutting path id: path5825)


(Start cutting path id: path5965)
(Change tool to Default tool)

G00 Z0.100000
G00 X88.383005 Y174.276665
M03 S35
G01 Z-1.000000 F800.0(Penetrate)
G01 X73.691272 Y182.772058 Z-1.000000 F2500.000000
G00 Z0.100000
M05
(End cutting path id: path5965)


(Start cutting path id: path5963)
(Change tool to Default tool)

G00 Z0.100000
G00 X57.271813 Y180.951644
M03 S35
G01 Z-1.000000 F800.0(Penetrate)
G01 X45.470164 Y201.424346 Z-1.000000 F2500.000000
G00 Z0.100000
M05
(End cutting path id: path5963)


(Start cutting path id: path5939)
(Change tool to Default tool)

G00 Z0.100000
G00 X38.624961 Y186.832991
M03 S35
G01 Z-1.000000 F800.0(Penetrate)
G01 X17.399940 Y199.106226 Z-1.000000 F2500.000000
G00 Z0.100000
M05
(End cutting path id: path5939)


(Start cutting path id: path5937)
(Change tool to Default tool)

G00 Z0.100000
G00 X37.593918 Y182.519622
M03 S35
G01 Z-1.000000 F800.0(Penetrate)
G01 X14.175892 Y196.060940 Z-1.000000 F2500.000000
G00 Z0.100000
M05
(End cutting path id: path5937)


(Start cutting path id: path5921)
(Change tool to Default tool)

G00 Z0.100000
G00 X26.042833 Y174.207711
M03 S35
G01 Z-1.000000 F800.0(Penetrate)
G01 X12.734138 Y181.903374 Z-1.000000 F2500.000000
G00 Z0.100000
M05
(End cutting path id: path5921)


(Start cutting path id: path5925)
(Change tool to Default tool)

G00 Z0.100000
G00 X28.560967 Y174.636092
M03 S35
G01 Z-1.000000 F800.0(Penetrate)
G01 X11.849271 Y184.299516 Z-1.000000 F2500.000000
G00 Z0.100000
M05
(End cutting path id: path5925)


(Start cutting path id: path5923)
(Change tool to Default tool)

G00 Z0.100000
G00 X29.989508 Y175.105515
M03 S35
G01 Z-1.000000 F800.0(Penetrate)
G01 X11.543511 Y185.771826 Z-1.000000 F2500.000000
G00 Z0.100000
M05
(End cutting path id: path5923)


(Start cutting path id: path5927)
(Change tool to Default tool)

G00 Z0.100000
G00 X30.357731 Y175.255699
M03 S35
G01 Z-1.000000 F800.0(Penetrate)
G01 X11.489965 Y186.165844 Z-1.000000 F2500.000000
G00 Z0.100000
M05
(End cutting path id: path5927)


(Start cutting path id: path5931)
(Change tool to Default tool)

G00 Z0.100000
G00 X34.509844 Y178.009181
M03 S35
G01 Z-1.000000 F800.0(Penetrate)
G01 X11.805178 Y191.137997 Z-1.000000 F2500.000000
G00 Z0.100000
M05
(End cutting path id: path5931)


(Start cutting path id: path5929)
(Change tool to Default tool)

G00 Z0.100000
G00 X35.682862 Y179.300394
M03 S35
G01 Z-1.000000 F800.0(Penetrate)
G01 X12.339114 Y192.798783 Z-1.000000 F2500.000000
G00 Z0.100000
M05
(End cutting path id: path5929)


(Start cutting path id: path5935)
(Change tool to Default tool)

G00 Z0.100000
G00 X35.780293 Y179.423968
M03 S35
G01 Z-1.000000 F800.0(Penetrate)
G01 X12.397612 Y192.944857 Z-1.000000 F2500.000000
G00 Z0.100000
M05
(End cutting path id: path5935)


(Start cutting path id: path5933)
(Change tool to Default tool)

G00 Z0.100000
G00 X37.098930 Y181.469780
M03 S35
G01 Z-1.000000 F800.0(Penetrate)
G01 X13.512928 Y195.108241 Z-1.000000 F2500.000000
G00 Z0.100000
M05
(End cutting path id: path5933)


(Start cutting path id: path5945)
(Change tool to Default tool)

G00 Z0.100000
G00 X40.813715 Y174.978170
M03 S35
G01 Z-1.000000 F800.0(Penetrate)
G01 X32.052842 Y190.175951 Z-1.000000 F2500.000000
G00 Z0.100000
M05
(End cutting path id: path5945)


(Start cutting path id: path5943)
(Change tool to Default tool)

G00 Z0.100000
G00 X41.143494 Y174.862899
M03 S35
G01 Z-1.000000 F800.0(Penetrate)
G01 X32.118380 Y190.519079 Z-1.000000 F2500.000000
G00 Z0.100000
M05
(End cutting path id: path5943)


(Start cutting path id: path5941)
(Change tool to Default tool)

G00 Z0.100000
G00 X41.678456 Y174.695727
M03 S35
G01 Z-1.000000 F800.0(Penetrate)
G01 X32.241817 Y191.065795 Z-1.000000 F2500.000000
G00 Z0.100000
M05
(End cutting path id: path5941)


(Start cutting path id: path5947)
(Change tool to Default tool)

G00 Z0.100000
G00 X45.105754 Y174.161039
M03 S35
G01 Z-1.000000 F800.0(Penetrate)
G01 X33.496737 Y194.299574 Z-1.000000 F2500.000000
G00 Z0.100000
M05
(End cutting path id: path5947)


(Start cutting path id: path5951)
(Change tool to Default tool)

G00 Z0.100000
G00 X47.179445 Y174.262747
M03 S35
G01 Z-1.000000 F800.0(Penetrate)
G01 X34.623998 Y196.043086 Z-1.000000 F2500.000000
G00 Z0.100000
M05
(End cutting path id: path5951)


(Start cutting path id: path5949)
(Change tool to Default tool)

G00 Z0.100000
G00 X47.392340 Y174.291236
M03 S35
G01 Z-1.000000 F800.0(Penetrate)
G01 X34.755363 Y196.213039 Z-1.000000 F2500.000000
G00 Z0.100000
M05
(End cutting path id: path5949)


(Start cutting path id: path5953)
(Change tool to Default tool)

G00 Z0.100000
G00 X52.429039 Y176.061784
M03 S35
G01 Z-1.000000 F800.0(Penetrate)
G01 X38.811700 Y199.684244 Z-1.000000 F2500.000000
G00 Z0.100000
M05
(End cutting path id: path5953)


(Start cutting path id: path5961)
(Change tool to Default tool)

G00 Z0.100000
G00 X55.465876 Y178.510812
M03 S35
G01 Z-1.000000 F800.0(Penetrate)
G01 X42.452897 Y201.084831 Z-1.000000 F2500.000000
G00 Z0.100000
M05
(End cutting path id: path5961)


(Start cutting path id: path5959)
(Change tool to Default tool)

G00 Z0.100000
G00 X53.718050 Y176.928759
M03 S35
G01 Z-1.000000 F800.0(Penetrate)
G01 X40.207933 Y200.365222 Z-1.000000 F2500.000000
G00 Z0.100000
M05
(End cutting path id: path5959)


(Start cutting path id: path5955)
(Change tool to Default tool)

G00 Z0.100000
G00 X52.535201 Y176.125362
M03 S35
G01 Z-1.000000 F800.0(Penetrate)
G01 X38.919904 Y199.744253 Z-1.000000 F2500.000000
G00 Z0.100000
M05
(End cutting path id: path5955)


(Start cutting path id: path5957)
(Change tool to Default tool)

G00 Z0.100000
G00 X52.528608 Y176.121389
M03 S35
G01 Z-1.000000 F800.0(Penetrate)
G01 X38.913153 Y199.740553 Z-1.000000 F2500.000000
G00 Z0.100000
M05
(End cutting path id: path5957)


(Start cutting path id: path5713)
(Change tool to Default tool)

G00 Z0.100000
G00 X31.222770 Y159.031599
M03 S35
G01 Z-1.000000 F800.0(Penetrate)
G01 X18.789490 Y159.039927 Z-1.000000 F2500.000000
G00 Z0.100000
M05
(End cutting path id: path5713)


(Start cutting path id: path5711)
(Change tool to Default tool)

G00 Z0.100000
G00 X33.866113 Y157.257384
M03 S35
G01 Z-1.000000 F800.0(Penetrate)
G01 X16.143772 Y157.269255 Z-1.000000 F2500.000000
G00 Z0.100000
M05
(End cutting path id: path5711)


(Start cutting path id: path5709)
(Change tool to Default tool)

G00 Z0.100000
G00 X35.591990 Y155.483784
M03 S35
G01 Z-1.000000 F800.0(Penetrate)
G01 X14.415521 Y155.497968 Z-1.000000 F2500.000000
G00 Z0.100000
M05
(End cutting path id: path5709)


(Start cutting path id: path5707)
(Change tool to Default tool)

G00 Z0.100000
G00 X36.810107 Y153.710525
M03 S35
G01 Z-1.000000 F800.0(Penetrate)
G01 X13.195029 Y153.726342 Z-1.000000 F2500.000000
G00 Z0.100000
M05
(End cutting path id: path5707)


(Start cutting path id: path5705)
(Change tool to Default tool)

G00 Z0.100000
G00 X37.667964 Y151.937506
M03 S35
G01 Z-1.000000 F800.0(Penetrate)
G01 X12.334798 Y151.954474 Z-1.000000 F2500.000000
G00 Z0.100000
M05
(End cutting path id: path5705)


(Start cutting path id: path5703)
(Change tool to Default tool)

G00 Z0.100000
G00 X38.235891 Y150.164682
M03 S35
G01 Z-1.000000 F800.0(Penetrate)
G01 X11.764498 Y150.182412 Z-1.000000 F2500.000000
G00 Z0.100000
M05
(End cutting path id: path5703)


(Start cutting path id: path5687)
(Change tool to Default tool)

G00 Z0.100000
G00 X33.171203 Y135.988522
M03 S35
G01 Z-1.000000 F800.0(Penetrate)
G01 X16.810190 Y135.999481 Z-1.000000 F2500.000000
G00 Z0.100000
M05
(End cutting path id: path5687)


(Start cutting path id: path5455)
(Change tool to Default tool)

G00 Z0.100000
G00 X20.794809 Y118.977783
M03 S35
G01 Z-1.000000 F800.0(Penetrate)
G01 X11.997238 Y110.191990 Z-1.000000 F2500.000000
G00 Z0.100000
M05
(End cutting path id: path5455)


(Start cutting path id: path5453)
(Change tool to Default tool)

G00 Z0.100000
G00 X23.918471 Y119.592342
M03 S35
G01 Z-1.000000 F800.0(Penetrate)
G01 X11.378495 Y107.069154 Z-1.000000 F2500.000000
G00 Z0.100000
M05
(End cutting path id: path5453)


(Start cutting path id: path5451)
(Change tool to Default tool)

G00 Z0.100000
G00 X26.392985 Y119.558599
M03 S35
G01 Z-1.000000 F800.0(Penetrate)
G01 X11.408924 Y104.594597 Z-1.000000 F2500.000000
G00 Z0.100000
M05
(End cutting path id: path5451)


(Start cutting path id: path5449)
(Change tool to Default tool)

G00 Z0.100000
G00 X28.508202 Y119.166040
M03 S35
G01 Z-1.000000 F800.0(Penetrate)
G01 X11.798649 Y102.478856 Z-1.000000 F2500.000000
G00 Z0.100000
M05
(End cutting path id: path5449)


(Start cutting path id: path5447)
(Change tool to Default tool)

G00 Z0.100000
G00 X30.368516 Y118.518943
M03 S35
G01 Z-1.000000 F800.0(Penetrate)
G01 X12.443276 Y100.617676 Z-1.000000 F2500.000000
G00 Z0.100000
M05
(End cutting path id: path5447)


(Start cutting path id: path5251)
(Change tool to Default tool)

G00 Z0.100000
G00 X14.044085 Y77.374342
M03 S35
G01 Z-1.000000 F800.0(Penetrate)
G01 X14.055044 Y93.735356 Z-1.000000 F2500.000000
G00 Z0.100000
M05
(End cutting path id: path5251)


(Start cutting path id: path5253)
(Change tool to Default tool)

G00 Z0.100000
G00 X15.815228 Y75.432170
M03 S35
G01 Z-1.000000 F800.0(Penetrate)
G01 X15.828787 Y95.675153 Z-1.000000 F2500.000000
G00 Z0.100000
M05
(End cutting path id: path5253)


(Start cutting path id: path5255)
(Change tool to Default tool)

G00 Z0.100000
G00 X17.586765 Y74.077064
M03 S35
G01 Z-1.000000 F800.0(Penetrate)
G01 X17.602137 Y97.027885 Z-1.000000 F2500.000000
G00 Z0.100000
M05
(End cutting path id: path5255)


(Start cutting path id: path5429)
(Change tool to Default tool)

G00 Z0.100000
G00 X38.466469 Y104.061601
M03 S35
G01 Z-1.000000 F800.0(Penetrate)
G01 X26.889733 Y92.500364 Z-1.000000 F2500.000000
G00 Z0.100000
M05
(End cutting path id: path5429)


(Start cutting path id: path5277)
(Change tool to Default tool)

G00 Z0.100000
G00 X37.087162 Y79.322775
M03 S35
G01 Z-1.000000 F800.0(Penetrate)
G01 X37.095490 Y91.756055 Z-1.000000 F2500.000000
G00 Z0.100000
M05
(End cutting path id: path5277)


(Start cutting path id: path5457)
(Change tool to Default tool)

G00 Z0.100000
G00 X47.043658 Y92.447735
M03 S35
G01 Z-1.000000 F800.0(Penetrate)
G01 X32.880091 Y100.637732 Z-1.000000 F2500.000000
G00 Z0.100000
M05
(End cutting path id: path5457)


(Start cutting path id: path5431)
(Change tool to Default tool)

G00 Z0.100000
G00 X38.587390 Y106.687305
M03 S35
G01 Z-1.000000 F800.0(Penetrate)
G01 X24.263870 Y92.382960 Z-1.000000 F2500.000000
G00 Z0.100000
M05
(End cutting path id: path5431)


(Start cutting path id: path5275)
(Change tool to Default tool)

G00 Z0.100000
G00 X35.312947 Y76.679432
M03 S35
G01 Z-1.000000 F800.0(Penetrate)
G01 X35.324818 Y94.401773 Z-1.000000 F2500.000000
G00 Z0.100000
M05
(End cutting path id: path5275)


(Start cutting path id: path5459)
(Change tool to Default tool)

G00 Z0.100000
G00 X49.611193 Y93.010493
M03 S35
G01 Z-1.000000 F800.0(Penetrate)
G01 X32.087055 Y103.143726 Z-1.000000 F2500.000000
G00 Z0.100000
M05
(End cutting path id: path5459)


(Start cutting path id: path5433)
(Change tool to Default tool)

G00 Z0.100000
G00 X38.292941 Y108.898194
M03 S35
G01 Z-1.000000 F800.0(Penetrate)
G01 X22.053377 Y92.680371 Z-1.000000 F2500.000000
G00 Z0.100000
M05
(End cutting path id: path5433)


(Start cutting path id: path5257)
(Change tool to Default tool)

G00 Z0.100000
G00 X19.358565 Y73.115758
M03 S35
G01 Z-1.000000 F800.0(Penetrate)
G01 X19.375224 Y97.986816 Z-1.000000 F2500.000000
G00 Z0.100000
M05
(End cutting path id: path5257)


(Start cutting path id: path5435)
(Change tool to Default tool)

G00 Z0.100000
G00 X37.719827 Y110.830792
M03 S35
G01 Z-1.000000 F800.0(Penetrate)
G01 X20.121549 Y93.256073 Z-1.000000 F2500.000000
G00 Z0.100000
M05
(End cutting path id: path5435)


(Start cutting path id: path5259)
(Change tool to Default tool)

G00 Z0.100000
G00 X21.130570 Y72.461289
M03 S35
G01 Z-1.000000 F800.0(Penetrate)
G01 X21.148104 Y98.638911 Z-1.000000 F2500.000000
G00 Z0.100000
M05
(End cutting path id: path5259)


(Start cutting path id: path5437)
(Change tool to Default tool)

G00 Z0.100000
G00 X36.929603 Y112.546570
M03 S35
G01 Z-1.000000 F800.0(Penetrate)
G01 X18.406831 Y94.048572 Z-1.000000 F2500.000000
G00 Z0.100000
M05
(End cutting path id: path5437)


(Start cutting path id: path5261)
(Change tool to Default tool)

G00 Z0.100000
G00 X22.902752 Y72.068983
M03 S35
G01 Z-1.000000 F800.0(Penetrate)
G01 X22.920809 Y99.028843 Z-1.000000 F2500.000000
G00 Z0.100000
M05
(End cutting path id: path5261)


(Start cutting path id: path5439)
(Change tool to Default tool)

G00 Z0.100000
G00 X35.953875 Y114.077070
M03 S35
G01 Z-1.000000 F800.0(Penetrate)
G01 X16.877640 Y95.026349 Z-1.000000 F2500.000000
G00 Z0.100000
M05
(End cutting path id: path5439)


(Start cutting path id: path5263)
(Change tool to Default tool)

G00 Z0.100000
G00 X24.675093 Y71.916274
M03 S35
G01 Z-1.000000 F800.0(Penetrate)
G01 X24.693354 Y99.179177 Z-1.000000 F2500.000000
G00 Z0.100000
M05
(End cutting path id: path5263)


(Start cutting path id: path5441)
(Change tool to Default tool)

G00 Z0.100000
G00 X34.808629 Y115.438301
M03 S35
G01 Z-1.000000 F800.0(Penetrate)
G01 X15.517944 Y96.173440 Z-1.000000 F2500.000000
G00 Z0.100000
M05
(End cutting path id: path5441)


(Start cutting path id: path5265)
(Change tool to Default tool)

G00 Z0.100000
G00 X26.447590 Y71.995097
M03 S35
G01 Z-1.000000 F800.0(Penetrate)
G01 X26.465744 Y99.097980 Z-1.000000 F2500.000000
G00 Z0.100000
M05
(End cutting path id: path5265)


(Start cutting path id: path5443)
(Change tool to Default tool)

G00 Z0.100000
G00 X33.499550 Y116.635896
M03 S35
G01 Z-1.000000 F800.0(Penetrate)
G01 X14.322104 Y97.484123 Z-1.000000 F2500.000000
G00 Z0.100000
M05
(End cutting path id: path5443)


(Start cutting path id: path5445)
(Change tool to Default tool)

G00 Z0.100000
G00 X32.023681 Y117.666924
M03 S35
G01 Z-1.000000 F800.0(Penetrate)
G01 X13.293053 Y98.961372 Z-1.000000 F2500.000000
G00 Z0.100000
M05
(End cutting path id: path5445)


(Start cutting path id: path5561)
(Change tool to Default tool)

G00 Z0.100000
G00 X34.522749 Y118.263178
M03 S35
G01 Z-1.000000 F800.0(Penetrate)
G01 X34.533708 Y134.624191 Z-1.000000 F2500.000000
G00 Z0.100000
M05
(End cutting path id: path5561)


(Start cutting path id: path5689)
(Change tool to Default tool)

G00 Z0.100000
G00 X35.113375 Y137.759666
M03 S35
G01 Z-1.000000 F800.0(Penetrate)
G01 X14.870393 Y137.773224 Z-1.000000 F2500.000000
G00 Z0.100000
M05
(End cutting path id: path5689)


(Start cutting path id: path5691)
(Change tool to Default tool)

G00 Z0.100000
G00 X36.468481 Y139.531202
M03 S35
G01 Z-1.000000 F800.0(Penetrate)
G01 X13.517660 Y139.546574 Z-1.000000 F2500.000000
G00 Z0.100000
M05
(End cutting path id: path5691)


(Start cutting path id: path5693)
(Change tool to Default tool)

G00 Z0.100000
G00 X37.429787 Y141.303002
M03 S35
G01 Z-1.000000 F800.0(Penetrate)
G01 X12.558729 Y141.319661 Z-1.000000 F2500.000000
G00 Z0.100000
M05
(End cutting path id: path5693)


(Start cutting path id: path5695)
(Change tool to Default tool)

G00 Z0.100000
G00 X38.084256 Y143.075007
M03 S35
G01 Z-1.000000 F800.0(Penetrate)
G01 X11.906634 Y143.092541 Z-1.000000 F2500.000000
G00 Z0.100000
M05
(End cutting path id: path5695)


(Start cutting path id: path5697)
(Change tool to Default tool)

G00 Z0.100000
G00 X38.476563 Y144.847189
M03 S35
G01 Z-1.000000 F800.0(Penetrate)
G01 X11.516702 Y144.865246 Z-1.000000 F2500.000000
G00 Z0.100000
M05
(End cutting path id: path5697)


(Start cutting path id: path5699)
(Change tool to Default tool)

G00 Z0.100000
G00 X38.629271 Y146.619530
M03 S35
G01 Z-1.000000 F800.0(Penetrate)
G01 X11.366368 Y146.637791 Z-1.000000 F2500.000000
G00 Z0.100000
M05
(End cutting path id: path5699)


(Start cutting path id: path5701)
(Change tool to Default tool)

G00 Z0.100000
G00 X38.550448 Y148.392027
M03 S35
G01 Z-1.000000 F800.0(Penetrate)
G01 X11.447565 Y148.410181 Z-1.000000 F2500.000000
G00 Z0.100000
M05
(End cutting path id: path5701)


(Start cutting path id: path5715)
(Change tool to Default tool)

G00 Z0.100000
G00 X47.071055 Y133.350269
M03 S35
G01 Z-1.000000 F800.0(Penetrate)
G01 X32.907487 Y141.540266 Z-1.000000 F2500.000000
G00 Z0.100000
M05
(End cutting path id: path5715)


(Start cutting path id: path5717)
(Change tool to Default tool)

G00 Z0.100000
G00 X49.638590 Y133.913050
M03 S35
G01 Z-1.000000 F800.0(Penetrate)
G01 X32.114452 Y144.046261 Z-1.000000 F2500.000000
G00 Z0.100000
M05
(End cutting path id: path5717)


(Start cutting path id: path5719)
(Change tool to Default tool)

G00 Z0.100000
G00 X51.697925 Y134.769670
M03 S35
G01 Z-1.000000 F800.0(Penetrate)
G01 X31.829616 Y146.258393 Z-1.000000 F2500.000000
G00 Z0.100000
M05
(End cutting path id: path5719)


(Start cutting path id: path5721)
(Change tool to Default tool)

G00 Z0.100000
G00 X53.416357 Y135.823441
M03 S35
G01 Z-1.000000 F800.0(Penetrate)
G01 X31.885684 Y148.273397 Z-1.000000 F2500.000000
G00 Z0.100000
M05
(End cutting path id: path5721)


(Start cutting path id: path5805)
(Change tool to Default tool)

G00 Z0.100000
G00 X53.899588 Y160.880112
M03 S35
G01 Z-1.000000 F800.0(Penetrate)
G01 X53.908232 Y173.786407 Z-1.000000 F2500.000000
G00 Z0.100000
M05
(End cutting path id: path5805)


(Start cutting path id: path5807)
(Change tool to Default tool)

G00 Z0.100000
G00 X56.153577 Y157.805730
M03 S35
G01 Z-1.000000 F800.0(Penetrate)
G01 X56.166338 Y176.857767 Z-1.000000 F2500.000000
G00 Z0.100000
M05
(End cutting path id: path5807)


(Start cutting path id: path5809)
(Change tool to Default tool)

G00 Z0.100000
G00 X56.620674 Y157.349217
M03 S35
G01 Z-1.000000 F800.0(Penetrate)
G01 X56.634046 Y177.313653 Z-1.000000 F2500.000000
G00 Z0.100000
M05
(End cutting path id: path5809)


(Start cutting path id: path5811)
(Change tool to Default tool)

G00 Z0.100000
G00 X57.561987 Y156.548805
M03 S35
G01 Z-1.000000 F800.0(Penetrate)
G01 X57.576431 Y178.112803 Z-1.000000 F2500.000000
G00 Z0.100000
M05
(End cutting path id: path5811)


(Start cutting path id: path5741)
(Change tool to Default tool)

G00 Z0.100000
G00 X56.905209 Y154.280381
M03 S35
G01 Z-1.000000 F800.0(Penetrate)
G01 X46.141826 Y160.504233 Z-1.000000 F2500.000000
G00 Z0.100000
M05
(End cutting path id: path5741)


(Start cutting path id: path5739)
(Change tool to Default tool)

G00 Z0.100000
G00 X58.307297 Y151.422171
M03 S35
G01 Z-1.000000 F800.0(Penetrate)
G01 X42.965238 Y160.293644 Z-1.000000 F2500.000000
G00 Z0.100000
M05
(End cutting path id: path5739)


(Start cutting path id: path5737)
(Change tool to Default tool)

G00 Z0.100000
G00 X58.915161 Y149.023261
M03 S35
G01 Z-1.000000 F800.0(Penetrate)
G01 X40.582875 Y159.623779 Z-1.000000 F2500.000000
G00 Z0.100000
M05
(End cutting path id: path5737)


(Start cutting path id: path5813)
(Change tool to Default tool)

G00 Z0.100000
G00 X61.985753 Y154.269252
M03 S35
G01 Z-1.000000 F800.0(Penetrate)
G01 X62.003246 Y180.386429 Z-1.000000 F2500.000000
G00 Z0.100000
M05
(End cutting path id: path5813)


(Start cutting path id: path5815)
(Change tool to Default tool)

G00 Z0.100000
G00 X62.986260 Y154.009146
M03 S35
G01 Z-1.000000 F800.0(Penetrate)
G01 X63.004101 Y180.645194 Z-1.000000 F2500.000000
G00 Z0.100000
M05
(End cutting path id: path5815)


(Start cutting path id: path5823)
(Change tool to Default tool)

G00 Z0.100000
G00 X71.670444 Y154.965721
M03 S35
G01 Z-1.000000 F800.0(Penetrate)
G01 X71.686996 Y179.676987 Z-1.000000 F2500.000000
G00 Z0.100000
M05
(End cutting path id: path5823)


(Start cutting path id: path5967)
(Change tool to Default tool)

G00 Z0.100000
G00 X91.155427 Y174.992557
M03 S35
G01 Z-1.000000 F800.0(Penetrate)
G01 X72.928742 Y185.532014 Z-1.000000 F2500.000000
G00 Z0.100000
M05
(End cutting path id: path5967)


(Start cutting path id: path5969)
(Change tool to Default tool)

G00 Z0.100000
G00 X91.559810 Y175.151192
M03 S35
G01 Z-1.000000 F800.0(Penetrate)
G01 X72.864518 Y185.961648 Z-1.000000 F2500.000000
G00 Z0.100000
M05
(End cutting path id: path5969)


(Start cutting path id: path5971)
(Change tool to Default tool)

G00 Z0.100000
G00 X94.015481 Y176.467723
M03 S35
G01 Z-1.000000 F800.0(Penetrate)
G01 X72.780579 Y188.746691 Z-1.000000 F2500.000000
G00 Z0.100000
M05
(End cutting path id: path5971)


(Start cutting path id: path5975)
(Change tool to Default tool)

G00 Z0.100000
G00 X94.186487 Y176.585249
M03 S35
G01 Z-1.000000 F800.0(Penetrate)
G01 X72.797124 Y188.953533 Z-1.000000 F2500.000000
G00 Z0.100000
M05
(End cutting path id: path5975)


(Start cutting path id: path5973)
(Change tool to Default tool)

G00 Z0.100000
G00 X95.747408 Y177.856841
M03 S35
G01 Z-1.000000 F800.0(Penetrate)
G01 X73.120540 Y190.940680 Z-1.000000 F2500.000000
G00 Z0.100000
M05
(End cutting path id: path5973)


(Start cutting path id: path5977)
(Change tool to Default tool)

G00 Z0.100000
G00 X96.750978 Y178.913091
M03 S35
G01 Z-1.000000 F800.0(Penetrate)
G01 X73.535364 Y192.337384 Z-1.000000 F2500.000000
G00 Z0.100000
M05
(End cutting path id: path5977)


(Start cutting path id: path5987)
(Change tool to Default tool)

G00 Z0.100000
G00 X99.811302 Y190.101525
M03 S35
G01 Z-1.000000 F800.0(Penetrate)
G01 X81.705732 Y200.570980 Z-1.000000 F2500.000000
G00 Z0.100000
M05
(End cutting path id: path5987)


(Start cutting path id: path5985)
(Change tool to Default tool)

G00 Z0.100000
G00 X100.012436 Y187.601449
M03 S35
G01 Z-1.000000 F800.0(Penetrate)
G01 X79.438581 Y199.498148 Z-1.000000 F2500.000000
G00 Z0.100000
M05
(End cutting path id: path5985)


(Start cutting path id: path5983)
(Change tool to Default tool)

G00 Z0.100000
G00 X99.450468 Y183.885556
M03 S35
G01 Z-1.000000 F800.0(Penetrate)
G01 X76.498346 Y197.157446 Z-1.000000 F2500.000000
G00 Z0.100000
M05
(End cutting path id: path5983)


(Start cutting path id: path5981)
(Change tool to Default tool)

G00 Z0.100000
G00 X99.376796 Y183.645348
M03 S35
G01 Z-1.000000 F800.0(Penetrate)
G01 X76.326932 Y196.973795 Z-1.000000 F2500.000000
G00 Z0.100000
M05
(End cutting path id: path5981)


(Start cutting path id: path5979)
(Change tool to Default tool)

G00 Z0.100000
G00 X98.469364 Y181.460487
M03 S35
G01 Z-1.000000 F800.0(Penetrate)
G01 X74.885974 Y195.097424 Z-1.000000 F2500.000000
G00 Z0.100000
M05
(End cutting path id: path5979)


(Start cutting path id: path5849)
(Change tool to Default tool)

G00 Z0.100000
G00 X99.736560 Y169.977201
M03 S35
G01 Z-1.000000 F800.0(Penetrate)
G01 X82.005808 Y180.229872 Z-1.000000 F2500.000000
G00 Z0.100000
M05
(End cutting path id: path5849)


(Start cutting path id: path5847)
(Change tool to Default tool)

G00 Z0.100000
G00 X99.813425 Y169.557467
M03 S35
G01 Z-1.000000 F800.0(Penetrate)
G01 X81.603708 Y180.087119 Z-1.000000 F2500.000000
G00 Z0.100000
M05
(End cutting path id: path5847)


(Start cutting path id: path5845)
(Change tool to Default tool)

G00 Z0.100000
G00 X99.971146 Y166.429997
M03 S35
G01 Z-1.000000 F800.0(Penetrate)
G01 X78.814473 Y178.663737 Z-1.000000 F2500.000000
G00 Z0.100000
M05
(End cutting path id: path5845)


(Start cutting path id: path5843)
(Change tool to Default tool)

G00 Z0.100000
G00 X98.591482 Y161.276950
M03 S35
G01 Z-1.000000 F800.0(Penetrate)
G01 X75.036554 Y174.897439 Z-1.000000 F2500.000000
G00 Z0.100000
M05
(End cutting path id: path5843)


(Start cutting path id: path5819)
(Change tool to Default tool)

G00 Z0.100000
G00 X67.730620 Y153.812567
M03 S35
G01 Z-1.000000 F800.0(Penetrate)
G01 X67.748720 Y180.835417 Z-1.000000 F2500.000000
G00 Z0.100000
M05
(End cutting path id: path5819)


(Start cutting path id: path5817)
(Change tool to Default tool)

G00 Z0.100000
G00 X67.140124 Y153.746246
M03 S35
G01 Z-1.000000 F800.0(Penetrate)
G01 X67.158313 Y180.902529 Z-1.000000 F2500.000000
G00 Z0.100000
M05
(End cutting path id: path5817)


(Start cutting path id: path5821)
(Change tool to Default tool)

G00 Z0.100000
G00 X66.496789 Y153.703479
M03 S35
G01 Z-1.000000 F800.0(Penetrate)
G01 X66.515036 Y180.946158 Z-1.000000 F2500.000000
G00 Z0.100000
M05
(End cutting path id: path5821)


(Start cutting path id: path5827)
(Change tool to Default tool)

G00 Z0.100000
G00 X87.459950 Y153.721319
M03 S35
G01 Z-1.000000 F800.0(Penetrate)
G01 X74.041021 Y161.480750 Z-1.000000 F2500.000000
G00 Z0.100000
M05
(End cutting path id: path5827)


(Start cutting path id: path5829)
(Change tool to Default tool)

G00 Z0.100000
G00 X89.693385 Y154.089719
M03 S35
G01 Z-1.000000 F800.0(Penetrate)
G01 X73.246158 Y163.600217 Z-1.000000 F2500.000000
G00 Z0.100000
M05
(End cutting path id: path5829)


(Start cutting path id: path5831)
(Change tool to Default tool)

G00 Z0.100000
G00 X92.298921 Y155.036117
M03 S35
G01 Z-1.000000 F800.0(Penetrate)
G01 X72.766655 Y166.330533 Z-1.000000 F2500.000000
G00 Z0.100000
M05
(End cutting path id: path5831)


(Start cutting path id: path5735)
(Change tool to Default tool)

G00 Z0.100000
G00 X59.083447 Y146.878514
M03 S35
G01 Z-1.000000 F800.0(Penetrate)
G01 X38.640089 Y158.699751 Z-1.000000 F2500.000000
G00 Z0.100000
M05
(End cutting path id: path5735)


(Start cutting path id: path5733)
(Change tool to Default tool)

G00 Z0.100000
G00 X58.939859 Y144.914106
M03 S35
G01 Z-1.000000 F800.0(Penetrate)
G01 X37.009178 Y157.595384 Z-1.000000 F2500.000000
G00 Z0.100000
M05
(End cutting path id: path5733)


(Start cutting path id: path5731)
(Change tool to Default tool)

G00 Z0.100000
G00 X58.545272 Y143.094843
M03 S35
G01 Z-1.000000 F800.0(Penetrate)
G01 X35.629266 Y156.345872 Z-1.000000 F2500.000000
G00 Z0.100000
M05
(End cutting path id: path5731)


(Start cutting path id: path5729)
(Change tool to Default tool)

G00 Z0.100000
G00 X57.931372 Y141.402388
M03 S35
G01 Z-1.000000 F800.0(Penetrate)
G01 X34.468666 Y154.969551 Z-1.000000 F2500.000000
G00 Z0.100000
M05
(End cutting path id: path5729)


(Start cutting path id: path5723)
(Change tool to Default tool)

G00 Z0.100000
G00 X54.869138 Y137.030820
M03 S35
G01 Z-1.000000 F800.0(Penetrate)
G01 X32.207402 Y150.134816 Z-1.000000 F2500.000000
G00 Z0.100000
M05
(End cutting path id: path5723)


(Start cutting path id: path5725)
(Change tool to Default tool)

G00 Z0.100000
G00 X56.094952 Y138.369421
M03 S35
G01 Z-1.000000 F800.0(Penetrate)
G01 X32.756087 Y151.864967 Z-1.000000 F2500.000000
G00 Z0.100000
M05
(End cutting path id: path5725)


(Start cutting path id: path5727)
(Change tool to Default tool)

G00 Z0.100000
G00 X57.113380 Y139.827938
M03 S35
G01 Z-1.000000 F800.0(Penetrate)
G01 X33.512159 Y153.475226 Z-1.000000 F2500.000000
G00 Z0.100000
M05
(End cutting path id: path5727)


(Start cutting path id: path5563)
(Change tool to Default tool)

G00 Z0.100000
G00 X36.293892 Y116.321006
M03 S35
G01 Z-1.000000 F800.0(Penetrate)
G01 X36.307451 Y136.563989 Z-1.000000 F2500.000000
G00 Z0.100000
M05
(End cutting path id: path5563)


(Start cutting path id: path5565)
(Change tool to Default tool)

G00 Z0.100000
G00 X38.065429 Y114.965900
M03 S35
G01 Z-1.000000 F800.0(Penetrate)
G01 X38.080801 Y137.916721 Z-1.000000 F2500.000000
G00 Z0.100000
M05
(End cutting path id: path5565)


(Start cutting path id: path5567)
(Change tool to Default tool)

G00 Z0.100000
G00 X39.837229 Y114.004594
M03 S35
G01 Z-1.000000 F800.0(Penetrate)
G01 X39.853887 Y138.875675 Z-1.000000 F2500.000000
G00 Z0.100000
M05
(End cutting path id: path5567)


(Start cutting path id: path5569)
(Change tool to Default tool)

G00 Z0.100000
G00 X41.609234 Y113.350125
M03 S35
G01 Z-1.000000 F800.0(Penetrate)
G01 X41.626768 Y139.527747 Z-1.000000 F2500.000000
G00 Z0.100000
M05
(End cutting path id: path5569)


(Start cutting path id: path5587)
(Change tool to Default tool)

G00 Z0.100000
G00 X57.565826 Y120.211589
M03 S35
G01 Z-1.000000 F800.0(Penetrate)
G01 X57.574153 Y132.644891 Z-1.000000 F2500.000000
G00 Z0.100000
M05
(End cutting path id: path5587)


(Start cutting path id: path5585)
(Change tool to Default tool)

G00 Z0.100000
G00 X55.791611 Y117.568268
M03 S35
G01 Z-1.000000 F800.0(Penetrate)
G01 X55.803482 Y135.290609 Z-1.000000 F2500.000000
G00 Z0.100000
M05
(End cutting path id: path5585)


(Start cutting path id: path5583)
(Change tool to Default tool)

G00 Z0.100000
G00 X54.018011 Y115.842391
M03 S35
G01 Z-1.000000 F800.0(Penetrate)
G01 X54.032195 Y137.018860 Z-1.000000 F2500.000000
G00 Z0.100000
M05
(End cutting path id: path5583)


(Start cutting path id: path5581)
(Change tool to Default tool)

G00 Z0.100000
G00 X52.244751 Y114.624274
M03 S35
G01 Z-1.000000 F800.0(Penetrate)
G01 X52.260569 Y138.239352 Z-1.000000 F2500.000000
G00 Z0.100000
M05
(End cutting path id: path5581)


(Start cutting path id: path5579)
(Change tool to Default tool)

G00 Z0.100000
G00 X50.471733 Y113.766417
M03 S35
G01 Z-1.000000 F800.0(Penetrate)
G01 X50.488701 Y139.099583 Z-1.000000 F2500.000000
G00 Z0.100000
M05
(End cutting path id: path5579)


(Start cutting path id: path5577)
(Change tool to Default tool)

G00 Z0.100000
G00 X48.698908 Y113.198491
M03 S35
G01 Z-1.000000 F800.0(Penetrate)
G01 X48.716639 Y139.669884 Z-1.000000 F2500.000000
G00 Z0.100000
M05
(End cutting path id: path5577)


(Start cutting path id: path5575)
(Change tool to Default tool)

G00 Z0.100000
G00 X46.926254 Y112.883933
M03 S35
G01 Z-1.000000 F800.0(Penetrate)
G01 X46.944407 Y139.986816 Z-1.000000 F2500.000000
G00 Z0.100000
M05
(End cutting path id: path5575)


(Start cutting path id: path5573)
(Change tool to Default tool)

G00 Z0.100000
G00 X45.153757 Y112.805110
M03 S35
G01 Z-1.000000 F800.0(Penetrate)
G01 X45.172018 Y140.068013 Z-1.000000 F2500.000000
G00 Z0.100000
M05
(End cutting path id: path5573)


(Start cutting path id: path5571)
(Change tool to Default tool)

G00 Z0.100000
G00 X43.381415 Y112.957819
M03 S35
G01 Z-1.000000 F800.0(Penetrate)
G01 X43.399473 Y139.917679 Z-1.000000 F2500.000000
G00 Z0.100000
M05
(End cutting path id: path5571)


(Start cutting path id: path5483)
(Change tool to Default tool)

G00 Z0.100000
G00 X56.877812 Y113.377824
M03 S35
G01 Z-1.000000 F800.0(Penetrate)
G01 X46.114429 Y119.601698 Z-1.000000 F2500.000000
G00 Z0.100000
M05
(End cutting path id: path5483)


(Start cutting path id: path5481)
(Change tool to Default tool)

G00 Z0.100000
G00 X58.279901 Y110.519659
M03 S35
G01 Z-1.000000 F800.0(Penetrate)
G01 X42.937842 Y119.391110 Z-1.000000 F2500.000000
G00 Z0.100000
M05
(End cutting path id: path5481)


(Start cutting path id: path5589)
(Change tool to Default tool)

G00 Z0.100000
G00 X60.522662 Y113.888073
M03 S35
G01 Z-1.000000 F800.0(Penetrate)
G01 X52.351646 Y128.062599 Z-1.000000 F2500.000000
G00 Z0.100000
M05
(End cutting path id: path5589)


(Start cutting path id: path5591)
(Change tool to Default tool)

G00 Z0.100000
G00 X63.027592 Y113.091681
M03 S35
G01 Z-1.000000 F800.0(Penetrate)
G01 X52.917843 Y130.629378 Z-1.000000 F2500.000000
G00 Z0.100000
M05
(End cutting path id: path5591)


(Start cutting path id: path5593)
(Change tool to Default tool)

G00 Z0.100000
G00 X65.239341 Y112.803882
M03 S35
G01 Z-1.000000 F800.0(Penetrate)
G01 X53.777244 Y132.687564 Z-1.000000 F2500.000000
G00 Z0.100000
M05
(End cutting path id: path5593)


(Start cutting path id: path5595)
(Change tool to Default tool)

G00 Z0.100000
G00 X67.254418 Y112.857251
M03 S35
G01 Z-1.000000 F800.0(Penetrate)
G01 X54.833316 Y134.404582 Z-1.000000 F2500.000000
G00 Z0.100000
M05
(End cutting path id: path5595)


(Start cutting path id: path5597)
(Change tool to Default tool)

G00 Z0.100000
G00 X69.116266 Y113.176475
M03 S35
G01 Z-1.000000 F800.0(Penetrate)
G01 X56.042640 Y135.855745 Z-1.000000 F2500.000000
G00 Z0.100000
M05
(End cutting path id: path5597)


(Start cutting path id: path5615)
(Change tool to Default tool)

G00 Z0.100000
G00 X79.504340 Y127.096996
M03 S35
G01 Z-1.000000 F800.0(Penetrate)
G01 X73.294890 Y137.868706 Z-1.000000 F2500.000000
G00 Z0.100000
M05
(End cutting path id: path5615)


(Start cutting path id: path5743)
(Change tool to Default tool)

G00 Z0.100000
G00 X86.367190 Y133.226077
M03 S35
G01 Z-1.000000 F800.0(Penetrate)
G01 X72.717665 Y146.893923 Z-1.000000 F2500.000000
G00 Z0.100000
M05
(End cutting path id: path5743)


(Start cutting path id: path5745)
(Change tool to Default tool)

G00 Z0.100000
G00 X88.102420 Y133.338920
M03 S35
G01 Z-1.000000 F800.0(Penetrate)
G01 X72.832831 Y148.628978 Z-1.000000 F2500.000000
G00 Z0.100000
M05
(End cutting path id: path5745)


(Start cutting path id: path5747)
(Change tool to Default tool)

G00 Z0.100000
G00 X89.336255 Y133.556717
M03 S35
G01 Z-1.000000 F800.0(Penetrate)
G01 X73.052282 Y149.862542 Z-1.000000 F2500.000000
G00 Z0.100000
M05
(End cutting path id: path5747)


(Start cutting path id: path5833)
(Change tool to Default tool)

G00 Z0.100000
G00 X94.877870 Y156.661130
M03 S35
G01 Z-1.000000 F800.0(Penetrate)
G01 X72.888585 Y169.376305 Z-1.000000 F2500.000000
G00 Z0.100000
M05
(End cutting path id: path5833)


(Start cutting path id: path5835)
(Change tool to Default tool)

G00 Z0.100000
G00 X95.031452 Y156.785734
M03 S35
G01 Z-1.000000 F800.0(Penetrate)
G01 X72.919938 Y169.571571 Z-1.000000 F2500.000000
G00 Z0.100000
M05
(End cutting path id: path5835)


(Start cutting path id: path5841)
(Change tool to Default tool)

G00 Z0.100000
G00 X97.266569 Y159.122636
M03 S35
G01 Z-1.000000 F800.0(Penetrate)
G01 X73.830371 Y172.674466 Z-1.000000 F2500.000000
G00 Z0.100000
M05
(End cutting path id: path5841)


(Start cutting path id: path5839)
(Change tool to Default tool)

G00 Z0.100000
G00 X98.049040 Y160.284017
M03 S35
G01 Z-1.000000 F800.0(Penetrate)
G01 X74.446592 Y173.931988 Z-1.000000 F2500.000000
G00 Z0.100000
M05
(End cutting path id: path5839)


(Start cutting path id: path5871)
(Change tool to Default tool)

G00 Z0.100000
G00 X110.386877 Y180.456300
M03 S35
G01 Z-1.000000 F800.0(Penetrate)
G01 X93.653539 Y163.745340 Z-1.000000 F2500.000000
G00 Z0.100000
M05
(End cutting path id: path5871)


(Start cutting path id: path5869)
(Change tool to Default tool)

G00 Z0.100000
G00 X113.522877 Y179.168746
M03 S35
G01 Z-1.000000 F800.0(Penetrate)
G01 X94.936868 Y160.607619 Z-1.000000 F2500.000000
G00 Z0.100000
M05
(End cutting path id: path5869)


(Start cutting path id: path5765)
(Change tool to Default tool)

G00 Z0.100000
G00 X95.954568 Y138.588184
M03 S35
G01 Z-1.000000 F800.0(Penetrate)
G01 X95.965641 Y155.119443 Z-1.000000 F2500.000000
G00 Z0.100000
M05
(End cutting path id: path5765)


(Start cutting path id: path5761)
(Change tool to Default tool)

G00 Z0.100000
G00 X97.000306 Y138.345545
M03 S35
G01 Z-1.000000 F800.0(Penetrate)
G01 X77.851372 Y157.520149 Z-1.000000 F2500.000000
G00 Z0.100000
M05
(End cutting path id: path5761)


(Start cutting path id: path5751)
(Change tool to Default tool)

G00 Z0.100000
G00 X90.715453 Y133.943232
M03 S35
G01 Z-1.000000 F800.0(Penetrate)
G01 X73.440643 Y151.241198 Z-1.000000 F2500.000000
G00 Z0.100000
M05
(End cutting path id: path5751)


(Start cutting path id: path5749)
(Change tool to Default tool)

G00 Z0.100000
G00 X91.233632 Y134.130014
M03 S35
G01 Z-1.000000 F800.0(Penetrate)
G01 X73.628142 Y151.759149 Z-1.000000 F2500.000000
G00 Z0.100000
M05
(End cutting path id: path5749)


(Start cutting path id: path5753)
(Change tool to Default tool)

G00 Z0.100000
G00 X92.115491 Y134.504227
M03 S35
G01 Z-1.000000 F800.0(Penetrate)
G01 X74.003536 Y152.640484 Z-1.000000 F2500.000000
G00 Z0.100000
M05
(End cutting path id: path5753)


(Start cutting path id: path5755)
(Change tool to Default tool)

G00 Z0.100000
G00 X93.823901 Y135.455930
M03 S35
G01 Z-1.000000 F800.0(Penetrate)
G01 X74.957505 Y154.347617 Z-1.000000 F2500.000000
G00 Z0.100000
M05
(End cutting path id: path5755)


(Start cutting path id: path5757)
(Change tool to Default tool)

G00 Z0.100000
G00 X95.937344 Y137.164446
M03 S35
G01 Z-1.000000 F800.0(Penetrate)
G01 X76.668873 Y156.458770 Z-1.000000 F2500.000000
G00 Z0.100000
M05
(End cutting path id: path5757)


(Start cutting path id: path5759)
(Change tool to Default tool)

G00 Z0.100000
G00 X96.612603 Y137.882106
M03 S35
G01 Z-1.000000 F800.0(Penetrate)
G01 X77.387414 Y157.133067 Z-1.000000 F2500.000000
G00 Z0.100000
M05
(End cutting path id: path5759)


(Start cutting path id: path5763)
(Change tool to Default tool)

G00 Z0.100000
G00 X98.088985 Y136.360587
M03 S35
G01 Z-1.000000 F800.0(Penetrate)
G01 X98.103039 Y157.344178 Z-1.000000 F2500.000000
G00 Z0.100000
M05
(End cutting path id: path5763)


(Start cutting path id: path5767)
(Change tool to Default tool)

G00 Z0.100000
G00 X98.789848 Y135.815728
M03 S35
G01 Z-1.000000 F800.0(Penetrate)
G01 X98.804633 Y157.888099 Z-1.000000 F2500.000000
G00 Z0.100000
M05
(End cutting path id: path5767)


(Start cutting path id: path5851)
(Change tool to Default tool)

G00 Z0.100000
G00 X120.256972 Y165.006181
M03 S35
G01 Z-1.000000 F800.0(Penetrate)
G01 X109.090423 Y153.854557 Z-1.000000 F2500.000000
G00 Z0.100000
M05
(End cutting path id: path5851)


(Start cutting path id: path5855)
(Change tool to Default tool)

G00 Z0.100000
G00 X120.446237 Y166.939745
M03 S35
G01 Z-1.000000 F800.0(Penetrate)
G01 X107.156584 Y153.667883 Z-1.000000 F2500.000000
G00 Z0.100000
M05
(End cutting path id: path5855)


(Start cutting path id: path5853)
(Change tool to Default tool)

G00 Z0.100000
G00 X120.450872 Y167.345381
M03 S35
G01 Z-1.000000 F800.0(Penetrate)
G01 X106.750942 Y153.663791 Z-1.000000 F2500.000000
G00 Z0.100000
M05
(End cutting path id: path5853)


(Start cutting path id: path5771)
(Change tool to Default tool)

G00 Z0.100000
G00 X100.329522 Y134.847215
M03 S35
G01 Z-1.000000 F800.0(Penetrate)
G01 X100.345602 Y158.854548 Z-1.000000 F2500.000000
G00 Z0.100000
M05
(End cutting path id: path5771)


(Start cutting path id: path5857)
(Change tool to Default tool)

G00 Z0.100000
G00 X120.377412 Y168.711894
M03 S35
G01 Z-1.000000 F800.0(Penetrate)
G01 X105.384506 Y153.739081 Z-1.000000 F2500.000000
G00 Z0.100000
M05
(End cutting path id: path5857)


(Start cutting path id: path5769)
(Change tool to Default tool)

G00 Z0.100000
G00 X102.587150 Y133.880561
M03 S35
G01 Z-1.000000 F800.0(Penetrate)
G01 X102.604523 Y159.818176 Z-1.000000 F2500.000000
G00 Z0.100000
M05
(End cutting path id: path5769)


(Start cutting path id: path5861)
(Change tool to Default tool)

G00 Z0.100000
G00 X119.155592 Y173.098193
M03 S35
G01 Z-1.000000 F800.0(Penetrate)
G01 X100.999870 Y154.966777 Z-1.000000 F2500.000000
G00 Z0.100000
M05
(End cutting path id: path5861)


(Start cutting path id: path5775)
(Change tool to Default tool)

G00 Z0.100000
G00 X103.910494 Y133.522732
M03 S35
G01 Z-1.000000 F800.0(Penetrate)
G01 X103.928345 Y160.174233 Z-1.000000 F2500.000000
G00 Z0.100000
M05
(End cutting path id: path5775)


(Start cutting path id: path5859)
(Change tool to Default tool)

G00 Z0.100000
G00 X118.576874 Y174.196405
M03 S35
G01 Z-1.000000 F800.0(Penetrate)
G01 X99.902434 Y155.546965 Z-1.000000 F2500.000000
G00 Z0.100000
M05
(End cutting path id: path5859)


(Start cutting path id: path5773)
(Change tool to Default tool)

G00 Z0.100000
G00 X106.708021 Y133.212703
M03 S35
G01 Z-1.000000 F800.0(Penetrate)
G01 X106.726285 Y160.480514 Z-1.000000 F2500.000000
G00 Z0.100000
M05
(End cutting path id: path5773)


(Start cutting path id: path5863)
(Change tool to Default tool)

G00 Z0.100000
G00 X118.303490 Y174.642631
M03 S35
G01 Z-1.000000 F800.0(Penetrate)
G01 X99.456575 Y155.820947 Z-1.000000 F2500.000000
G00 Z0.100000
M05
(End cutting path id: path5863)


(Start cutting path id: path5777)
(Change tool to Default tool)

G00 Z0.100000
G00 X109.823158 Y133.551062
M03 S35
G01 Z-1.000000 F800.0(Penetrate)
G01 X109.840967 Y160.137982 Z-1.000000 F2500.000000
G00 Z0.100000
M05
(End cutting path id: path5777)


(Start cutting path id: path5867)
(Change tool to Default tool)

G00 Z0.100000
G00 X116.519476 Y176.876355
M03 S35
G01 Z-1.000000 F800.0(Penetrate)
G01 X97.225243 Y157.607951 Z-1.000000 F2500.000000
G00 Z0.100000
M05
(End cutting path id: path5867)


(Start cutting path id: path5779)
(Change tool to Default tool)

G00 Z0.100000
G00 X111.382804 Y134.004536
M03 S35
G01 Z-1.000000 F800.0(Penetrate)
G01 X111.400003 Y159.682419 Z-1.000000 F2500.000000
G00 Z0.100000
M05
(End cutting path id: path5779)


(Start cutting path id: path5875)
(Change tool to Default tool)

G00 Z0.100000
G00 X130.935698 Y154.152512
M03 S35
G01 Z-1.000000 F800.0(Penetrate)
G01 X114.057366 Y163.912281 Z-1.000000 F2500.000000
G00 Z0.100000
M05
(End cutting path id: path5875)


(Start cutting path id: path5873)
(Change tool to Default tool)

G00 Z0.100000
G00 X132.063015 Y154.520925
M03 S35
G01 Z-1.000000 F800.0(Penetrate)
G01 X113.814319 Y165.073099 Z-1.000000 F2500.000000
G00 Z0.100000
M05
(End cutting path id: path5873)


(Start cutting path id: path5877)
(Change tool to Default tool)

G00 Z0.100000
G00 X132.844833 Y154.842645
M03 S35
G01 Z-1.000000 F800.0(Penetrate)
G01 X113.703149 Y165.911199 Z-1.000000 F2500.000000
G00 Z0.100000
M05
(End cutting path id: path5877)


(Start cutting path id: path5881)
(Change tool to Default tool)

G00 Z0.100000
G00 X134.997436 Y156.052578
M03 S35
G01 Z-1.000000 F800.0(Penetrate)
G01 X113.677989 Y168.380412 Z-1.000000 F2500.000000
G00 Z0.100000
M05
(End cutting path id: path5881)


(Start cutting path id: path5879)
(Change tool to Default tool)

G00 Z0.100000
G00 X136.344156 Y157.109893
M03 S35
G01 Z-1.000000 F800.0(Penetrate)
G01 X113.922562 Y170.075046 Z-1.000000 F2500.000000
G00 Z0.100000
M05
(End cutting path id: path5879)


(Start cutting path id: path5883)
(Change tool to Default tool)

G00 Z0.100000
G00 X137.720433 Y158.529790
M03 S35
G01 Z-1.000000 F800.0(Penetrate)
G01 X114.466635 Y171.976150 Z-1.000000 F2500.000000
G00 Z0.100000
M05
(End cutting path id: path5883)


(Start cutting path id: path5893)
(Change tool to Default tool)

G00 Z0.100000
G00 X140.854852 Y168.419541
M03 S35
G01 Z-1.000000 F800.0(Penetrate)
G01 X121.474458 Y179.626119 Z-1.000000 F2500.000000
G00 Z0.100000
M05
(End cutting path id: path5893)


(Start cutting path id: path5891)
(Change tool to Default tool)

G00 Z0.100000
G00 X140.376816 Y163.535642
M03 S35
G01 Z-1.000000 F800.0(Penetrate)
G01 X117.480096 Y176.775546 Z-1.000000 F2500.000000
G00 Z0.100000
M05
(End cutting path id: path5891)


(Start cutting path id: path5889)
(Change tool to Default tool)

G00 Z0.100000
G00 X139.793153 Y161.897817
M03 S35
G01 Z-1.000000 F800.0(Penetrate)
G01 X116.351731 Y175.452672 Z-1.000000 F2500.000000
G00 Z0.100000
M05
(End cutting path id: path5889)


(Start cutting path id: path5885)
(Change tool to Default tool)

G00 Z0.100000
G00 X139.753416 Y161.806336
M03 S35
G01 Z-1.000000 F800.0(Penetrate)
G01 X116.292278 Y175.372589 Z-1.000000 F2500.000000
G00 Z0.100000
M05
(End cutting path id: path5885)


(Start cutting path id: path5989)
(Change tool to Default tool)

G00 Z0.100000
G00 X149.354787 Y174.184311
M03 S35
G01 Z-1.000000 F800.0(Penetrate)
G01 X135.191220 Y182.374309 Z-1.000000 F2500.000000
G00 Z0.100000
M05
(End cutting path id: path5989)


(Start cutting path id: path5991)
(Change tool to Default tool)

G00 Z0.100000
G00 X151.922322 Y174.747092
M03 S35
G01 Z-1.000000 F800.0(Penetrate)
G01 X134.398184 Y184.880303 Z-1.000000 F2500.000000
G00 Z0.100000
M05
(End cutting path id: path5991)


(Start cutting path id: path5993)
(Change tool to Default tool)

G00 Z0.100000
G00 X153.981658 Y175.603712
M03 S35
G01 Z-1.000000 F800.0(Penetrate)
G01 X134.113348 Y187.092436 Z-1.000000 F2500.000000
G00 Z0.100000
M05
(End cutting path id: path5993)


(Start cutting path id: path5995)
(Change tool to Default tool)

G00 Z0.100000
G00 X155.700089 Y176.657483
M03 S35
G01 Z-1.000000 F800.0(Penetrate)
G01 X134.169416 Y189.107440 Z-1.000000 F2500.000000
G00 Z0.100000
M05
(End cutting path id: path5995)


(Start cutting path id: path5997)
(Change tool to Default tool)

G00 Z0.100000
G00 X157.152870 Y177.864863
M03 S35
G01 Z-1.000000 F800.0(Penetrate)
G01 X134.491135 Y190.968858 Z-1.000000 F2500.000000
G00 Z0.100000
M05
(End cutting path id: path5997)


(Start cutting path id: path6013)
(Change tool to Default tool)

G00 Z0.100000
G00 X160.591030 Y192.256213
M03 S35
G01 Z-1.000000 F800.0(Penetrate)
G01 X145.248971 Y201.127687 Z-1.000000 F2500.000000
G00 Z0.100000
M05
(End cutting path id: path6013)


(Start cutting path id: path6011)
(Change tool to Default tool)

G00 Z0.100000
G00 X161.198894 Y189.857303
M03 S35
G01 Z-1.000000 F800.0(Penetrate)
G01 X142.866607 Y200.457822 Z-1.000000 F2500.000000
G00 Z0.100000
M05
(End cutting path id: path6011)


(Start cutting path id: path6009)
(Change tool to Default tool)

G00 Z0.100000
G00 X161.367180 Y187.712556
M03 S35
G01 Z-1.000000 F800.0(Penetrate)
G01 X140.923821 Y199.533794 Z-1.000000 F2500.000000
G00 Z0.100000
M05
(End cutting path id: path6009)


(Start cutting path id: path6007)
(Change tool to Default tool)

G00 Z0.100000
G00 X161.223591 Y185.748148
M03 S35
G01 Z-1.000000 F800.0(Penetrate)
G01 X139.292911 Y198.429426 Z-1.000000 F2500.000000
G00 Z0.100000
M05
(End cutting path id: path6007)


(Start cutting path id: path6005)
(Change tool to Default tool)

G00 Z0.100000
G00 X160.829004 Y183.928885
M03 S35
G01 Z-1.000000 F800.0(Penetrate)
G01 X137.912976 Y197.179914 Z-1.000000 F2500.000000
G00 Z0.100000
M05
(End cutting path id: path6005)


(Start cutting path id: path6003)
(Change tool to Default tool)

G00 Z0.100000
G00 X160.215105 Y182.236431
M03 S35
G01 Z-1.000000 F800.0(Penetrate)
G01 X136.752398 Y195.803593 Z-1.000000 F2500.000000
G00 Z0.100000
M05
(End cutting path id: path6003)


(Start cutting path id: path6001)
(Change tool to Default tool)

G00 Z0.100000
G00 X159.397112 Y180.661980
M03 S35
G01 Z-1.000000 F800.0(Penetrate)
G01 X135.795891 Y194.309268 Z-1.000000 F2500.000000
G00 Z0.100000
M05
(End cutting path id: path6001)


(Start cutting path id: path5999)
(Change tool to Default tool)

G00 Z0.100000
G00 X158.378707 Y179.203464
M03 S35
G01 Z-1.000000 F800.0(Penetrate)
G01 X135.039797 Y192.699010 Z-1.000000 F2500.000000
G00 Z0.100000
M05
(End cutting path id: path5999)


(Start cutting path id: path5799)
(Change tool to Default tool)

G00 Z0.100000
G00 X159.939231 Y140.800103
M03 S35
G01 Z-1.000000 F800.0(Penetrate)
G01 X141.702925 Y159.060832 Z-1.000000 F2500.000000
G00 Z0.100000
M05
(End cutting path id: path5799)


(Start cutting path id: path5783)
(Change tool to Default tool)

G00 Z0.100000
G00 X143.638719 Y133.805641
M03 S35
G01 Z-1.000000 F800.0(Penetrate)
G01 X134.686655 Y142.769705 Z-1.000000 F2500.000000
G00 Z0.100000
M05
(End cutting path id: path5783)


(Start cutting path id: path5785)
(Change tool to Default tool)

G00 Z0.100000
G00 X148.192399 Y133.193665
M03 S35
G01 Z-1.000000 F800.0(Penetrate)
G01 X134.080780 Y147.324201 Z-1.000000 F2500.000000
G00 Z0.100000
M05
(End cutting path id: path5785)


(Start cutting path id: path5789)
(Change tool to Default tool)

G00 Z0.100000
G00 X148.834413 Y133.231797
M03 S35
G01 Z-1.000000 F800.0(Penetrate)
G01 X134.119772 Y147.966163 Z-1.000000 F2500.000000
G00 Z0.100000
M05
(End cutting path id: path5789)


(Start cutting path id: path5787)
(Change tool to Default tool)

G00 Z0.100000
G00 X149.204060 Y133.267566
M03 S35
G01 Z-1.000000 F800.0(Penetrate)
G01 X134.156037 Y148.335761 Z-1.000000 F2500.000000
G00 Z0.100000
M05
(End cutting path id: path5787)


(Start cutting path id: path5793)
(Change tool to Default tool)

G00 Z0.100000
G00 X152.427759 Y134.028831
M03 S35
G01 Z-1.000000 F800.0(Penetrate)
G01 X134.921619 Y151.558438 Z-1.000000 F2500.000000
G00 Z0.100000
M05
(End cutting path id: path5793)


(Start cutting path id: path5795)
(Change tool to Default tool)

G00 Z0.100000
G00 X154.266140 Y134.867170
M03 S35
G01 Z-1.000000 F800.0(Penetrate)
G01 X135.762420 Y153.395695 Z-1.000000 F2500.000000
G00 Z0.100000
M05
(End cutting path id: path5795)


(Start cutting path id: path5791)
(Change tool to Default tool)

G00 Z0.100000
G00 X155.030481 Y135.319722
M03 S35
G01 Z-1.000000 F800.0(Penetrate)
G01 X136.215995 Y154.159428 Z-1.000000 F2500.000000
G00 Z0.100000
M05
(End cutting path id: path5791)


(Start cutting path id: path5797)
(Change tool to Default tool)

G00 Z0.100000
G00 X156.254782 Y136.198284
M03 S35
G01 Z-1.000000 F800.0(Penetrate)
G01 X137.096197 Y155.382552 Z-1.000000 F2500.000000
G00 Z0.100000
M05
(End cutting path id: path5797)


(Start cutting path id: path5801)
(Change tool to Default tool)

G00 Z0.100000
G00 X159.839773 Y140.601996
M03 S35
G01 Z-1.000000 F800.0(Penetrate)
G01 X141.504708 Y158.961640 Z-1.000000 F2500.000000
G00 Z0.100000
M05
(End cutting path id: path5801)


(Start cutting path id: path5781)
(Change tool to Default tool)

G00 Z0.100000
G00 X111.525179 Y134.056227
M03 S35
G01 Z-1.000000 F800.0(Penetrate)
G01 X111.542309 Y159.630537 Z-1.000000 F2500.000000
G00 Z0.100000
M05
(End cutting path id: path5781)


(Start cutting path id: path5643)
(Change tool to Default tool)

G00 Z0.100000
G00 X115.121506 Y120.135180
M03 S35
G01 Z-1.000000 F800.0(Penetrate)
G01 X115.129885 Y132.644220 Z-1.000000 F2500.000000
G00 Z0.100000
M05
(End cutting path id: path5643)


(Start cutting path id: path5645)
(Change tool to Default tool)

G00 Z0.100000
G00 X116.070597 Y118.563591
M03 S35
G01 Z-1.000000 F800.0(Penetrate)
G01 X116.081080 Y134.214536 Z-1.000000 F2500.000000
G00 Z0.100000
M05
(End cutting path id: path5645)


(Start cutting path id: path5639)
(Change tool to Default tool)

G00 Z0.100000
G00 X116.660585 Y116.990492
M03 S35
G01 Z-1.000000 F800.0(Penetrate)
G01 X116.673175 Y135.786843 Z-1.000000 F2500.000000
G00 Z0.100000
M05
(End cutting path id: path5639)


(Start cutting path id: path5641)
(Change tool to Default tool)

G00 Z0.100000
G00 X115.856579 Y116.213110
M03 S35
G01 Z-1.000000 F800.0(Penetrate)
G01 X115.870211 Y136.565302 Z-1.000000 F2500.000000
G00 Z0.100000
M05
(End cutting path id: path5641)


(Start cutting path id: path5649)
(Change tool to Default tool)

G00 Z0.100000
G00 X119.415752 Y115.216362
M03 S35
G01 Z-1.000000 F800.0(Penetrate)
G01 X119.430716 Y137.557258 Z-1.000000 F2500.000000
G00 Z0.100000
M05
(End cutting path id: path5649)


(Start cutting path id: path5647)
(Change tool to Default tool)

G00 Z0.100000
G00 X120.531011 Y114.512637
M03 S35
G01 Z-1.000000 F800.0(Penetrate)
G01 X120.546917 Y138.259512 Z-1.000000 F2500.000000
G00 Z0.100000
M05
(End cutting path id: path5647)


(Start cutting path id: path5653)
(Change tool to Default tool)

G00 Z0.100000
G00 X121.447865 Y114.039189
M03 S35
G01 Z-1.000000 F800.0(Penetrate)
G01 X121.464405 Y138.731731 Z-1.000000 F2500.000000
G00 Z0.100000
M05
(End cutting path id: path5653)


(Start cutting path id: path5535)
(Change tool to Default tool)

G00 Z0.100000
G00 X133.963851 Y117.783797
M03 S35
G01 Z-1.000000 F800.0(Penetrate)
G01 X120.505917 Y117.792811 Z-1.000000 F2500.000000
G00 Z0.100000
M05
(End cutting path id: path5535)


(Start cutting path id: path5651)
(Change tool to Default tool)

G00 Z0.100000
G00 X123.099054 Y113.391664
M03 S35
G01 Z-1.000000 F800.0(Penetrate)
G01 X123.116459 Y139.377044 Z-1.000000 F2500.000000
G00 Z0.100000
M05
(End cutting path id: path5651)


(Start cutting path id: path5655)
(Change tool to Default tool)

G00 Z0.100000
G00 X123.472123 Y113.278568
M03 S35
G01 Z-1.000000 F800.0(Penetrate)
G01 X123.489679 Y139.489639 Z-1.000000 F2500.000000
G00 Z0.100000
M05
(End cutting path id: path5655)


(Start cutting path id: path5659)
(Change tool to Default tool)

G00 Z0.100000
G00 X129.274487 Y112.899946
M03 S35
G01 Z-1.000000 F800.0(Penetrate)
G01 X129.292546 Y139.860488 Z-1.000000 F2500.000000
G00 Z0.100000
M05
(End cutting path id: path5659)


(Start cutting path id: path5657)
(Change tool to Default tool)

G00 Z0.100000
G00 X129.797736 Y112.989354
M03 S35
G01 Z-1.000000 F800.0(Penetrate)
G01 X129.815675 Y139.770379 Z-1.000000 F2500.000000
G00 Z0.100000
M05
(End cutting path id: path5657)


(Start cutting path id: path5533)
(Change tool to Default tool)

G00 Z0.100000
G00 X139.106865 Y112.620495
M03 S35
G01 Z-1.000000 F800.0(Penetrate)
G01 X115.355990 Y112.636403 Z-1.000000 F2500.000000
G00 Z0.100000
M05
(End cutting path id: path5533)


(Start cutting path id: path5637)
(Change tool to Default tool)

G00 Z0.100000
G00 X112.525624 Y114.026532
M03 S35
G01 Z-1.000000 F800.0(Penetrate)
G01 X112.542188 Y138.756363 Z-1.000000 F2500.000000
G00 Z0.100000
M05
(End cutting path id: path5637)


(Start cutting path id: path5635)
(Change tool to Default tool)

G00 Z0.100000
G00 X112.307365 Y113.927626
M03 S35
G01 Z-1.000000 F800.0(Penetrate)
G01 X112.324062 Y138.855539 Z-1.000000 F2500.000000
G00 Z0.100000
M05
(End cutting path id: path5635)


(Start cutting path id: path5619)
(Change tool to Default tool)

G00 Z0.100000
G00 X95.159918 Y119.278644
M03 S35
G01 Z-1.000000 F800.0(Penetrate)
G01 X95.169462 Y133.527496 Z-1.000000 F2500.000000
G00 Z0.100000
M05
(End cutting path id: path5619)


(Start cutting path id: path5505)
(Change tool to Default tool)

G00 Z0.100000
G00 X89.862003 Y119.124945
M03 S35
G01 Z-1.000000 F800.0(Penetrate)
G01 X73.152450 Y102.437761 Z-1.000000 F2500.000000
G00 Z0.100000
M05
(End cutting path id: path5505)


(Start cutting path id: path5333)
(Change tool to Default tool)

G00 Z0.100000
G00 X77.315381 Y92.912858
M03 S35
G01 Z-1.000000 F800.0(Penetrate)
G01 X66.551998 Y99.136733 Z-1.000000 F2500.000000
G00 Z0.100000
M05
(End cutting path id: path5333)


(Start cutting path id: path5473)
(Change tool to Default tool)

G00 Z0.100000
G00 X58.517875 Y102.192308
M03 S35
G01 Z-1.000000 F800.0(Penetrate)
G01 X35.601870 Y115.443360 Z-1.000000 F2500.000000
G00 Z0.100000
M05
(End cutting path id: path5473)


(Start cutting path id: path5479)
(Change tool to Default tool)

G00 Z0.100000
G00 X58.887764 Y108.120727
M03 S35
G01 Z-1.000000 F800.0(Penetrate)
G01 X40.555478 Y118.721245 Z-1.000000 F2500.000000
G00 Z0.100000
M05
(End cutting path id: path5479)


(Start cutting path id: path5477)
(Change tool to Default tool)

G00 Z0.100000
G00 X59.056051 Y105.975979
M03 S35
G01 Z-1.000000 F800.0(Penetrate)
G01 X38.612692 Y117.797217 Z-1.000000 F2500.000000
G00 Z0.100000
M05
(End cutting path id: path5477)


(Start cutting path id: path5475)
(Change tool to Default tool)

G00 Z0.100000
G00 X58.912462 Y104.011571
M03 S35
G01 Z-1.000000 F800.0(Penetrate)
G01 X36.981781 Y116.692850 Z-1.000000 F2500.000000
G00 Z0.100000
M05
(End cutting path id: path5475)


(Start cutting path id: path5471)
(Change tool to Default tool)

G00 Z0.100000
G00 X57.903976 Y100.499854
M03 S35
G01 Z-1.000000 F800.0(Penetrate)
G01 X34.441269 Y114.067017 Z-1.000000 F2500.000000
G00 Z0.100000
M05
(End cutting path id: path5471)


(Start cutting path id: path5461)
(Change tool to Default tool)

G00 Z0.100000
G00 X51.670529 Y93.867135
M03 S35
G01 Z-1.000000 F800.0(Penetrate)
G01 X31.802219 Y105.355859 Z-1.000000 F2500.000000
G00 Z0.100000
M05
(End cutting path id: path5461)


(Start cutting path id: path5463)
(Change tool to Default tool)

G00 Z0.100000
G00 X53.388960 Y94.920907
M03 S35
G01 Z-1.000000 F800.0(Penetrate)
G01 X31.858287 Y107.370863 Z-1.000000 F2500.000000
G00 Z0.100000
M05
(End cutting path id: path5463)


(Start cutting path id: path5465)
(Change tool to Default tool)

G00 Z0.100000
G00 X54.841741 Y96.128286
M03 S35
G01 Z-1.000000 F800.0(Penetrate)
G01 X32.180006 Y109.232282 Z-1.000000 F2500.000000
G00 Z0.100000
M05
(End cutting path id: path5465)


(Start cutting path id: path5467)
(Change tool to Default tool)

G00 Z0.100000
G00 X56.067555 Y97.466887
M03 S35
G01 Z-1.000000 F800.0(Penetrate)
G01 X32.728691 Y110.962456 Z-1.000000 F2500.000000
G00 Z0.100000
M05
(End cutting path id: path5467)


(Start cutting path id: path5469)
(Change tool to Default tool)

G00 Z0.100000
G00 X57.085983 Y98.925426
M03 S35
G01 Z-1.000000 F800.0(Penetrate)
G01 X33.484762 Y112.572692 Z-1.000000 F2500.000000
G00 Z0.100000
M05
(End cutting path id: path5469)


(Start cutting path id: path5305)
(Change tool to Default tool)

G00 Z0.100000
G00 X59.025677 Y86.208160
M03 S35
G01 Z-1.000000 F800.0(Penetrate)
G01 X52.816226 Y96.979870 Z-1.000000 F2500.000000
G00 Z0.100000
M05
(End cutting path id: path5305)


(Start cutting path id: path5303)
(Change tool to Default tool)

G00 Z0.100000
G00 X58.810810 Y83.031857
M03 S35
G01 Z-1.000000 F800.0(Penetrate)
G01 X49.959943 Y98.385786 Z-1.000000 F2500.000000
G00 Z0.100000
M05
(End cutting path id: path5303)


(Start cutting path id: path5301)
(Change tool to Default tool)

G00 Z0.100000
G00 X58.137777 Y80.650393
M03 S35
G01 Z-1.000000 F800.0(Penetrate)
G01 X47.561826 Y98.996863 Z-1.000000 F2500.000000
G00 Z0.100000
M05
(End cutting path id: path5301)


(Start cutting path id: path5299)
(Change tool to Default tool)

G00 Z0.100000
G00 X57.211147 Y78.708847
M03 S35
G01 Z-1.000000 F800.0(Penetrate)
G01 X45.417307 Y99.168023 Z-1.000000 F2500.000000
G00 Z0.100000
M05
(End cutting path id: path5299)


(Start cutting path id: path5297)
(Change tool to Default tool)

G00 Z0.100000
G00 X56.104596 Y77.079417
M03 S35
G01 Z-1.000000 F800.0(Penetrate)
G01 X43.452708 Y99.027066 Z-1.000000 F2500.000000
G00 Z0.100000
M05
(End cutting path id: path5297)


(Start cutting path id: path5295)
(Change tool to Default tool)

G00 Z0.100000
G00 X54.853237 Y75.701180
M03 S35
G01 Z-1.000000 F800.0(Penetrate)
G01 X41.632918 Y98.634916 Z-1.000000 F2500.000000
G00 Z0.100000
M05
(End cutting path id: path5295)


(Start cutting path id: path5273)
(Change tool to Default tool)

G00 Z0.100000
G00 X33.539347 Y74.953555
M03 S35
G01 Z-1.000000 F800.0(Penetrate)
G01 X33.553531 Y96.130024 Z-1.000000 F2500.000000
G00 Z0.100000
M05
(End cutting path id: path5273)


(Start cutting path id: path5271)
(Change tool to Default tool)

G00 Z0.100000
G00 X31.766087 Y73.735438
M03 S35
G01 Z-1.000000 F800.0(Penetrate)
G01 X31.781905 Y97.350516 Z-1.000000 F2500.000000
G00 Z0.100000
M05
(End cutting path id: path5271)


(Start cutting path id: path5269)
(Change tool to Default tool)

G00 Z0.100000
G00 X29.993069 Y72.877581
M03 S35
G01 Z-1.000000 F800.0(Penetrate)
G01 X30.010037 Y98.210747 Z-1.000000 F2500.000000
G00 Z0.100000
M05
(End cutting path id: path5269)


(Start cutting path id: path5267)
(Change tool to Default tool)

G00 Z0.100000
G00 X28.220245 Y72.309655
M03 S35
G01 Z-1.000000 F800.0(Penetrate)
G01 X28.237975 Y98.781048 Z-1.000000 F2500.000000
G00 Z0.100000
M05
(End cutting path id: path5267)


(Start cutting path id: path5095)
(Change tool to Default tool)

G00 Z0.100000
G00 X36.399148 Y72.488988
M03 S35
G01 Z-1.000000 F800.0(Penetrate)
G01 X25.635766 Y78.712862 Z-1.000000 F2500.000000
G00 Z0.100000
M05
(End cutting path id: path5095)


(Start cutting path id: path5093)
(Change tool to Default tool)

G00 Z0.100000
G00 X37.801237 Y69.630824
M03 S35
G01 Z-1.000000 F800.0(Penetrate)
G01 X22.459178 Y78.502274 Z-1.000000 F2500.000000
G00 Z0.100000
M05
(End cutting path id: path5093)


(Start cutting path id: path5279)
(Change tool to Default tool)

G00 Z0.100000
G00 X40.043998 Y72.999237
M03 S35
G01 Z-1.000000 F800.0(Penetrate)
G01 X31.872982 Y87.173763 Z-1.000000 F2500.000000
G00 Z0.100000
M05
(End cutting path id: path5279)


(Start cutting path id: path5281)
(Change tool to Default tool)

G00 Z0.100000
G00 X42.548928 Y72.202845
M03 S35
G01 Z-1.000000 F800.0(Penetrate)
G01 X32.439179 Y89.740542 Z-1.000000 F2500.000000
G00 Z0.100000
M05
(End cutting path id: path5281)


(Start cutting path id: path5283)
(Change tool to Default tool)

G00 Z0.100000
G00 X44.760677 Y71.915046
M03 S35
G01 Z-1.000000 F800.0(Penetrate)
G01 X33.298580 Y91.798728 Z-1.000000 F2500.000000
G00 Z0.100000
M05
(End cutting path id: path5283)


(Start cutting path id: path5285)
(Change tool to Default tool)

G00 Z0.100000
G00 X46.775754 Y71.968415
M03 S35
G01 Z-1.000000 F800.0(Penetrate)
G01 X34.354652 Y93.515746 Z-1.000000 F2500.000000
G00 Z0.100000
M05
(End cutting path id: path5285)


(Start cutting path id: path5287)
(Change tool to Default tool)

G00 Z0.100000
G00 X48.637602 Y72.287639
M03 S35
G01 Z-1.000000 F800.0(Penetrate)
G01 X35.563976 Y94.966909 Z-1.000000 F2500.000000
G00 Z0.100000
M05
(End cutting path id: path5287)


(Start cutting path id: path5289)
(Change tool to Default tool)

G00 Z0.100000
G00 X50.368487 Y72.834006
M03 S35
G01 Z-1.000000 F800.0(Penetrate)
G01 X36.904218 Y96.190929 Z-1.000000 F2500.000000
G00 Z0.100000
M05
(End cutting path id: path5289)


(Start cutting path id: path5291)
(Change tool to Default tool)

G00 Z0.100000
G00 X51.979758 Y73.587920
M03 S35
G01 Z-1.000000 F800.0(Penetrate)
G01 X38.364121 Y97.207402 Z-1.000000 F2500.000000
G00 Z0.100000
M05
(End cutting path id: path5291)


(Start cutting path id: path5293)
(Change tool to Default tool)

G00 Z0.100000
G00 X53.475362 Y74.542424
M03 S35
G01 Z-1.000000 F800.0(Penetrate)
G01 X39.939643 Y98.023284 Z-1.000000 F2500.000000
G00 Z0.100000
M05
(End cutting path id: path5293)


(Start cutting path id: path5091)
(Change tool to Default tool)

G00 Z0.100000
G00 X38.409101 Y67.231891
M03 S35
G01 Z-1.000000 F800.0(Penetrate)
G01 X20.076814 Y77.832409 Z-1.000000 F2500.000000
G00 Z0.100000
M05
(End cutting path id: path5091)


(Start cutting path id: path5089)
(Change tool to Default tool)

G00 Z0.100000
G00 X38.577387 Y65.087144
M03 S35
G01 Z-1.000000 F800.0(Penetrate)
G01 X18.134029 Y76.908381 Z-1.000000 F2500.000000
G00 Z0.100000
M05
(End cutting path id: path5089)


(Start cutting path id: path4861)
(Change tool to Default tool)

G00 Z0.100000
G00 X31.154278 Y56.775263
M03 S35
G01 Z-1.000000 F800.0(Penetrate)
G01 X18.720998 Y56.783591 Z-1.000000 F2500.000000
G00 Z0.100000
M05
(End cutting path id: path4861)


(Start cutting path id: path5069)
(Change tool to Default tool)

G00 Z0.100000
G00 X26.564994 Y51.558899
M03 S35
G01 Z-1.000000 F800.0(Penetrate)
G01 X12.401427 Y59.748896 Z-1.000000 F2500.000000
G00 Z0.100000
M05
(End cutting path id: path5069)


(Start cutting path id: path5071)
(Change tool to Default tool)

G00 Z0.100000
G00 X29.132529 Y52.121657
M03 S35
G01 Z-1.000000 F800.0(Penetrate)
G01 X11.608391 Y62.254890 Z-1.000000 F2500.000000
G00 Z0.100000
M05
(End cutting path id: path5071)


(Start cutting path id: path5073)
(Change tool to Default tool)

G00 Z0.100000
G00 X31.191865 Y52.978299
M03 S35
G01 Z-1.000000 F800.0(Penetrate)
G01 X11.323555 Y64.467023 Z-1.000000 F2500.000000
G00 Z0.100000
M05
(End cutting path id: path5073)


(Start cutting path id: path5075)
(Change tool to Default tool)

G00 Z0.100000
G00 X32.910296 Y54.032071
M03 S35
G01 Z-1.000000 F800.0(Penetrate)
G01 X11.379624 Y66.482027 Z-1.000000 F2500.000000
G00 Z0.100000
M05
(End cutting path id: path5075)


(Start cutting path id: path4859)
(Change tool to Default tool)

G00 Z0.100000
G00 X33.797621 Y55.001049
M03 S35
G01 Z-1.000000 F800.0(Penetrate)
G01 X16.075281 Y55.012919 Z-1.000000 F2500.000000
G00 Z0.100000
M05
(End cutting path id: path4859)


(Start cutting path id: path5077)
(Change tool to Default tool)

G00 Z0.100000
G00 X34.363077 Y55.239450
M03 S35
G01 Z-1.000000 F800.0(Penetrate)
G01 X11.701342 Y68.343446 Z-1.000000 F2500.000000
G00 Z0.100000
M05
(End cutting path id: path5077)


(Start cutting path id: path5079)
(Change tool to Default tool)

G00 Z0.100000
G00 X35.588892 Y56.578051
M03 S35
G01 Z-1.000000 F800.0(Penetrate)
G01 X12.250027 Y70.073620 Z-1.000000 F2500.000000
G00 Z0.100000
M05
(End cutting path id: path5079)


(Start cutting path id: path5087)
(Change tool to Default tool)

G00 Z0.100000
G00 X38.433798 Y63.122736
M03 S35
G01 Z-1.000000 F800.0(Penetrate)
G01 X16.503118 Y75.804014 Z-1.000000 F2500.000000
G00 Z0.100000
M05
(End cutting path id: path5087)


(Start cutting path id: path5085)
(Change tool to Default tool)

G00 Z0.100000
G00 X38.039211 Y61.303472
M03 S35
G01 Z-1.000000 F800.0(Penetrate)
G01 X15.123206 Y74.554524 Z-1.000000 F2500.000000
G00 Z0.100000
M05
(End cutting path id: path5085)


(Start cutting path id: path5083)
(Change tool to Default tool)

G00 Z0.100000
G00 X37.425312 Y59.611018
M03 S35
G01 Z-1.000000 F800.0(Penetrate)
G01 X13.962606 Y73.178181 Z-1.000000 F2500.000000
G00 Z0.100000
M05
(End cutting path id: path5083)


(Start cutting path id: path5081)
(Change tool to Default tool)

G00 Z0.100000
G00 X36.607320 Y58.036590
M03 S35
G01 Z-1.000000 F800.0(Penetrate)
G01 X13.006098 Y71.683856 Z-1.000000 F2500.000000
G00 Z0.100000
M05
(End cutting path id: path5081)


(Start cutting path id: path4857)
(Change tool to Default tool)

G00 Z0.100000
G00 X35.523498 Y53.227449
M03 S35
G01 Z-1.000000 F800.0(Penetrate)
G01 X14.347029 Y53.241633 Z-1.000000 F2500.000000
G00 Z0.100000
M05
(End cutting path id: path4857)


(Start cutting path id: path4855)
(Change tool to Default tool)

G00 Z0.100000
G00 X36.741616 Y51.454189
M03 S35
G01 Z-1.000000 F800.0(Penetrate)
G01 X13.126538 Y51.470006 Z-1.000000 F2500.000000
G00 Z0.100000
M05
(End cutting path id: path4855)


(Start cutting path id: path4853)
(Change tool to Default tool)

G00 Z0.100000
G00 X37.599473 Y49.681170
M03 S35
G01 Z-1.000000 F800.0(Penetrate)
G01 X12.266306 Y49.698139 Z-1.000000 F2500.000000
G00 Z0.100000
M05
(End cutting path id: path4853)


(Start cutting path id: path4851)
(Change tool to Default tool)

G00 Z0.100000
G00 X38.167399 Y47.908346
M03 S35
G01 Z-1.000000 F800.0(Penetrate)
G01 X11.696006 Y47.926077 Z-1.000000 F2500.000000
G00 Z0.100000
M05
(End cutting path id: path4851)


(Start cutting path id: path4835)
(Change tool to Default tool)

G00 Z0.100000
G00 X33.102712 Y33.732187
M03 S35
G01 Z-1.000000 F800.0(Penetrate)
G01 X16.741698 Y33.743145 Z-1.000000 F2500.000000
G00 Z0.100000
M05
(End cutting path id: path4835)


(Start cutting path id: path4837)
(Change tool to Default tool)

G00 Z0.100000
G00 X35.044883 Y35.503330
M03 S35
G01 Z-1.000000 F800.0(Penetrate)
G01 X14.801901 Y35.516889 Z-1.000000 F2500.000000
G00 Z0.100000
M05
(End cutting path id: path4837)


(Start cutting path id: path4839)
(Change tool to Default tool)

G00 Z0.100000
G00 X36.399990 Y37.274866
M03 S35
G01 Z-1.000000 F800.0(Penetrate)
G01 X13.449169 Y37.290239 Z-1.000000 F2500.000000
G00 Z0.100000
M05
(End cutting path id: path4839)


(Start cutting path id: path4649)
(Change tool to Default tool)

G00 Z0.100000
G00 X36.371752 Y31.586453
M03 S35
G01 Z-1.000000 F800.0(Penetrate)
G01 X25.608369 Y37.810328 Z-1.000000 F2500.000000
G00 Z0.100000
M05
(End cutting path id: path4649)


(Start cutting path id: path4841)
(Change tool to Default tool)

G00 Z0.100000
G00 X37.361296 Y39.046666
M03 S35
G01 Z-1.000000 F800.0(Penetrate)
G01 X12.490237 Y39.063325 Z-1.000000 F2500.000000
G00 Z0.100000
M05
(End cutting path id: path4841)


(Start cutting path id: path4843)
(Change tool to Default tool)

G00 Z0.100000
G00 X38.015764 Y40.818672
M03 S35
G01 Z-1.000000 F800.0(Penetrate)
G01 X11.838142 Y40.836206 Z-1.000000 F2500.000000
G00 Z0.100000
M05
(End cutting path id: path4843)


(Start cutting path id: path4845)
(Change tool to Default tool)

G00 Z0.100000
G00 X38.408071 Y42.590853
M03 S35
G01 Z-1.000000 F800.0(Penetrate)
G01 X11.448211 Y42.608911 Z-1.000000 F2500.000000
G00 Z0.100000
M05
(End cutting path id: path4845)


(Start cutting path id: path4847)
(Change tool to Default tool)

G00 Z0.100000
G00 X38.560779 Y44.363195
M03 S35
G01 Z-1.000000 F800.0(Penetrate)
G01 X11.297877 Y44.381455 Z-1.000000 F2500.000000
G00 Z0.100000
M05
(End cutting path id: path4847)


(Start cutting path id: path4849)
(Change tool to Default tool)

G00 Z0.100000
G00 X38.481956 Y46.135691
M03 S35
G01 Z-1.000000 F800.0(Penetrate)
G01 X11.379074 Y46.153845 Z-1.000000 F2500.000000
G00 Z0.100000
M05
(End cutting path id: path4849)


(Start cutting path id: path4647)
(Change tool to Default tool)

G00 Z0.100000
G00 X37.773840 Y28.728289
M03 S35
G01 Z-1.000000 F800.0(Penetrate)
G01 X22.431781 Y37.599717 Z-1.000000 F2500.000000
G00 Z0.100000
M05
(End cutting path id: path4647)


(Start cutting path id: path4645)
(Change tool to Default tool)

G00 Z0.100000
G00 X38.381704 Y26.329356
M03 S35
G01 Z-1.000000 F800.0(Penetrate)
G01 X20.049418 Y36.929875 Z-1.000000 F2500.000000
G00 Z0.100000
M05
(End cutting path id: path4645)


(Start cutting path id: path4643)
(Change tool to Default tool)

G00 Z0.100000
G00 X38.549990 Y24.184609
M03 S35
G01 Z-1.000000 F800.0(Penetrate)
G01 X18.106632 Y36.005847 Z-1.000000 F2500.000000
G00 Z0.100000
M05
(End cutting path id: path4643)


(Start cutting path id: path4641)
(Change tool to Default tool)

G00 Z0.100000
G00 X38.406402 Y22.220201
M03 S35
G01 Z-1.000000 F800.0(Penetrate)
G01 X16.475721 Y34.901479 Z-1.000000 F2500.000000
G00 Z0.100000
M05
(End cutting path id: path4641)


(Start cutting path id: path4639)
(Change tool to Default tool)

G00 Z0.100000
G00 X38.011814 Y20.400938
M03 S35
G01 Z-1.000000 F800.0(Penetrate)
G01 X15.095809 Y33.651967 Z-1.000000 F2500.000000
G00 Z0.100000
M05
(End cutting path id: path4639)


(Start cutting path id: path4623)
(Change tool to Default tool)

G00 Z0.100000
G00 X26.537598 Y10.656364
M03 S35
G01 Z-1.000000 F800.0(Penetrate)
G01 X12.374030 Y18.846362 Z-1.000000 F2500.000000
G00 Z0.100000
M05
(End cutting path id: path4623)


(Start cutting path id: path4625)
(Change tool to Default tool)

G00 Z0.100000
G00 X29.105132 Y11.219145
M03 S35
G01 Z-1.000000 F800.0(Penetrate)
G01 X11.580995 Y21.352356 Z-1.000000 F2500.000000
G00 Z0.100000
M05
(End cutting path id: path4625)


(Start cutting path id: path4627)
(Change tool to Default tool)

G00 Z0.100000
G00 X31.164468 Y12.075765
M03 S35
G01 Z-1.000000 F800.0(Penetrate)
G01 X11.296159 Y23.564489 Z-1.000000 F2500.000000
G00 Z0.100000
M05
(End cutting path id: path4627)


(Start cutting path id: path4629)
(Change tool to Default tool)

G00 Z0.100000
G00 X32.882899 Y13.129536
M03 S35
G01 Z-1.000000 F800.0(Penetrate)
G01 X11.352227 Y25.579493 Z-1.000000 F2500.000000
G00 Z0.100000
M05
(End cutting path id: path4629)


(Start cutting path id: path4631)
(Change tool to Default tool)

G00 Z0.100000
G00 X34.335680 Y14.336916
M03 S35
G01 Z-1.000000 F800.0(Penetrate)
G01 X11.673945 Y27.440911 Z-1.000000 F2500.000000
G00 Z0.100000
M05
(End cutting path id: path4631)


(Start cutting path id: path4633)
(Change tool to Default tool)

G00 Z0.100000
G00 X35.561495 Y15.675517
M03 S35
G01 Z-1.000000 F800.0(Penetrate)
G01 X12.222630 Y29.171063 Z-1.000000 F2500.000000
G00 Z0.100000
M05
(End cutting path id: path4633)


(Start cutting path id: path4635)
(Change tool to Default tool)

G00 Z0.100000
G00 X36.579923 Y17.134056
M03 S35
G01 Z-1.000000 F800.0(Penetrate)
G01 X12.978702 Y30.781322 Z-1.000000 F2500.000000
G00 Z0.100000
M05
(End cutting path id: path4635)


(Start cutting path id: path4637)
(Change tool to Default tool)

G00 Z0.100000
G00 X37.397915 Y18.708484
M03 S35
G01 Z-1.000000 F800.0(Penetrate)
G01 X13.935209 Y32.275647 Z-1.000000 F2500.000000
G00 Z0.100000
M05
(End cutting path id: path4637)


(Start cutting path id: path4863)
(Change tool to Default tool)

G00 Z0.100000
G00 X43.443569 Y31.135447
M03 S35
G01 Z-1.000000 F800.0(Penetrate)
G01 X31.882332 Y42.712183 Z-1.000000 F2500.000000
G00 Z0.100000
M05
(End cutting path id: path4863)


(Start cutting path id: path5097)
(Change tool to Default tool)

G00 Z0.100000
G00 X43.457267 Y51.586714
M03 S35
G01 Z-1.000000 F800.0(Penetrate)
G01 X31.896030 Y63.163450 Z-1.000000 F2500.000000
G00 Z0.100000
M05
(End cutting path id: path5097)


(Start cutting path id: path5099)
(Change tool to Default tool)

G00 Z0.100000
G00 X46.082971 Y51.465793
M03 S35
G01 Z-1.000000 F800.0(Penetrate)
G01 X31.778626 Y65.789313 Z-1.000000 F2500.000000
G00 Z0.100000
M05
(End cutting path id: path5099)


(Start cutting path id: path5101)
(Change tool to Default tool)

G00 Z0.100000
G00 X48.293860 Y51.760242
M03 S35
G01 Z-1.000000 F800.0(Penetrate)
G01 X32.076036 Y67.999806 Z-1.000000 F2500.000000
G00 Z0.100000
M05
(End cutting path id: path5101)


(Start cutting path id: path5103)
(Change tool to Default tool)

G00 Z0.100000
G00 X50.226458 Y52.333356
M03 S35
G01 Z-1.000000 F800.0(Penetrate)
G01 X32.651739 Y69.931634 Z-1.000000 F2500.000000
G00 Z0.100000
M05
(End cutting path id: path5103)


(Start cutting path id: path5105)
(Change tool to Default tool)

G00 Z0.100000
G00 X51.942213 Y53.123580
M03 S35
G01 Z-1.000000 F800.0(Penetrate)
G01 X33.444261 Y71.646352 Z-1.000000 F2500.000000
G00 Z0.100000
M05
(End cutting path id: path5105)


(Start cutting path id: path5123)
(Change tool to Default tool)

G00 Z0.100000
G00 X58.373449 Y69.258374
M03 S35
G01 Z-1.000000 F800.0(Penetrate)
G01 X49.587656 Y78.055945 Z-1.000000 F2500.000000
G00 Z0.100000
M05
(End cutting path id: path5123)


(Start cutting path id: path5121)
(Change tool to Default tool)

G00 Z0.100000
G00 X58.988008 Y66.134712
M03 S35
G01 Z-1.000000 F800.0(Penetrate)
G01 X46.464819 Y78.674688 Z-1.000000 F2500.000000
G00 Z0.100000
M05
(End cutting path id: path5121)


(Start cutting path id: path5119)
(Change tool to Default tool)

G00 Z0.100000
G00 X58.954265 Y63.660198
M03 S35
G01 Z-1.000000 F800.0(Penetrate)
G01 X43.990263 Y78.644259 Z-1.000000 F2500.000000
G00 Z0.100000
M05
(End cutting path id: path5119)


(Start cutting path id: path5117)
(Change tool to Default tool)

G00 Z0.100000
G00 X58.561729 Y61.544981
M03 S35
G01 Z-1.000000 F800.0(Penetrate)
G01 X41.874522 Y78.254534 Z-1.000000 F2500.000000
G00 Z0.100000
M05
(End cutting path id: path5117)


(Start cutting path id: path5115)
(Change tool to Default tool)

G00 Z0.100000
G00 X57.914608 Y59.684666
M03 S35
G01 Z-1.000000 F800.0(Penetrate)
G01 X40.013342 Y77.609930 Z-1.000000 F2500.000000
G00 Z0.100000
M05
(End cutting path id: path5115)


(Start cutting path id: path5113)
(Change tool to Default tool)

G00 Z0.100000
G00 X57.062590 Y58.029502
M03 S35
G01 Z-1.000000 F800.0(Penetrate)
G01 X38.357037 Y76.760130 Z-1.000000 F2500.000000
G00 Z0.100000
M05
(End cutting path id: path5113)


(Start cutting path id: path5111)
(Change tool to Default tool)

G00 Z0.100000
G00 X56.031562 Y56.553633
M03 S35
G01 Z-1.000000 F800.0(Penetrate)
G01 X36.879789 Y75.731079 Z-1.000000 F2500.000000
G00 Z0.100000
M05
(End cutting path id: path5111)


(Start cutting path id: path5109)
(Change tool to Default tool)

G00 Z0.100000
G00 X54.833967 Y55.244554
M03 S35
G01 Z-1.000000 F800.0(Penetrate)
G01 X35.569106 Y74.535239 Z-1.000000 F2500.000000
G00 Z0.100000
M05
(End cutting path id: path5109)


(Start cutting path id: path5107)
(Change tool to Default tool)

G00 Z0.100000
G00 X53.472736 Y54.099308
M03 S35
G01 Z-1.000000 F800.0(Penetrate)
G01 X34.422038 Y73.175543 Z-1.000000 F2500.000000
G00 Z0.100000
M05
(End cutting path id: path5107)


(Start cutting path id: path5307)
(Change tool to Default tool)

G00 Z0.100000
G00 X67.481227 Y71.982769
M03 S35
G01 Z-1.000000 F800.0(Penetrate)
G01 X53.317659 Y80.172766 Z-1.000000 F2500.000000
G00 Z0.100000
M05
(End cutting path id: path5307)


(Start cutting path id: path5309)
(Change tool to Default tool)

G00 Z0.100000
G00 X70.048762 Y72.545527
M03 S35
G01 Z-1.000000 F800.0(Penetrate)
G01 X52.524624 Y82.678761 Z-1.000000 F2500.000000
G00 Z0.100000
M05
(End cutting path id: path5309)


(Start cutting path id: path5151)
(Change tool to Default tool)

G00 Z0.100000
G00 X72.070511 Y77.199134
M03 S35
G01 Z-1.000000 F800.0(Penetrate)
G01 X59.637231 Y77.207461 Z-1.000000 F2500.000000
G00 Z0.100000
M05
(End cutting path id: path5151)


(Start cutting path id: path5311)
(Change tool to Default tool)

G00 Z0.100000
G00 X72.108097 Y73.402170
M03 S35
G01 Z-1.000000 F800.0(Penetrate)
G01 X52.239788 Y84.890893 Z-1.000000 F2500.000000
G00 Z0.100000
M05
(End cutting path id: path5311)


(Start cutting path id: path5313)
(Change tool to Default tool)

G00 Z0.100000
G00 X73.826529 Y74.455941
M03 S35
G01 Z-1.000000 F800.0(Penetrate)
G01 X52.295856 Y86.905897 Z-1.000000 F2500.000000
G00 Z0.100000
M05
(End cutting path id: path5313)


(Start cutting path id: path5149)
(Change tool to Default tool)

G00 Z0.100000
G00 X74.713854 Y75.424919
M03 S35
G01 Z-1.000000 F800.0(Penetrate)
G01 X56.991513 Y75.436790 Z-1.000000 F2500.000000
G00 Z0.100000
M05
(End cutting path id: path5149)


(Start cutting path id: path5315)
(Change tool to Default tool)

G00 Z0.100000
G00 X75.279310 Y75.663320
M03 S35
G01 Z-1.000000 F800.0(Penetrate)
G01 X52.617574 Y88.767316 Z-1.000000 F2500.000000
G00 Z0.100000
M05
(End cutting path id: path5315)


(Start cutting path id: path5331)
(Change tool to Default tool)

G00 Z0.100000
G00 X78.717469 Y90.054694
M03 S35
G01 Z-1.000000 F800.0(Penetrate)
G01 X63.375410 Y98.926145 Z-1.000000 F2500.000000
G00 Z0.100000
M05
(End cutting path id: path5331)


(Start cutting path id: path5599)
(Change tool to Default tool)

G00 Z0.100000
G00 X70.847151 Y113.722842
M03 S35
G01 Z-1.000000 F800.0(Penetrate)
G01 X57.382882 Y137.079787 Z-1.000000 F2500.000000
G00 Z0.100000
M05
(End cutting path id: path5599)


(Start cutting path id: path5613)
(Change tool to Default tool)

G00 Z0.100000
G00 X79.289497 Y123.920693
M03 S35
G01 Z-1.000000 F800.0(Penetrate)
G01 X70.438607 Y139.274622 Z-1.000000 F2500.000000
G00 Z0.100000
M05
(End cutting path id: path5613)


(Start cutting path id: path5611)
(Change tool to Default tool)

G00 Z0.100000
G00 X78.616441 Y121.539229
M03 S35
G01 Z-1.000000 F800.0(Penetrate)
G01 X68.040490 Y139.885699 Z-1.000000 F2500.000000
G00 Z0.100000
M05
(End cutting path id: path5611)


(Start cutting path id: path5609)
(Change tool to Default tool)

G00 Z0.100000
G00 X77.689811 Y119.597683
M03 S35
G01 Z-1.000000 F800.0(Penetrate)
G01 X65.895970 Y140.056858 Z-1.000000 F2500.000000
G00 Z0.100000
M05
(End cutting path id: path5609)


(Start cutting path id: path5607)
(Change tool to Default tool)

G00 Z0.100000
G00 X76.583260 Y117.968253
M03 S35
G01 Z-1.000000 F800.0(Penetrate)
G01 X63.931372 Y139.915902 Z-1.000000 F2500.000000
G00 Z0.100000
M05
(End cutting path id: path5607)


(Start cutting path id: path5605)
(Change tool to Default tool)

G00 Z0.100000
G00 X75.331923 Y116.590016
M03 S35
G01 Z-1.000000 F800.0(Penetrate)
G01 X62.111582 Y139.523752 Z-1.000000 F2500.000000
G00 Z0.100000
M05
(End cutting path id: path5605)


(Start cutting path id: path5603)
(Change tool to Default tool)

G00 Z0.100000
G00 X73.954026 Y115.431260
M03 S35
G01 Z-1.000000 F800.0(Penetrate)
G01 X60.418306 Y138.912120 Z-1.000000 F2500.000000
G00 Z0.100000
M05
(End cutting path id: path5603)


(Start cutting path id: path5601)
(Change tool to Default tool)

G00 Z0.100000
G00 X72.458421 Y114.476756
M03 S35
G01 Z-1.000000 F800.0(Penetrate)
G01 X58.842784 Y138.096238 Z-1.000000 F2500.000000
G00 Z0.100000
M05
(End cutting path id: path5601)


(Start cutting path id: path5511)
(Change tool to Default tool)

G00 Z0.100000
G00 X82.148610 Y118.936688
M03 S35
G01 Z-1.000000 F800.0(Penetrate)
G01 X73.351040 Y110.150895 Z-1.000000 F2500.000000
G00 Z0.100000
M05
(End cutting path id: path5511)


(Start cutting path id: path5509)
(Change tool to Default tool)

G00 Z0.100000
G00 X85.272273 Y119.551247
M03 S35
G01 Z-1.000000 F800.0(Penetrate)
G01 X72.732297 Y107.028058 Z-1.000000 F2500.000000
G00 Z0.100000
M05
(End cutting path id: path5509)


(Start cutting path id: path5507)
(Change tool to Default tool)

G00 Z0.100000
G00 X87.746786 Y119.517504
M03 S35
G01 Z-1.000000 F800.0(Penetrate)
G01 X72.762725 Y104.553502 Z-1.000000 F2500.000000
G00 Z0.100000
M05
(End cutting path id: path5507)


(Start cutting path id: path5329)
(Change tool to Default tool)

G00 Z0.100000
G00 X79.325333 Y87.655761
M03 S35
G01 Z-1.000000 F800.0(Penetrate)
G01 X60.993047 Y98.256279 Z-1.000000 F2500.000000
G00 Z0.100000
M05
(End cutting path id: path5329)


(Start cutting path id: path5327)
(Change tool to Default tool)

G00 Z0.100000
G00 X79.493620 Y85.511014
M03 S35
G01 Z-1.000000 F800.0(Penetrate)
G01 X59.050261 Y97.332251 Z-1.000000 F2500.000000
G00 Z0.100000
M05
(End cutting path id: path5327)


(Start cutting path id: path5325)
(Change tool to Default tool)

G00 Z0.100000
G00 X79.350031 Y83.546606
M03 S35
G01 Z-1.000000 F800.0(Penetrate)
G01 X57.419350 Y96.227884 Z-1.000000 F2500.000000
G00 Z0.100000
M05
(End cutting path id: path5325)


(Start cutting path id: path5323)
(Change tool to Default tool)

G00 Z0.100000
G00 X78.955444 Y81.727343
M03 S35
G01 Z-1.000000 F800.0(Penetrate)
G01 X56.039438 Y94.978395 Z-1.000000 F2500.000000
G00 Z0.100000
M05
(End cutting path id: path5323)


(Start cutting path id: path5321)
(Change tool to Default tool)

G00 Z0.100000
G00 X78.341544 Y80.034888
M03 S35
G01 Z-1.000000 F800.0(Penetrate)
G01 X54.878838 Y93.602051 Z-1.000000 F2500.000000
G00 Z0.100000
M05
(End cutting path id: path5321)


(Start cutting path id: path5319)
(Change tool to Default tool)

G00 Z0.100000
G00 X77.523552 Y78.460461
M03 S35
G01 Z-1.000000 F800.0(Penetrate)
G01 X53.922331 Y92.107726 Z-1.000000 F2500.000000
G00 Z0.100000
M05
(End cutting path id: path5319)


(Start cutting path id: path5317)
(Change tool to Default tool)

G00 Z0.100000
G00 X76.505124 Y77.001922
M03 S35
G01 Z-1.000000 F800.0(Penetrate)
G01 X53.166259 Y90.497490 Z-1.000000 F2500.000000
G00 Z0.100000
M05
(End cutting path id: path5317)


(Start cutting path id: path5147)
(Change tool to Default tool)

G00 Z0.100000
G00 X76.439731 Y73.651319
M03 S35
G01 Z-1.000000 F800.0(Penetrate)
G01 X55.263262 Y73.665503 Z-1.000000 F2500.000000
G00 Z0.100000
M05
(End cutting path id: path5147)


(Start cutting path id: path5145)
(Change tool to Default tool)

G00 Z0.100000
G00 X77.657848 Y71.878059
M03 S35
G01 Z-1.000000 F800.0(Penetrate)
G01 X54.042770 Y71.893877 Z-1.000000 F2500.000000
G00 Z0.100000
M05
(End cutting path id: path5145)


(Start cutting path id: path4889)
(Change tool to Default tool)

G00 Z0.100000
G00 X58.359750 Y48.807107
M03 S35
G01 Z-1.000000 F800.0(Penetrate)
G01 X49.573957 Y57.604677 Z-1.000000 F2500.000000
G00 Z0.100000
M05
(End cutting path id: path4889)


(Start cutting path id: path4887)
(Change tool to Default tool)

G00 Z0.100000
G00 X58.974310 Y45.683445
M03 S35
G01 Z-1.000000 F800.0(Penetrate)
G01 X46.451121 Y58.223421 Z-1.000000 F2500.000000
G00 Z0.100000
M05
(End cutting path id: path4887)


(Start cutting path id: path4885)
(Change tool to Default tool)

G00 Z0.100000
G00 X58.940566 Y43.208931
M03 S35
G01 Z-1.000000 F800.0(Penetrate)
G01 X43.976564 Y58.192992 Z-1.000000 F2500.000000
G00 Z0.100000
M05
(End cutting path id: path4885)


(Start cutting path id: path4883)
(Change tool to Default tool)

G00 Z0.100000
G00 X58.548030 Y41.093714
M03 S35
G01 Z-1.000000 F800.0(Penetrate)
G01 X41.860823 Y57.803290 Z-1.000000 F2500.000000
G00 Z0.100000
M05
(End cutting path id: path4883)


(Start cutting path id: path4881)
(Change tool to Default tool)

G00 Z0.100000
G00 X57.900910 Y39.233399
M03 S35
G01 Z-1.000000 F800.0(Penetrate)
G01 X39.999644 Y57.158663 Z-1.000000 F2500.000000
G00 Z0.100000
M05
(End cutting path id: path4881)


(Start cutting path id: path4879)
(Change tool to Default tool)

G00 Z0.100000
G00 X57.048892 Y37.578235
M03 S35
G01 Z-1.000000 F800.0(Penetrate)
G01 X38.343339 Y56.308863 Z-1.000000 F2500.000000
G00 Z0.100000
M05
(End cutting path id: path4879)


(Start cutting path id: path4865)
(Change tool to Default tool)

G00 Z0.100000
G00 X46.069273 Y31.014526
M03 S35
G01 Z-1.000000 F800.0(Penetrate)
G01 X31.764928 Y45.338046 Z-1.000000 F2500.000000
G00 Z0.100000
M05
(End cutting path id: path4865)


(Start cutting path id: path4867)
(Change tool to Default tool)

G00 Z0.100000
G00 X48.280162 Y31.308975
M03 S35
G01 Z-1.000000 F800.0(Penetrate)
G01 X32.062338 Y47.548539 Z-1.000000 F2500.000000
G00 Z0.100000
M05
(End cutting path id: path4867)


(Start cutting path id: path4869)
(Change tool to Default tool)

G00 Z0.100000
G00 X50.212760 Y31.882088
M03 S35
G01 Z-1.000000 F800.0(Penetrate)
G01 X32.638040 Y49.480367 Z-1.000000 F2500.000000
G00 Z0.100000
M05
(End cutting path id: path4869)


(Start cutting path id: path4871)
(Change tool to Default tool)

G00 Z0.100000
G00 X51.928515 Y32.672313
M03 S35
G01 Z-1.000000 F800.0(Penetrate)
G01 X33.430562 Y51.195085 Z-1.000000 F2500.000000
G00 Z0.100000
M05
(End cutting path id: path4871)


(Start cutting path id: path4873)
(Change tool to Default tool)

G00 Z0.100000
G00 X53.459038 Y33.648041
M03 S35
G01 Z-1.000000 F800.0(Penetrate)
G01 X34.408339 Y52.724276 Z-1.000000 F2500.000000
G00 Z0.100000
M05
(End cutting path id: path4873)


(Start cutting path id: path4875)
(Change tool to Default tool)

G00 Z0.100000
G00 X54.820269 Y34.793287
M03 S35
G01 Z-1.000000 F800.0(Penetrate)
G01 X35.555408 Y54.083972 Z-1.000000 F2500.000000
G00 Z0.100000
M05
(End cutting path id: path4875)


(Start cutting path id: path4877)
(Change tool to Default tool)

G00 Z0.100000
G00 X56.017864 Y36.102366
M03 S35
G01 Z-1.000000 F800.0(Penetrate)
G01 X36.866090 Y55.279812 Z-1.000000 F2500.000000
G00 Z0.100000
M05
(End cutting path id: path4877)


(Start cutting path id: path4677)
(Change tool to Default tool)

G00 Z0.100000
G00 X56.823019 Y31.572755
M03 S35
G01 Z-1.000000 F800.0(Penetrate)
G01 X46.059636 Y37.796630 Z-1.000000 F2500.000000
G00 Z0.100000
M05
(End cutting path id: path4677)


(Start cutting path id: path4675)
(Change tool to Default tool)

G00 Z0.100000
G00 X58.225107 Y28.714591
M03 S35
G01 Z-1.000000 F800.0(Penetrate)
G01 X42.883048 Y37.586019 Z-1.000000 F2500.000000
G00 Z0.100000
M05
(End cutting path id: path4675)


(Start cutting path id: path4673)
(Change tool to Default tool)

G00 Z0.100000
G00 X58.832971 Y26.315658
M03 S35
G01 Z-1.000000 F800.0(Penetrate)
G01 X40.500685 Y36.916176 Z-1.000000 F2500.000000
G00 Z0.100000
M05
(End cutting path id: path4673)


(Start cutting path id: path4671)
(Change tool to Default tool)

G00 Z0.100000
G00 X59.001257 Y24.170911
M03 S35
G01 Z-1.000000 F800.0(Penetrate)
G01 X38.557899 Y35.992148 Z-1.000000 F2500.000000
G00 Z0.100000
M05
(End cutting path id: path4671)


(Start cutting path id: path4669)
(Change tool to Default tool)

G00 Z0.100000
G00 X58.857669 Y22.206503
M03 S35
G01 Z-1.000000 F800.0(Penetrate)
G01 X36.926988 Y34.887781 Z-1.000000 F2500.000000
G00 Z0.100000
M05
(End cutting path id: path4669)


(Start cutting path id: path4667)
(Change tool to Default tool)

G00 Z0.100000
G00 X58.463081 Y20.387240
M03 S35
G01 Z-1.000000 F800.0(Penetrate)
G01 X35.547076 Y33.638269 Z-1.000000 F2500.000000
G00 Z0.100000
M05
(End cutting path id: path4667)


(Start cutting path id: path4651)
(Change tool to Default tool)

G00 Z0.100000
G00 X46.988865 Y10.642666
M03 S35
G01 Z-1.000000 F800.0(Penetrate)
G01 X32.825297 Y18.832663 Z-1.000000 F2500.000000
G00 Z0.100000
M05
(End cutting path id: path4651)


(Start cutting path id: path4653)
(Change tool to Default tool)

G00 Z0.100000
G00 X49.556400 Y11.205447
M03 S35
G01 Z-1.000000 F800.0(Penetrate)
G01 X32.032262 Y21.338658 Z-1.000000 F2500.000000
G00 Z0.100000
M05
(End cutting path id: path4653)


(Start cutting path id: path4655)
(Change tool to Default tool)

G00 Z0.100000
G00 X51.615735 Y12.062067
M03 S35
G01 Z-1.000000 F800.0(Penetrate)
G01 X31.747426 Y23.550790 Z-1.000000 F2500.000000
G00 Z0.100000
M05
(End cutting path id: path4655)


(Start cutting path id: path4657)
(Change tool to Default tool)

G00 Z0.100000
G00 X53.334166 Y13.115838
M03 S35
G01 Z-1.000000 F800.0(Penetrate)
G01 X31.803494 Y25.565794 Z-1.000000 F2500.000000
G00 Z0.100000
M05
(End cutting path id: path4657)


(Start cutting path id: path4659)
(Change tool to Default tool)

G00 Z0.100000
G00 X54.786948 Y14.323217
M03 S35
G01 Z-1.000000 F800.0(Penetrate)
G01 X32.125212 Y27.427213 Z-1.000000 F2500.000000
G00 Z0.100000
M05
(End cutting path id: path4659)


(Start cutting path id: path4661)
(Change tool to Default tool)

G00 Z0.100000
G00 X56.012762 Y15.661819
M03 S35
G01 Z-1.000000 F800.0(Penetrate)
G01 X32.673897 Y29.157364 Z-1.000000 F2500.000000
G00 Z0.100000
M05
(End cutting path id: path4661)


(Start cutting path id: path4663)
(Change tool to Default tool)

G00 Z0.100000
G00 X57.031190 Y17.120358
M03 S35
G01 Z-1.000000 F800.0(Penetrate)
G01 X33.429969 Y30.767623 Z-1.000000 F2500.000000
G00 Z0.100000
M05
(End cutting path id: path4663)


(Start cutting path id: path4665)
(Change tool to Default tool)

G00 Z0.100000
G00 X57.849182 Y18.694785
M03 S35
G01 Z-1.000000 F800.0(Penetrate)
G01 X34.386476 Y32.261948 Z-1.000000 F2500.000000
G00 Z0.100000
M05
(End cutting path id: path4665)


(Start cutting path id: path4891)
(Change tool to Default tool)

G00 Z0.100000
G00 X63.894836 Y31.121749
M03 S35
G01 Z-1.000000 F800.0(Penetrate)
G01 X52.333599 Y42.698484 Z-1.000000 F2500.000000
G00 Z0.100000
M05
(End cutting path id: path4891)


(Start cutting path id: path4893)
(Change tool to Default tool)

G00 Z0.100000
G00 X66.520540 Y31.000827
M03 S35
G01 Z-1.000000 F800.0(Penetrate)
G01 X52.216195 Y45.324348 Z-1.000000 F2500.000000
G00 Z0.100000
M05
(End cutting path id: path4893)


(Start cutting path id: path4895)
(Change tool to Default tool)

G00 Z0.100000
G00 X68.731429 Y31.295276
M03 S35
G01 Z-1.000000 F800.0(Penetrate)
G01 X52.513605 Y47.534840 Z-1.000000 F2500.000000
G00 Z0.100000
M05
(End cutting path id: path4895)


(Start cutting path id: path5125)
(Change tool to Default tool)

G00 Z0.100000
G00 X74.018944 Y54.156057
M03 S35
G01 Z-1.000000 F800.0(Penetrate)
G01 X57.657930 Y54.167016 Z-1.000000 F2500.000000
G00 Z0.100000
M05
(End cutting path id: path5125)


(Start cutting path id: path5127)
(Change tool to Default tool)

G00 Z0.100000
G00 X75.961116 Y55.927200
M03 S35
G01 Z-1.000000 F800.0(Penetrate)
G01 X55.718133 Y55.940759 Z-1.000000 F2500.000000
G00 Z0.100000
M05
(End cutting path id: path5127)


(Start cutting path id: path5129)
(Change tool to Default tool)

G00 Z0.100000
G00 X77.316222 Y57.698737
M03 S35
G01 Z-1.000000 F800.0(Penetrate)
G01 X54.365401 Y57.714109 Z-1.000000 F2500.000000
G00 Z0.100000
M05
(End cutting path id: path5129)


(Start cutting path id: path5131)
(Change tool to Default tool)

G00 Z0.100000
G00 X78.277528 Y59.470537
M03 S35
G01 Z-1.000000 F800.0(Penetrate)
G01 X53.406470 Y59.487195 Z-1.000000 F2500.000000
G00 Z0.100000
M05
(End cutting path id: path5131)


(Start cutting path id: path5133)
(Change tool to Default tool)

G00 Z0.100000
G00 X78.931997 Y61.242542
M03 S35
G01 Z-1.000000 F800.0(Penetrate)
G01 X52.754375 Y61.260076 Z-1.000000 F2500.000000
G00 Z0.100000
M05
(End cutting path id: path5133)


(Start cutting path id: path5135)
(Change tool to Default tool)

G00 Z0.100000
G00 X79.324303 Y63.014723
M03 S35
G01 Z-1.000000 F800.0(Penetrate)
G01 X52.364443 Y63.032781 Z-1.000000 F2500.000000
G00 Z0.100000
M05
(End cutting path id: path5135)


(Start cutting path id: path5143)
(Change tool to Default tool)

G00 Z0.100000
G00 X78.515705 Y70.105041
M03 S35
G01 Z-1.000000 F800.0(Penetrate)
G01 X53.182539 Y70.122009 Z-1.000000 F2500.000000
G00 Z0.100000
M05
(End cutting path id: path5143)


(Start cutting path id: path5141)
(Change tool to Default tool)

G00 Z0.100000
G00 X79.083631 Y68.332216
M03 S35
G01 Z-1.000000 F800.0(Penetrate)
G01 X52.612238 Y68.349947 Z-1.000000 F2500.000000
G00 Z0.100000
M05
(End cutting path id: path5141)


(Start cutting path id: path5139)
(Change tool to Default tool)

G00 Z0.100000
G00 X79.398189 Y66.559562
M03 S35
G01 Z-1.000000 F800.0(Penetrate)
G01 X52.295306 Y66.577715 Z-1.000000 F2500.000000
G00 Z0.100000
M05
(End cutting path id: path5139)


(Start cutting path id: path5137)
(Change tool to Default tool)

G00 Z0.100000
G00 X79.477012 Y64.787065
M03 S35
G01 Z-1.000000 F800.0(Penetrate)
