%
(Header)
(Generated by gcodetools from Inkscape.)
(Using default header. To add your own header create file "header" in the output dir.)
M3
(Header end.)
G21 (All units in mm)

(Start cutting path id: path11595)
(Change tool to Default tool)
M05
G00 Z0.100000
G00 X123.290967 Y38.965480
M03 S35
G01 Z-1.000000 F800.0(Penetrate)
G02 X115.103935 Y30.100075 Z-1.000000 I-48.057539 J36.167227 F2500.000000
G02 X105.311955 Y23.047416 Z-1.000000 I-39.870508 J45.032632
G00 Z0.100000
M05
(End cutting path id: path11595)


(Start cutting path id: path11593)
(Change tool to Default tool)

G00 Z0.100000
G00 X105.231493 Y23.001022
M03 S35
G01 Z-1.000000 F800.0(Penetrate)
G01 X105.311940 Y23.047416 Z-1.000000 F2500.000000
G00 Z0.100000
M05
(End cutting path id: path11593)


(Start cutting path id: path11591)
(Change tool to Default tool)

G00 Z0.100000
G00 X82.446364 Y15.420311
M03 S35
G01 Z-1.000000 F800.0(Penetrate)
G02 X77.326921 Y15.022687 Z-1.000000 I-7.212993 J59.712378 F2500.000000
G02 X72.192220 Y15.063173 Z-1.000000 I-2.093551 J60.110002
G00 Z0.100000
M05
(End cutting path id: path11591)


(Start cutting path id: path11589)
(Change tool to Default tool)

G00 Z0.100000
G00 X82.446349 Y15.420296
M03 S35
G01 Z-1.000000 F800.0(Penetrate)
G01 X123.290952 Y38.965480 Z-1.000000 F2500.000000
G00 Z0.100000
M05
(End cutting path id: path11589)


(Start cutting path id: path11587)
(Change tool to Default tool)

G00 Z0.100000
G00 X131.929045 Y55.052858
M03 S35
G01 Z-1.000000 F800.0(Penetrate)
G02 X130.457853 Y51.302973 Z-1.000000 I-56.695633 J20.079855 F2500.000000
G02 X128.738962 Y47.659972 Z-1.000000 I-55.224441 J23.829739
G00 Z0.100000
M05
(End cutting path id: path11587)


(Start cutting path id: path11585)
(Change tool to Default tool)

G00 Z0.100000
G00 X72.192220 Y15.063173
M03 S35
G01 Z-1.000000 F800.0(Penetrate)
G01 X128.738962 Y47.659972 Z-1.000000 F2500.000000
G00 Z0.100000
M05
(End cutting path id: path11585)


(Start cutting path id: path11583)
(Change tool to Default tool)

G00 Z0.100000
G00 X64.196005 Y16.007641
M03 S35
G01 Z-1.000000 F800.0(Penetrate)
G02 X60.800362 Y16.743625 Z-1.000000 I11.037396 J59.125047 F2500.000000
G02 X57.452883 Y17.674456 Z-1.000000 I14.433039 J58.389063
G00 Z0.100000
M05
(End cutting path id: path11583)


(Start cutting path id: path11581)
(Change tool to Default tool)

G00 Z0.100000
G00 X64.196005 Y16.007641
M03 S35
G01 Z-1.000000 F800.0(Penetrate)
G01 X131.929045 Y55.052858 Z-1.000000 F2500.000000
G00 Z0.100000
M05
(End cutting path id: path11581)


(Start cutting path id: path11579)
(Change tool to Default tool)

G00 Z0.100000
G00 X134.943183 Y67.898274
M03 S35
G01 Z-1.000000 F800.0(Penetrate)
G02 X134.485110 Y64.796794 Z-1.000000 I-59.709803 J7.234280 F2500.000000
G02 X133.866049 Y61.723397 Z-1.000000 I-59.251729 J10.335760
G00 Z0.100000
M05
(End cutting path id: path11579)


(Start cutting path id: path11577)
(Change tool to Default tool)

G00 Z0.100000
G00 X57.452868 Y17.674456
M03 S35
G01 Z-1.000000 F800.0(Penetrate)
G01 X133.866034 Y61.723397 Z-1.000000 F2500.000000
G00 Z0.100000
M05
(End cutting path id: path11577)


(Start cutting path id: path11575)
(Change tool to Default tool)

G00 Z0.100000
G00 X51.569602 Y19.836932
M03 S35
G01 Z-1.000000 F800.0(Penetrate)
G02 X48.926099 Y21.044599 Z-1.000000 I23.663869 J55.295720 F2500.000000
G02 X46.344020 Y22.378553 Z-1.000000 I26.307372 J54.088054
G00 Z0.100000
M05
(End cutting path id: path11575)


(Start cutting path id: path11573)
(Change tool to Default tool)

G00 Z0.100000
G00 X51.569602 Y19.836932
M03 S35
G01 Z-1.000000 F800.0(Penetrate)
G01 X134.943198 Y67.898274 Z-1.000000 F2500.000000
G00 Z0.100000
M05
(End cutting path id: path11573)


(Start cutting path id: path11571)
(Change tool to Default tool)

G00 Z0.100000
G00 X135.243562 Y79.179338
M03 S35
G01 Z-1.000000 F800.0(Penetrate)
G02 X135.365684 Y76.438031 Z-1.000000 I-60.010158 J-4.046760 F2500.000000
G02 X135.362647 Y73.694006 Z-1.000000 I-60.132280 J-1.305453
G00 Z0.100000
M05
(End cutting path id: path11571)


(Start cutting path id: path11569)
(Change tool to Default tool)

G00 Z0.100000
G00 X46.344005 Y22.378553
M03 S35
G01 Z-1.000000 F800.0(Penetrate)
G01 X135.362632 Y73.694006 Z-1.000000 F2500.000000
G00 Z0.100000
M05
(End cutting path id: path11569)


(Start cutting path id: path11567)
(Change tool to Default tool)

G00 Z0.100000
G00 X41.656957 Y25.230605
M03 S35
G01 Z-1.000000 F800.0(Penetrate)
G02 X39.510660 Y26.743833 Z-1.000000 I33.576435 J49.902088 F2500.000000
G02 X37.432464 Y28.349307 Z-1.000000 I35.722732 J48.388860
G00 Z0.100000
M05
(End cutting path id: path11567)


(Start cutting path id: path11565)
(Change tool to Default tool)

G00 Z0.100000
G00 X41.656942 Y25.230605
M03 S35
G01 Z-1.000000 F800.0(Penetrate)
G01 X135.243577 Y79.179323 Z-1.000000 F2500.000000
G00 Z0.100000
M05
(End cutting path id: path11565)


(Start cutting path id: path11563)
(Change tool to Default tool)

G00 Z0.100000
G00 X133.668271 Y89.379113
M03 S35
G01 Z-1.000000 F800.0(Penetrate)
G02 X134.217701 Y86.899053 Z-1.000000 I-58.434862 J-14.246483 F2500.000000
G02 X134.661923 Y84.398005 Z-1.000000 I-58.984292 J-11.766422
G00 Z0.100000
M05
(End cutting path id: path11563)


(Start cutting path id: path11561)
(Change tool to Default tool)

G00 Z0.100000
G00 X37.432464 Y28.349322
M03 S35
G01 Z-1.000000 F800.0(Penetrate)
G01 X134.661938 Y84.397960 Z-1.000000 F2500.000000
G00 Z0.100000
M05
(End cutting path id: path11561)


(Start cutting path id: path11559)
(Change tool to Default tool)

G00 Z0.100000
G00 X33.619998 Y31.705507
M03 S35
G01 Z-1.000000 F800.0(Penetrate)
G02 X31.865864 Y33.457129 Z-1.000000 I41.613384 J43.427199 F2500.000000
G02 X30.185397 Y35.279545 Z-1.000000 I43.367518 J41.675577
G00 Z0.100000
M05
(End cutting path id: path11559)


(Start cutting path id: path11557)
(Change tool to Default tool)

G00 Z0.100000
G00 X33.619983 Y31.705522
M03 S35
G01 Z-1.000000 F800.0(Penetrate)
G01 X133.668271 Y89.379113 Z-1.000000 F2500.000000
G00 Z0.100000
M05
(End cutting path id: path11557)


(Start cutting path id: path11555)
(Change tool to Default tool)

G00 Z0.100000
G00 X130.569935 Y98.700943
M03 S35
G01 Z-1.000000 F800.0(Penetrate)
G02 X131.479545 Y96.439187 Z-1.000000 I-55.336464 J-23.568434 F2500.000000
G02 X132.296754 Y94.142429 Z-1.000000 I-56.246074 J-21.306678
G00 Z0.100000
M05
(End cutting path id: path11555)


(Start cutting path id: path11553)
(Change tool to Default tool)

G00 Z0.100000
G00 X30.185382 Y35.279560
M03 S35
G01 Z-1.000000 F800.0(Penetrate)
G01 X132.296754 Y94.142429 Z-1.000000 F2500.000000
G00 Z0.100000
M05
(End cutting path id: path11553)


(Start cutting path id: path11551)
(Change tool to Default tool)

G00 Z0.100000
G00 X27.106054 Y39.058400
M03 S35
G01 Z-1.000000 F800.0(Penetrate)
G02 X25.697198 Y41.018754 Z-1.000000 I48.127331 J36.074304 F2500.000000
G02 X24.368143 Y43.034065 Z-1.000000 I49.536187 J34.113949
G00 Z0.100000
M05
(End cutting path id: path11551)


(Start cutting path id: path11549)
(Change tool to Default tool)

G00 Z0.100000
G00 X27.106054 Y39.058400
M03 S35
G01 Z-1.000000 F800.0(Penetrate)
G01 X130.569950 Y98.700943 Z-1.000000 F2500.000000
G00 Z0.100000
M05
(End cutting path id: path11549)


(Start cutting path id: path11547)
(Change tool to Default tool)

G00 Z0.100000
G00 X126.098647 Y107.231323
M03 S35
G01 Z-1.000000 F800.0(Penetrate)
G02 X127.341876 Y105.171032 Z-1.000000 I-50.865284 J-32.098571 F2500.000000
G02 X128.501698 Y103.062661 Z-1.000000 I-52.108513 J-30.038280
G00 Z0.100000
M05
(End cutting path id: path11547)


(Start cutting path id: path11545)
(Change tool to Default tool)

G00 Z0.100000
G00 X24.368143 Y43.034065
M03 S35
G01 Z-1.000000 F800.0(Penetrate)
G01 X128.501713 Y103.062646 Z-1.000000 F2500.000000
G00 Z0.100000
M05
(End cutting path id: path11545)


(Start cutting path id: path11543)
(Change tool to Default tool)

G00 Z0.100000
G00 X21.965092 Y47.202742
M03 S35
G01 Z-1.000000 F800.0(Penetrate)
G02 X20.887198 Y49.362844 Z-1.000000 I53.268312 J27.929954 F2500.000000
G02 X19.896855 Y51.564460 Z-1.000000 I54.346206 J25.769852
G00 Z0.100000
M05
(End cutting path id: path11543)


(Start cutting path id: path11541)
(Change tool to Default tool)

G00 Z0.100000
G00 X21.965077 Y47.202742
M03 S35
G01 Z-1.000000 F800.0(Penetrate)
G01 X126.098647 Y107.231323 Z-1.000000 F2500.000000
G00 Z0.100000
M05
(End cutting path id: path11541)


(Start cutting path id: path11539)
(Change tool to Default tool)

G00 Z0.100000
G00 X120.281393 Y114.985843
M03 S35
G01 Z-1.000000 F800.0(Penetrate)
G02 X121.859363 Y113.127625 Z-1.000000 I-45.047988 J-39.853157 F2500.000000
G02 X123.360736 Y111.206989 Z-1.000000 I-46.625958 J-37.994939
G00 Z0.100000
M05
(End cutting path id: path11539)


(Start cutting path id: path11537)
(Change tool to Default tool)

G00 Z0.100000
G00 X19.896855 Y51.564460
M03 S35
G01 Z-1.000000 F800.0(Penetrate)
G01 X123.360736 Y111.206989 Z-1.000000 F2500.000000
G00 Z0.100000
M05
(End cutting path id: path11537)


(Start cutting path id: path11535)
(Change tool to Default tool)

G00 Z0.100000
G00 X18.170051 Y56.122959
M03 S35
G01 Z-1.000000 F800.0(Penetrate)
G02 X17.435194 Y58.490482 Z-1.000000 I57.063346 J19.009731 F2500.000000
G02 X16.798519 Y60.886275 Z-1.000000 I57.798203 J16.642208
G00 Z0.100000
M05
(End cutting path id: path11535)


(Start cutting path id: path11533)
(Change tool to Default tool)

G00 Z0.100000
G00 X18.170051 Y56.122974
M03 S35
G01 Z-1.000000 F800.0(Penetrate)
G01 X120.281408 Y114.985828 Z-1.000000 F2500.000000
G00 Z0.100000
M05
(End cutting path id: path11533)


(Start cutting path id: path11531)
(Change tool to Default tool)

G00 Z0.100000
G00 X113.034341 Y121.916066
M03 S35
G01 Z-1.000000 F800.0(Penetrate)
G02 X114.976018 Y120.278229 Z-1.000000 I-37.800952 J-46.783367 F2500.000000
G02 X116.846807 Y118.559866 Z-1.000000 I-39.742629 J-45.145529
G00 Z0.100000
M05
(End cutting path id: path11531)


(Start cutting path id: path11529)
(Change tool to Default tool)

G00 Z0.100000
G00 X16.798519 Y60.886275
M03 S35
G01 Z-1.000000 F800.0(Penetrate)
G01 X116.846807 Y118.559866 Z-1.000000 F2500.000000
G00 Z0.100000
M05
(End cutting path id: path11529)


(Start cutting path id: path11527)
(Change tool to Default tool)

G00 Z0.100000
G00 X15.804867 Y65.867413
M03 S35
G01 Z-1.000000 F800.0(Penetrate)
G02 X15.457070 Y68.470389 Z-1.000000 I59.428527 J9.265284 F2500.000000
G02 X15.223228 Y71.086065 Z-1.000000 I59.776325 J6.662308
G00 Z0.100000
M05
(End cutting path id: path11527)


(Start cutting path id: path11525)
(Change tool to Default tool)

G00 Z0.100000
G00 X15.804867 Y65.867413
M03 S35
G01 Z-1.000000 F800.0(Penetrate)
G01 X113.034326 Y121.916081 Z-1.000000 F2500.000000
G00 Z0.100000
M05
(End cutting path id: path11525)


(Start cutting path id: path11523)
(Change tool to Default tool)

G00 Z0.100000
G00 X104.122755 Y127.886835
M03 S35
G01 Z-1.000000 F800.0(Penetrate)
G02 X106.498832 Y126.514275 Z-1.000000 I-28.889390 J-52.754132 F2500.000000
G02 X108.809833 Y125.034768 Z-1.000000 I-31.265467 J-51.381572
G00 Z0.100000
M05
(End cutting path id: path11523)


(Start cutting path id: path11521)
(Change tool to Default tool)

G00 Z0.100000
G00 X15.223228 Y71.086080
M03 S35
G01 Z-1.000000 F800.0(Penetrate)
G01 X108.809848 Y125.034783 Z-1.000000 F2500.000000
G00 Z0.100000
M05
(End cutting path id: path11521)


(Start cutting path id: path11519)
(Change tool to Default tool)

G00 Z0.100000
G00 X15.104158 Y76.571367
M03 S35
G01 Z-1.000000 F800.0(Penetrate)
G02 X15.243857 Y79.474302 Z-1.000000 I60.129238 J-1.438785 F2500.000000
G02 X15.523622 Y82.367100 Z-1.000000 I59.989539 J-4.341720
G00 Z0.100000
M05
(End cutting path id: path11519)


(Start cutting path id: path11517)
(Change tool to Default tool)

G00 Z0.100000
G00 X15.104158 Y76.571382
M03 S35
G01 Z-1.000000 F800.0(Penetrate)
G01 X104.122770 Y127.886835 Z-1.000000 F2500.000000
G00 Z0.100000
M05
(End cutting path id: path11517)


(Start cutting path id: path11515)
(Change tool to Default tool)

G00 Z0.100000
G00 X93.013892 Y132.590933
M03 S35
G01 Z-1.000000 F800.0(Penetrate)
G02 X95.983730 Y131.586380 Z-1.000000 I-17.780538 J-57.458227 F2500.000000
G02 X98.897188 Y130.428441 Z-1.000000 I-20.750376 J-56.453673
G00 Z0.100000
M05
(End cutting path id: path11515)


(Start cutting path id: path11513)
(Change tool to Default tool)

G00 Z0.100000
G00 X15.523622 Y82.367115
M03 S35
G01 Z-1.000000 F800.0(Penetrate)
G01 X98.897188 Y130.428441 Z-1.000000 F2500.000000
G00 Z0.100000
M05
(End cutting path id: path11513)


(Start cutting path id: path11511)
(Change tool to Default tool)

G00 Z0.100000
G00 X16.600771 Y88.541991
M03 S35
G01 Z-1.000000 F800.0(Penetrate)
G02 X17.472891 Y91.905239 Z-1.000000 I58.632643 J-13.409271 F2500.000000
G02 X18.537760 Y95.212516 Z-1.000000 I57.760523 J-16.772518
G00 Z0.100000
M05
(End cutting path id: path11511)


(Start cutting path id: path11509)
(Change tool to Default tool)

G00 Z0.100000
G00 X16.600771 Y88.542006
M03 S35
G01 Z-1.000000 F800.0(Penetrate)
G01 X93.013907 Y132.590933 Z-1.000000 F2500.000000
G00 Z0.100000
M05
(End cutting path id: path11509)


(Start cutting path id: path11507)
(Change tool to Default tool)

G00 Z0.100000
G00 X78.274540 Y135.202200
M03 S35
G01 Z-1.000000 F800.0(Penetrate)
G02 X82.288477 Y134.863923 Z-1.000000 I-3.041165 J-60.069515 F2500.000000
G02 X86.270770 Y134.257732 Z-1.000000 I-7.055103 J-59.731239
G00 Z0.100000
M05
(End cutting path id: path11507)


(Start cutting path id: path11505)
(Change tool to Default tool)

G00 Z0.100000
G00 X18.537760 Y95.212531
M03 S35
G01 Z-1.000000 F800.0(Penetrate)
G01 X86.270786 Y134.257732 Z-1.000000 F2500.000000
G00 Z0.100000
M05
(End cutting path id: path11505)


(Start cutting path id: path11503)
(Change tool to Default tool)

G00 Z0.100000
G00 X21.727858 Y102.605431
M03 S35
G01 Z-1.000000 F800.0(Penetrate)
G02 X24.266127 Y107.069054 Z-1.000000 I53.505535 J-27.472770 F2500.000000
G02 X27.175869 Y111.299908 Z-1.000000 I50.967266 J-31.936392
G00 Z0.100000
M05
(End cutting path id: path11503)


(Start cutting path id: path11501)
(Change tool to Default tool)

G00 Z0.100000
G00 X21.727858 Y102.605431
M03 S35
G01 Z-1.000000 F800.0(Penetrate)
G01 X78.274555 Y135.202200 Z-1.000000 F2500.000000
G00 Z0.100000
M05
(End cutting path id: path11501)


(Start cutting path id: path11499)
(Change tool to Default tool)

G00 Z0.100000
G00 X45.195074 Y127.241177
M03 S35
G01 Z-1.000000 F800.0(Penetrate)
G02 X56.223668 Y132.196033 Z-1.000000 I30.038309 J-52.108496 F2500.000000
G02 X68.020411 Y134.845062 Z-1.000000 I19.009715 J-57.063352
G00 Z0.100000
M05
(End cutting path id: path11499)


(Start cutting path id: path11497)
(Change tool to Default tool)

G00 Z0.100000
G00 X27.175869 Y111.299923
M03 S35
G01 Z-1.000000 F800.0(Penetrate)
G01 X68.020411 Y134.845062 Z-1.000000 F2500.000000
G00 Z0.100000
M05
(End cutting path id: path11497)


(Start cutting path id: path11495)
(Change tool to Default tool)

G00 Z0.100000
G00 X45.195074 Y127.241177
M03 S35
G01 Z-1.000000 F800.0(Penetrate)
G01 X45.195074 Y127.241177 Z-1.000000 F2500.000000
G00 Z0.100000
M05
(End cutting path id: path11495)


(Footer)
M5
G00 X0.0000 Y0.0000
M2
(Using default footer. To add your own footer create file "footer" in the output dir.)
(end)
%