%
(Header)
(Generated by gcodetools from Inkscape.)
(Using default header. To add your own header create file "header" in the output dir.)
M3
(Header end.)
G21 (All units in mm)

(Start cutting path id: path19990)
(Change tool to Default tool)
M05
G00 Z0.100000
G00 X193.554240 Y147.771237
M03 S35
G01 Z-1.000000 F800.0(Penetrate)
G01 X186.395950 Y160.188958 Z-1.000000 F2500.000000
G00 Z0.100000
M05
(End cutting path id: path19990)


(Start cutting path id: path19988)
(Change tool to Default tool)

G00 Z0.100000
G00 X193.009914 Y145.845192
M03 S35
G01 Z-1.000000 F800.0(Penetrate)
G01 X184.456455 Y160.683176 Z-1.000000 F2500.000000
G00 Z0.100000
M05
(End cutting path id: path19988)


(Start cutting path id: path19986)
(Change tool to Default tool)

G00 Z0.100000
G00 X192.260489 Y144.274938
M03 S35
G01 Z-1.000000 F800.0(Penetrate)
G01 X182.722043 Y160.821604 Z-1.000000 F2500.000000
G00 Z0.100000
M05
(End cutting path id: path19986)


(Start cutting path id: path19984)
(Change tool to Default tool)

G00 Z0.100000
G00 X191.365549 Y142.957112
M03 S35
G01 Z-1.000000 F800.0(Penetrate)
G01 X181.133144 Y160.707603 Z-1.000000 F2500.000000
G00 Z0.100000
M05
(End cutting path id: path19984)


(Start cutting path id: path19982)
(Change tool to Default tool)

G00 Z0.100000
G00 X190.353511 Y141.842424
M03 S35
G01 Z-1.000000 F800.0(Penetrate)
G01 X179.661362 Y160.390446 Z-1.000000 F2500.000000
G00 Z0.100000
M05
(End cutting path id: path19982)


(Start cutting path id: path19966)
(Change tool to Default tool)

G00 Z0.100000
G00 X178.376299 Y139.657205
M03 S35
G01 Z-1.000000 F800.0(Penetrate)
G01 X171.767867 Y151.121066 Z-1.000000 F2500.000000
G00 Z0.100000
M05
(End cutting path id: path19966)


(Start cutting path id: path19968)
(Change tool to Default tool)

G00 Z0.100000
G00 X180.402199 Y139.013112
M03 S35
G01 Z-1.000000 F800.0(Penetrate)
G01 X172.225787 Y153.196987 Z-1.000000 F2500.000000
G00 Z0.100000
M05
(End cutting path id: path19968)


(Start cutting path id: path19970)
(Change tool to Default tool)

G00 Z0.100000
G00 X182.190984 Y138.780350
M03 S35
G01 Z-1.000000 F800.0(Penetrate)
G01 X172.920840 Y154.861576 Z-1.000000 F2500.000000
G00 Z0.100000
M05
(End cutting path id: path19970)


(Start cutting path id: path19972)
(Change tool to Default tool)

G00 Z0.100000
G00 X183.820708 Y138.823512
M03 S35
G01 Z-1.000000 F800.0(Penetrate)
G01 X173.774955 Y156.250240 Z-1.000000 F2500.000000
G00 Z0.100000
M05
(End cutting path id: path19972)


(Start cutting path id: path19974)
(Change tool to Default tool)

G00 Z0.100000
G00 X185.326506 Y139.081690
M03 S35
G01 Z-1.000000 F800.0(Penetrate)
G01 X174.753014 Y157.423890 Z-1.000000 F2500.000000
G00 Z0.100000
M05
(End cutting path id: path19974)


(Start cutting path id: path19976)
(Change tool to Default tool)

G00 Z0.100000
G00 X186.726385 Y139.523554
M03 S35
G01 Z-1.000000 F800.0(Penetrate)
G01 X175.836955 Y158.413853 Z-1.000000 F2500.000000
G00 Z0.100000
M05
(End cutting path id: path19976)


(Start cutting path id: path19978)
(Change tool to Default tool)

G00 Z0.100000
G00 X188.029524 Y140.133311
M03 S35
G01 Z-1.000000 F800.0(Penetrate)
G01 X177.017673 Y159.235922 Z-1.000000 F2500.000000
G00 Z0.100000
M05
(End cutting path id: path19978)


(Start cutting path id: path19980)
(Change tool to Default tool)

G00 Z0.100000
G00 X189.239117 Y140.905281
M03 S35
G01 Z-1.000000 F800.0(Penetrate)
G01 X178.291900 Y159.895779 Z-1.000000 F2500.000000
G00 Z0.100000
M05
(End cutting path id: path19980)


(Start cutting path id: path19870)
(Change tool to Default tool)

G00 Z0.100000
G00 X210.237821 Y134.094339
M03 S35
G01 Z-1.000000 F800.0(Penetrate)
G01 X200.109504 Y144.236232 Z-1.000000 F2500.000000
G00 Z0.100000
M05
(End cutting path id: path19870)


(Start cutting path id: path19868)
(Change tool to Default tool)

G00 Z0.100000
G00 X210.210531 Y132.093039
M03 S35
G01 Z-1.000000 F800.0(Penetrate)
G01 X198.108169 Y144.211623 Z-1.000000 F2500.000000
G00 Z0.100000
M05
(End cutting path id: path19868)


(Start cutting path id: path19866)
(Change tool to Default tool)

G00 Z0.100000
G00 X209.893061 Y130.382307
M03 S35
G01 Z-1.000000 F800.0(Penetrate)
G01 X196.397014 Y143.896446 Z-1.000000 F2500.000000
G00 Z0.100000
M05
(End cutting path id: path19866)


(Start cutting path id: path19864)
(Change tool to Default tool)

G00 Z0.100000
G00 X209.369693 Y128.877768
M03 S35
G01 Z-1.000000 F800.0(Penetrate)
G01 X194.891775 Y143.375075 Z-1.000000 F2500.000000
G00 Z0.100000
M05
(End cutting path id: path19864)


(Start cutting path id: path19862)
(Change tool to Default tool)

G00 Z0.100000
G00 X208.680629 Y127.539128
M03 S35
G01 Z-1.000000 F800.0(Penetrate)
G01 X193.552232 Y142.687805 Z-1.000000 F2500.000000
G00 Z0.100000
M05
(End cutting path id: path19862)


(Start cutting path id: path19846)
(Change tool to Default tool)

G00 Z0.100000
G00 X197.677120 Y122.328427
M03 S35
G01 Z-1.000000 F800.0(Penetrate)
G01 X188.326777 Y131.691286 Z-1.000000 F2500.000000
G00 Z0.100000
M05
(End cutting path id: path19846)


(Start cutting path id: path19848)
(Change tool to Default tool)

G00 Z0.100000
G00 X199.800697 Y122.230630
M03 S35
G01 Z-1.000000 F800.0(Penetrate)
G01 X188.231824 Y133.814992 Z-1.000000 F2500.000000
G00 Z0.100000
M05
(End cutting path id: path19848)


(Start cutting path id: path19850)
(Change tool to Default tool)

G00 Z0.100000
G00 X201.588768 Y122.468770
M03 S35
G01 Z-1.000000 F800.0(Penetrate)
G01 X188.472360 Y135.602762 Z-1.000000 F2500.000000
G00 Z0.100000
M05
(End cutting path id: path19850)


(Start cutting path id: path19852)
(Change tool to Default tool)

G00 Z0.100000
G00 X203.151768 Y122.932284
M03 S35
G01 Z-1.000000 F800.0(Penetrate)
G01 X188.937967 Y137.165157 Z-1.000000 F2500.000000
G00 Z0.100000
M05
(End cutting path id: path19852)


(Start cutting path id: path19854)
(Change tool to Default tool)

G00 Z0.100000
G00 X204.539447 Y123.571372
M03 S35
G01 Z-1.000000 F800.0(Penetrate)
G01 X189.578913 Y138.551960 Z-1.000000 F2500.000000
G00 Z0.100000
M05
(End cutting path id: path19854)


(Start cutting path id: path19856)
(Change tool to Default tool)

G00 Z0.100000
G00 X205.777262 Y124.360506
M03 S35
G01 Z-1.000000 F800.0(Penetrate)
G01 X190.369724 Y139.788735 Z-1.000000 F2500.000000
G00 Z0.100000
M05
(End cutting path id: path19856)


(Start cutting path id: path19858)
(Change tool to Default tool)

G00 Z0.100000
G00 X206.878160 Y125.286741
M03 S35
G01 Z-1.000000 F800.0(Penetrate)
G01 X191.297414 Y140.888392 Z-1.000000 F2500.000000
G00 Z0.100000
M05
(End cutting path id: path19858)


(Start cutting path id: path19860)
(Change tool to Default tool)

G00 Z0.100000
G00 X207.846751 Y126.345497
M03 S35
G01 Z-1.000000 F800.0(Penetrate)
G01 X192.357448 Y141.855563 Z-1.000000 F2500.000000
G00 Z0.100000
M05
(End cutting path id: path19860)


(Start cutting path id: path19636)
(Change tool to Default tool)

G00 Z0.100000
G00 X160.440483 Y98.172586
M03 S35
G01 Z-1.000000 F800.0(Penetrate)
G01 X153.282174 Y110.590307 Z-1.000000 F2500.000000
G00 Z0.100000
M05
(End cutting path id: path19636)


(Start cutting path id: path19634)
(Change tool to Default tool)

G00 Z0.100000
G00 X159.896139 Y96.246541
M03 S35
G01 Z-1.000000 F800.0(Penetrate)
G01 X151.342680 Y111.084525 Z-1.000000 F2500.000000
G00 Z0.100000
M05
(End cutting path id: path19634)


(Start cutting path id: path19632)
(Change tool to Default tool)

G00 Z0.100000
G00 X159.146713 Y94.676287
M03 S35
G01 Z-1.000000 F800.0(Penetrate)
G01 X149.608268 Y111.222953 Z-1.000000 F2500.000000
G00 Z0.100000
M05
(End cutting path id: path19632)


(Start cutting path id: path19630)
(Change tool to Default tool)

G00 Z0.100000
G00 X158.251774 Y93.358461
M03 S35
G01 Z-1.000000 F800.0(Penetrate)
G01 X148.019369 Y111.108952 Z-1.000000 F2500.000000
G00 Z0.100000
M05
(End cutting path id: path19630)


(Start cutting path id: path19754)
(Change tool to Default tool)

G00 Z0.100000
G00 X127.436692 Y115.125522
M03 S35
G01 Z-1.000000 F800.0(Penetrate)
G01 X114.913020 Y127.665982 Z-1.000000 F2500.000000
G00 Z0.100000
M05
(End cutting path id: path19754)


(Start cutting path id: path19838)
(Change tool to Default tool)

G00 Z0.100000
G00 X110.290050 Y129.341006
M03 S35
G01 Z-1.000000 F800.0(Penetrate)
G01 X91.430449 Y140.246459 Z-1.000000 F2500.000000
G00 Z0.100000
M05
(End cutting path id: path19838)


(Start cutting path id: path19816)
(Change tool to Default tool)

G00 Z0.100000
G00 X91.569663 Y140.794675
M03 S35
G01 Z-1.000000 F800.0(Penetrate)
G01 X75.977392 Y125.223278 Z-1.000000 F2500.000000
G00 Z0.100000
M05
(End cutting path id: path19816)


(Start cutting path id: path19788)
(Change tool to Default tool)

G00 Z0.100000
G00 X74.947446 Y125.770385
M03 S35
G01 Z-1.000000 F800.0(Penetrate)
G01 X56.364475 Y136.515854 Z-1.000000 F2500.000000
G00 Z0.100000
M05
(End cutting path id: path19788)


(Start cutting path id: path19776)
(Change tool to Default tool)

G00 Z0.100000
G00 X57.137471 Y124.628336
M03 S35
G01 Z-1.000000 F800.0(Penetrate)
G01 X57.149139 Y142.048823 Z-1.000000 F2500.000000
G00 Z0.100000
M05
(End cutting path id: path19776)


(Start cutting path id: path19916)
(Change tool to Default tool)

G00 Z0.100000
G00 X68.553377 Y138.965208
M03 S35
G01 Z-1.000000 F800.0(Penetrate)
G01 X56.671217 Y145.835985 Z-1.000000 F2500.000000
G00 Z0.100000
M05
(End cutting path id: path19916)


(Start cutting path id: path19914)
(Change tool to Default tool)

G00 Z0.100000
G00 X43.391734 Y144.363698
M03 S35
G01 Z-1.000000 F800.0(Penetrate)
G01 X33.846973 Y160.921303 Z-1.000000 F2500.000000
G00 Z0.100000
M05
(End cutting path id: path19914)


(Start cutting path id: path19890)
(Change tool to Default tool)

G00 Z0.100000
G00 X28.310812 Y149.120325
M03 S35
G01 Z-1.000000 F800.0(Penetrate)
G01 X11.144757 Y159.046488 Z-1.000000 F2500.000000
G00 Z0.100000
M05
(End cutting path id: path19890)


(Start cutting path id: path19888)
(Change tool to Default tool)

G00 Z0.100000
G00 X27.476941 Y145.631823
M03 S35
G01 Z-1.000000 F800.0(Penetrate)
G01 X8.537260 Y156.583568 Z-1.000000 F2500.000000
G00 Z0.100000
M05
(End cutting path id: path19888)


(Start cutting path id: path19872)
(Change tool to Default tool)

G00 Z0.100000
G00 X18.134827 Y138.909440
M03 S35
G01 Z-1.000000 F800.0(Penetrate)
G01 X7.371220 Y145.133423 Z-1.000000 F2500.000000
G00 Z0.100000
M05
(End cutting path id: path19872)


(Start cutting path id: path19876)
(Change tool to Default tool)

G00 Z0.100000
G00 X20.171406 Y139.255900
M03 S35
G01 Z-1.000000 F800.0(Penetrate)
G01 X6.655571 Y147.071339 Z-1.000000 F2500.000000
G00 Z0.100000
M05
(End cutting path id: path19876)


(Start cutting path id: path19874)
(Change tool to Default tool)

G00 Z0.100000
G00 X21.326759 Y139.635552
M03 S35
G01 Z-1.000000 F800.0(Penetrate)
G01 X6.408282 Y148.262092 Z-1.000000 F2500.000000
G00 Z0.100000
M05
(End cutting path id: path19874)


(Start cutting path id: path19878)
(Change tool to Default tool)

G00 Z0.100000
G00 X21.624566 Y139.757016
M03 S35
G01 Z-1.000000 F800.0(Penetrate)
G01 X6.364977 Y148.580760 Z-1.000000 F2500.000000
G00 Z0.100000
M05
(End cutting path id: path19878)


(Start cutting path id: path19882)
(Change tool to Default tool)

G00 Z0.100000
G00 X24.982649 Y141.983936
M03 S35
G01 Z-1.000000 F800.0(Penetrate)
G01 X6.619909 Y152.602064 Z-1.000000 F2500.000000
G00 Z0.100000
M05
(End cutting path id: path19882)


(Start cutting path id: path19880)
(Change tool to Default tool)

G00 Z0.100000
G00 X25.931346 Y143.028224
M03 S35
G01 Z-1.000000 F800.0(Penetrate)
G01 X7.051738 Y153.945249 Z-1.000000 F2500.000000
G00 Z0.100000
M05
(End cutting path id: path19880)


(Start cutting path id: path19886)
(Change tool to Default tool)

G00 Z0.100000
G00 X26.010144 Y143.128166
M03 S35
G01 Z-1.000000 F800.0(Penetrate)
G01 X7.099049 Y154.063389 Z-1.000000 F2500.000000
G00 Z0.100000
M05
(End cutting path id: path19886)


(Start cutting path id: path19884)
(Change tool to Default tool)

G00 Z0.100000
G00 X27.076612 Y144.782748
M03 S35
G01 Z-1.000000 F800.0(Penetrate)
G01 X8.001078 Y155.813058 Z-1.000000 F2500.000000
G00 Z0.100000
M05
(End cutting path id: path19884)


(Start cutting path id: path19896)
(Change tool to Default tool)

G00 Z0.100000
G00 X30.081000 Y139.532561
M03 S35
G01 Z-1.000000 F800.0(Penetrate)
G01 X22.995512 Y151.823994 Z-1.000000 F2500.000000
G00 Z0.100000
M05
(End cutting path id: path19896)


(Start cutting path id: path19894)
(Change tool to Default tool)

G00 Z0.100000
G00 X30.347713 Y139.439334
M03 S35
G01 Z-1.000000 F800.0(Penetrate)
G01 X23.048516 Y152.101504 Z-1.000000 F2500.000000
G00 Z0.100000
M05
(End cutting path id: path19894)


(Start cutting path id: path19892)
(Change tool to Default tool)

G00 Z0.100000
G00 X30.780372 Y139.304130
M03 S35
G01 Z-1.000000 F800.0(Penetrate)
G01 X23.148348 Y152.543669 Z-1.000000 F2500.000000
G00 Z0.100000
M05
(End cutting path id: path19892)


(Start cutting path id: path19898)
(Change tool to Default tool)

G00 Z0.100000
G00 X33.552251 Y138.871694
M03 S35
G01 Z-1.000000 F800.0(Penetrate)
G01 X24.163284 Y155.159036 Z-1.000000 F2500.000000
G00 Z0.100000
M05
(End cutting path id: path19898)


(Start cutting path id: path19902)
(Change tool to Default tool)

G00 Z0.100000
G00 X35.229380 Y138.953952
M03 S35
G01 Z-1.000000 F800.0(Penetrate)
G01 X25.074973 Y156.569128 Z-1.000000 F2500.000000
G00 Z0.100000
M05
(End cutting path id: path19902)


(Start cutting path id: path19900)
(Change tool to Default tool)

G00 Z0.100000
G00 X35.401561 Y138.976993
M03 S35
G01 Z-1.000000 F800.0(Penetrate)
G01 X25.181217 Y156.706580 Z-1.000000 F2500.000000
G00 Z0.100000
M05
(End cutting path id: path19900)


(Start cutting path id: path19904)
(Change tool to Default tool)

G00 Z0.100000
G00 X39.475067 Y140.408949
M03 S35
G01 Z-1.000000 F800.0(Penetrate)
G01 X28.461840 Y159.513969 Z-1.000000 F2500.000000
G00 Z0.100000
M05
(End cutting path id: path19904)


(Start cutting path id: path19912)
(Change tool to Default tool)

G00 Z0.100000
G00 X41.931155 Y142.389638
M03 S35
G01 Z-1.000000 F800.0(Penetrate)
G01 X31.406712 Y160.646714 Z-1.000000 F2500.000000
G00 Z0.100000
M05
(End cutting path id: path19912)


(Start cutting path id: path19910)
(Change tool to Default tool)

G00 Z0.100000
G00 X40.517574 Y141.110129
M03 S35
G01 Z-1.000000 F800.0(Penetrate)
G01 X29.591064 Y160.064720 Z-1.000000 F2500.000000
G00 Z0.100000
M05
(End cutting path id: path19910)


(Start cutting path id: path19906)
(Change tool to Default tool)

G00 Z0.100000
G00 X39.560927 Y140.460369
M03 S35
G01 Z-1.000000 F800.0(Penetrate)
G01 X28.549352 Y159.562502 Z-1.000000 F2500.000000
G00 Z0.100000
M05
(End cutting path id: path19906)


(Start cutting path id: path19908)
(Change tool to Default tool)

G00 Z0.100000
G00 X39.555595 Y140.457156
M03 S35
G01 Z-1.000000 F800.0(Penetrate)
G01 X28.543891 Y159.559510 Z-1.000000 F2500.000000
G00 Z0.100000
M05
(End cutting path id: path19908)


(Start cutting path id: path19664)
(Change tool to Default tool)

G00 Z0.100000
G00 X22.324179 Y126.635531
M03 S35
G01 Z-1.000000 F800.0(Penetrate)
G01 X12.268577 Y126.642267 Z-1.000000 F2500.000000
G00 Z0.100000
M05
(End cutting path id: path19664)


(Start cutting path id: path19662)
(Change tool to Default tool)

G00 Z0.100000
G00 X24.462022 Y125.200609
M03 S35
G01 Z-1.000000 F800.0(Penetrate)
G01 X10.128813 Y125.210209 Z-1.000000 F2500.000000
G00 Z0.100000
M05
(End cutting path id: path19662)


(Start cutting path id: path19660)
(Change tool to Default tool)

G00 Z0.100000
G00 X25.857851 Y123.766183
M03 S35
G01 Z-1.000000 F800.0(Penetrate)
G01 X8.731064 Y123.777655 Z-1.000000 F2500.000000
G00 Z0.100000
M05
(End cutting path id: path19660)


(Start cutting path id: path19658)
(Change tool to Default tool)

G00 Z0.100000
G00 X26.843022 Y122.332033
M03 S35
G01 Z-1.000000 F800.0(Penetrate)
G01 X7.743973 Y122.344825 Z-1.000000 F2500.000000
G00 Z0.100000
M05
(End cutting path id: path19658)


(Start cutting path id: path19656)
(Change tool to Default tool)

G00 Z0.100000
G00 X27.536827 Y120.898077
M03 S35
G01 Z-1.000000 F800.0(Penetrate)
G01 X7.048248 Y120.911801 Z-1.000000 F2500.000000
G00 Z0.100000
M05
(End cutting path id: path19656)


(Start cutting path id: path19654)
(Change tool to Default tool)

G00 Z0.100000
G00 X27.996145 Y119.464279
M03 S35
G01 Z-1.000000 F800.0(Penetrate)
G01 X6.587009 Y119.478619 Z-1.000000 F2500.000000
G00 Z0.100000
M05
(End cutting path id: path19654)


(Start cutting path id: path19638)
(Change tool to Default tool)

G00 Z0.100000
G00 X23.900004 Y107.999097
M03 S35
G01 Z-1.000000 F800.0(Penetrate)
G01 X10.667788 Y108.007960 Z-1.000000 F2500.000000
G00 Z0.100000
M05
(End cutting path id: path19638)


(Start cutting path id: path19406)
(Change tool to Default tool)

G00 Z0.100000
G00 X13.890408 Y94.241406
M03 S35
G01 Z-1.000000 F800.0(Penetrate)
G01 X6.775241 Y87.135764 Z-1.000000 F2500.000000
G00 Z0.100000
M05
(End cutting path id: path19406)


(Start cutting path id: path19404)
(Change tool to Default tool)

G00 Z0.100000
G00 X16.416717 Y94.738440
M03 S35
G01 Z-1.000000 F800.0(Penetrate)
G01 X6.274824 Y84.610123 Z-1.000000 F2500.000000
G00 Z0.100000
M05
(End cutting path id: path19404)


(Start cutting path id: path19402)
(Change tool to Default tool)

G00 Z0.100000
G00 X18.418017 Y94.711150
M03 S35
G01 Z-1.000000 F800.0(Penetrate)
G01 X6.299433 Y82.608788 Z-1.000000 F2500.000000
G00 Z0.100000
M05
(End cutting path id: path19402)


(Start cutting path id: path19400)
(Change tool to Default tool)

G00 Z0.100000
G00 X20.128731 Y94.393662
M03 S35
G01 Z-1.000000 F800.0(Penetrate)
G01 X6.614629 Y80.897651 Z-1.000000 F2500.000000
G00 Z0.100000
M05
(End cutting path id: path19400)


(Start cutting path id: path19398)
(Change tool to Default tool)

G00 Z0.100000
G00 X21.633288 Y93.870312
M03 S35
G01 Z-1.000000 F800.0(Penetrate)
G01 X7.135981 Y79.392394 Z-1.000000 F2500.000000
G00 Z0.100000
M05
(End cutting path id: path19398)


(Start cutting path id: path19202)
(Change tool to Default tool)

G00 Z0.100000
G00 X8.430660 Y60.593998
M03 S35
G01 Z-1.000000 F800.0(Penetrate)
G01 X8.439523 Y73.826214 Z-1.000000 F2500.000000
G00 Z0.100000
M05
(End cutting path id: path19202)


(Start cutting path id: path19204)
(Change tool to Default tool)

G00 Z0.100000
G00 X9.863098 Y59.023238
M03 S35
G01 Z-1.000000 F800.0(Penetrate)
G01 X9.874064 Y75.395054 Z-1.000000 F2500.000000
G00 Z0.100000
M05
(End cutting path id: path19204)


(Start cutting path id: path19206)
(Change tool to Default tool)

G00 Z0.100000
G00 X11.295855 Y57.927275
M03 S35
G01 Z-1.000000 F800.0(Penetrate)
G01 X11.308287 Y76.489096 Z-1.000000 F2500.000000
G00 Z0.100000
M05
(End cutting path id: path19206)


(Start cutting path id: path19380)
(Change tool to Default tool)

G00 Z0.100000
G00 X28.182629 Y82.177720
M03 S35
G01 Z-1.000000 F800.0(Penetrate)
G01 X18.819770 Y72.827396 Z-1.000000 F2500.000000
G00 Z0.100000
M05
(End cutting path id: path19380)


(Start cutting path id: path19228)
(Change tool to Default tool)

G00 Z0.100000
G00 X27.067094 Y62.169823
M03 S35
G01 Z-1.000000 F800.0(Penetrate)
G01 X27.073829 Y72.225425 Z-1.000000 F2500.000000
G00 Z0.100000
M05
(End cutting path id: path19228)


(Start cutting path id: path19408)
(Change tool to Default tool)

G00 Z0.100000
G00 X35.119560 Y72.784831
M03 S35
G01 Z-1.000000 F800.0(Penetrate)
G01 X23.664562 Y79.408614 Z-1.000000 F2500.000000
G00 Z0.100000
M05
(End cutting path id: path19408)


(Start cutting path id: path19382)
(Change tool to Default tool)

G00 Z0.100000
G00 X28.280426 Y84.301298
M03 S35
G01 Z-1.000000 F800.0(Penetrate)
G01 X16.696064 Y72.732444 Z-1.000000 F2500.000000
G00 Z0.100000
M05
(End cutting path id: path19382)


(Start cutting path id: path19226)
(Change tool to Default tool)

G00 Z0.100000
G00 X25.632171 Y60.031979
M03 S35
G01 Z-1.000000 F800.0(Penetrate)
G01 X25.641772 Y74.365189 Z-1.000000 F2500.000000
G00 Z0.100000
M05
(End cutting path id: path19226)


(Start cutting path id: path19410)
(Change tool to Default tool)

G00 Z0.100000
G00 X37.196092 Y73.239970
M03 S35
G01 Z-1.000000 F800.0(Penetrate)
G01 X23.023183 Y81.435375 Z-1.000000 F2500.000000
G00 Z0.100000
M05
(End cutting path id: path19410)


(Start cutting path id: path19384)
(Change tool to Default tool)

G00 Z0.100000
G00 X28.042286 Y86.089388
M03 S35
G01 Z-1.000000 F800.0(Penetrate)
G01 X14.908294 Y72.972979 Z-1.000000 F2500.000000
G00 Z0.100000
M05
(End cutting path id: path19384)


(Start cutting path id: path19208)
(Change tool to Default tool)

G00 Z0.100000
G00 X12.728825 Y57.149804
M03 S35
G01 Z-1.000000 F800.0(Penetrate)
G01 X12.742298 Y77.264647 Z-1.000000 F2500.000000
G00 Z0.100000
M05
(End cutting path id: path19208)


(Start cutting path id: path19386)
(Change tool to Default tool)

G00 Z0.100000
G00 X27.578771 Y87.652405
M03 S35
G01 Z-1.000000 F800.0(Penetrate)
G01 X13.345899 Y73.438587 Z-1.000000 F2500.000000
G00 Z0.100000
M05
(End cutting path id: path19386)


(Start cutting path id: path19210)
(Change tool to Default tool)

G00 Z0.100000
G00 X14.161961 Y56.620493
M03 S35
G01 Z-1.000000 F800.0(Penetrate)
G01 X14.176142 Y77.792038 Z-1.000000 F2500.000000
G00 Z0.100000
M05
(End cutting path id: path19210)


(Start cutting path id: path19388)
(Change tool to Default tool)

G00 Z0.100000
G00 X26.939666 Y89.040066
M03 S35
G01 Z-1.000000 F800.0(Penetrate)
G01 X11.959096 Y74.079532 Z-1.000000 F2500.000000
G00 Z0.100000
M05
(End cutting path id: path19388)


(Start cutting path id: path19212)
(Change tool to Default tool)

G00 Z0.100000
G00 X15.595239 Y56.303209
M03 S35
G01 Z-1.000000 F800.0(Penetrate)
G01 X15.609843 Y78.107401 Z-1.000000 F2500.000000
G00 Z0.100000
M05
(End cutting path id: path19212)


(Start cutting path id: path19390)
(Change tool to Default tool)

G00 Z0.100000
G00 X26.150531 Y90.277881
M03 S35
G01 Z-1.000000 F800.0(Penetrate)
G01 X10.722339 Y74.870324 Z-1.000000 F2500.000000
G00 Z0.100000
M05
(End cutting path id: path19390)


(Start cutting path id: path19214)
(Change tool to Default tool)

G00 Z0.100000
G00 X17.028647 Y56.179704
M03 S35
G01 Z-1.000000 F800.0(Penetrate)
G01 X17.043416 Y78.228986 Z-1.000000 F2500.000000
G00 Z0.100000
M05
(End cutting path id: path19214)


(Start cutting path id: path19392)
(Change tool to Default tool)

G00 Z0.100000
G00 X25.224296 Y91.378797
M03 S35
G01 Z-1.000000 F800.0(Penetrate)
G01 X9.622664 Y75.798052 Z-1.000000 F2500.000000
G00 Z0.100000
M05
(End cutting path id: path19392)


(Start cutting path id: path19216)
(Change tool to Default tool)

G00 Z0.100000
G00 X18.462180 Y56.243453
M03 S35
G01 Z-1.000000 F800.0(Penetrate)
G01 X18.476862 Y78.163317 Z-1.000000 F2500.000000
G00 Z0.100000
M05
(End cutting path id: path19216)


(Start cutting path id: path19394)
(Change tool to Default tool)

G00 Z0.100000
G00 X24.165559 Y92.347370
M03 S35
G01 Z-1.000000 F800.0(Penetrate)
G01 X8.655511 Y76.858086 Z-1.000000 F2500.000000
G00 Z0.100000
M05
(End cutting path id: path19394)


(Start cutting path id: path19396)
(Change tool to Default tool)

G00 Z0.100000
G00 X22.971928 Y93.181230
M03 S35
G01 Z-1.000000 F800.0(Penetrate)
G01 X7.823251 Y78.052833 Z-1.000000 F2500.000000
G00 Z0.100000
M05
(End cutting path id: path19396)


(Start cutting path id: path19512)
(Change tool to Default tool)

G00 Z0.100000
G00 X24.993087 Y93.663458
M03 S35
G01 Z-1.000000 F800.0(Penetrate)
G01 X25.001950 Y106.895674 Z-1.000000 F2500.000000
G00 Z0.100000
M05
(End cutting path id: path19512)


(Start cutting path id: path19640)
(Change tool to Default tool)

G00 Z0.100000
G00 X25.470764 Y109.431536
M03 S35
G01 Z-1.000000 F800.0(Penetrate)
G01 X9.098948 Y109.442502 Z-1.000000 F2500.000000
G00 Z0.100000
M05
(End cutting path id: path19640)


(Start cutting path id: path19642)
(Change tool to Default tool)

G00 Z0.100000
G00 X26.566727 Y110.864292
M03 S35
G01 Z-1.000000 F800.0(Penetrate)
G01 X8.004905 Y110.876725 Z-1.000000 F2500.000000
G00 Z0.100000
M05
(End cutting path id: path19642)


(Start cutting path id: path19644)
(Change tool to Default tool)

G00 Z0.100000
G00 X27.344197 Y112.297262
M03 S35
G01 Z-1.000000 F800.0(Penetrate)
G01 X7.229355 Y112.310735 Z-1.000000 F2500.000000
G00 Z0.100000
M05
(End cutting path id: path19644)


(Start cutting path id: path19646)
(Change tool to Default tool)

G00 Z0.100000
G00 X27.873509 Y113.730398
M03 S35
G01 Z-1.000000 F800.0(Penetrate)
G01 X6.701964 Y113.744579 Z-1.000000 F2500.000000
G00 Z0.100000
M05
(End cutting path id: path19646)


(Start cutting path id: path19648)
(Change tool to Default tool)

G00 Z0.100000
G00 X28.190792 Y115.163677
M03 S35
G01 Z-1.000000 F800.0(Penetrate)
G01 X6.386601 Y115.178281 Z-1.000000 F2500.000000
G00 Z0.100000
M05
(End cutting path id: path19648)


(Start cutting path id: path19650)
(Change tool to Default tool)

G00 Z0.100000
G00 X28.314298 Y116.597085
M03 S35
G01 Z-1.000000 F800.0(Penetrate)
G01 X6.265016 Y116.611853 Z-1.000000 F2500.000000
G00 Z0.100000
M05
(End cutting path id: path19650)


(Start cutting path id: path19652)
(Change tool to Default tool)

G00 Z0.100000
G00 X28.250549 Y118.030618
M03 S35
G01 Z-1.000000 F800.0(Penetrate)
G01 X6.330685 Y118.045300 Z-1.000000 F2500.000000
G00 Z0.100000
M05
(End cutting path id: path19652)


(Start cutting path id: path19666)
(Change tool to Default tool)

G00 Z0.100000
G00 X35.141717 Y105.865370
M03 S35
G01 Z-1.000000 F800.0(Penetrate)
G01 X23.686719 Y112.489153 Z-1.000000 F2500.000000
G00 Z0.100000
M05
(End cutting path id: path19666)


(Start cutting path id: path19668)
(Change tool to Default tool)

G00 Z0.100000
G00 X37.218250 Y106.320528
M03 S35
G01 Z-1.000000 F800.0(Penetrate)
G01 X23.045340 Y114.515914 Z-1.000000 F2500.000000
G00 Z0.100000
M05
(End cutting path id: path19668)


(Start cutting path id: path19670)
(Change tool to Default tool)

G00 Z0.100000
G00 X38.883768 Y107.013332
M03 S35
G01 Z-1.000000 F800.0(Penetrate)
G01 X22.814975 Y116.305010 Z-1.000000 F2500.000000
G00 Z0.100000
M05
(End cutting path id: path19670)


(Start cutting path id: path19672)
(Change tool to Default tool)

G00 Z0.100000
G00 X40.273575 Y107.865585
M03 S35
G01 Z-1.000000 F800.0(Penetrate)
G01 X22.860320 Y117.934674 Z-1.000000 F2500.000000
G00 Z0.100000
M05
(End cutting path id: path19672)


(Start cutting path id: path19756)
(Change tool to Default tool)

G00 Z0.100000
G00 X40.664396 Y128.130544
M03 S35
G01 Z-1.000000 F800.0(Penetrate)
G01 X40.671387 Y138.568704 Z-1.000000 F2500.000000
G00 Z0.100000
M05
(End cutting path id: path19756)


(Start cutting path id: path19758)
(Change tool to Default tool)

G00 Z0.100000
G00 X42.487343 Y125.644091
M03 S35
G01 Z-1.000000 F800.0(Penetrate)
G01 X42.497664 Y141.052712 Z-1.000000 F2500.000000
G00 Z0.100000
M05
(End cutting path id: path19758)


(Start cutting path id: path19760)
(Change tool to Default tool)

G00 Z0.100000
G00 X42.865115 Y125.274880
M03 S35
G01 Z-1.000000 F800.0(Penetrate)
G01 X42.875930 Y141.421418 Z-1.000000 F2500.000000
G00 Z0.100000
M05
(End cutting path id: path19760)


(Start cutting path id: path19762)
(Change tool to Default tool)

G00 Z0.100000
G00 X43.626416 Y124.627535
M03 S35
G01 Z-1.000000 F800.0(Penetrate)
G01 X43.638098 Y142.067742 Z-1.000000 F2500.000000
G00 Z0.100000
M05
(End cutting path id: path19762)


(Start cutting path id: path19692)
(Change tool to Default tool)

G00 Z0.100000
G00 X43.095237 Y122.792912
M03 S35
G01 Z-1.000000 F800.0(Penetrate)
G01 X34.390189 Y127.826546 Z-1.000000 F2500.000000
G00 Z0.100000
M05
(End cutting path id: path19692)


(Start cutting path id: path19690)
(Change tool to Default tool)

G00 Z0.100000
G00 X44.229197 Y120.481292
M03 S35
G01 Z-1.000000 F800.0(Penetrate)
G01 X31.821076 Y127.656230 Z-1.000000 F2500.000000
G00 Z0.100000
M05
(End cutting path id: path19690)


(Start cutting path id: path19688)
(Change tool to Default tool)

G00 Z0.100000
G00 X44.720816 Y118.541138
M03 S35
G01 Z-1.000000 F800.0(Penetrate)
G01 X29.894304 Y127.114466 Z-1.000000 F2500.000000
G00 Z0.100000
M05
(End cutting path id: path19688)


(Start cutting path id: path19764)
(Change tool to Default tool)

G00 Z0.100000
G00 X47.204203 Y122.783912
M03 S35
G01 Z-1.000000 F800.0(Penetrate)
G01 X47.218351 Y143.906571 Z-1.000000 F2500.000000
G00 Z0.100000
M05
(End cutting path id: path19764)


(Start cutting path id: path19766)
(Change tool to Default tool)

G00 Z0.100000
G00 X48.013378 Y122.573547
M03 S35
G01 Z-1.000000 F800.0(Penetrate)
G01 X48.027807 Y144.115851 Z-1.000000 F2500.000000
G00 Z0.100000
M05
(End cutting path id: path19766)


(Start cutting path id: path19774)
(Change tool to Default tool)

G00 Z0.100000
G00 X55.036843 Y123.347191
M03 S35
G01 Z-1.000000 F800.0(Penetrate)
G01 X55.050229 Y143.332799 Z-1.000000 F2500.000000
G00 Z0.100000
M05
(End cutting path id: path19774)


(Start cutting path id: path19918)
(Change tool to Default tool)

G00 Z0.100000
G00 X70.795616 Y139.544196
M03 S35
G01 Z-1.000000 F800.0(Penetrate)
G01 X56.054510 Y148.068141 Z-1.000000 F2500.000000
G00 Z0.100000
M05
(End cutting path id: path19918)


(Start cutting path id: path19920)
(Change tool to Default tool)

G00 Z0.100000
G00 X71.122666 Y139.672495
M03 S35
G01 Z-1.000000 F800.0(Penetrate)
G01 X56.002568 Y148.415613 Z-1.000000 F2500.000000
G00 Z0.100000
M05
(End cutting path id: path19920)


(Start cutting path id: path19922)
(Change tool to Default tool)

G00 Z0.100000
G00 X73.108727 Y140.737259
M03 S35
G01 Z-1.000000 F800.0(Penetrate)
G01 X55.934681 Y150.668058 Z-1.000000 F2500.000000
G00 Z0.100000
M05
(End cutting path id: path19922)


(Start cutting path id: path19926)
(Change tool to Default tool)

G00 Z0.100000
G00 X73.247031 Y140.832310
M03 S35
G01 Z-1.000000 F800.0(Penetrate)
G01 X55.948062 Y150.835345 Z-1.000000 F2500.000000
G00 Z0.100000
M05
(End cutting path id: path19926)


(Start cutting path id: path19924)
(Change tool to Default tool)

G00 Z0.100000
G00 X74.509449 Y141.860729
M03 S35
G01 Z-1.000000 F800.0(Penetrate)
G01 X56.209629 Y152.442480 Z-1.000000 F2500.000000
G00 Z0.100000
M05
(End cutting path id: path19924)


(Start cutting path id: path19928)
(Change tool to Default tool)

G00 Z0.100000
G00 X75.321101 Y142.714987
M03 S35
G01 Z-1.000000 F800.0(Penetrate)
G01 X56.545124 Y153.572085 Z-1.000000 F2500.000000
G00 Z0.100000
M05
(End cutting path id: path19928)


(Start cutting path id: path19938)
(Change tool to Default tool)

G00 Z0.100000
G00 X77.796184 Y151.763801
M03 S35
G01 Z-1.000000 F800.0(Penetrate)
G01 X63.153033 Y160.231130 Z-1.000000 F2500.000000
G00 Z0.100000
M05
(End cutting path id: path19938)


(Start cutting path id: path19936)
(Change tool to Default tool)

G00 Z0.100000
G00 X77.958854 Y149.741827
M03 S35
G01 Z-1.000000 F800.0(Penetrate)
G01 X61.319440 Y159.363461 Z-1.000000 F2500.000000
G00 Z0.100000
M05
(End cutting path id: path19936)


(Start cutting path id: path19934)
(Change tool to Default tool)

G00 Z0.100000
G00 X77.504355 Y146.736542
M03 S35
G01 Z-1.000000 F800.0(Penetrate)
G01 X58.941481 Y157.470383 Z-1.000000 F2500.000000
G00 Z0.100000
M05
(End cutting path id: path19934)


(Start cutting path id: path19932)
(Change tool to Default tool)

G00 Z0.100000
G00 X77.444771 Y146.542271
M03 S35
G01 Z-1.000000 F800.0(Penetrate)
G01 X58.802848 Y157.321853 Z-1.000000 F2500.000000
G00 Z0.100000
M05
(End cutting path id: path19932)


(Start cutting path id: path19930)
(Change tool to Default tool)

G00 Z0.100000
G00 X76.710872 Y144.775232
M03 S35
G01 Z-1.000000 F800.0(Penetrate)
G01 X57.637451 Y155.804309 Z-1.000000 F2500.000000
G00 Z0.100000
M05
(End cutting path id: path19930)


(Start cutting path id: path19800)
(Change tool to Default tool)

G00 Z0.100000
G00 X77.735735 Y135.487952
M03 S35
G01 Z-1.000000 F800.0(Penetrate)
G01 X63.395723 Y143.779953 Z-1.000000 F2500.000000
G00 Z0.100000
M05
(End cutting path id: path19800)


(Start cutting path id: path19798)
(Change tool to Default tool)

G00 Z0.100000
G00 X77.797901 Y135.148485
M03 S35
G01 Z-1.000000 F800.0(Penetrate)
G01 X63.070519 Y143.664499 Z-1.000000 F2500.000000
G00 Z0.100000
M05
(End cutting path id: path19798)


(Start cutting path id: path19796)
(Change tool to Default tool)

G00 Z0.100000
G00 X77.925460 Y132.619097
M03 S35
G01 Z-1.000000 F800.0(Penetrate)
G01 X60.814684 Y142.513318 Z-1.000000 F2500.000000
G00 Z0.100000
M05
(End cutting path id: path19796)


(Start cutting path id: path19794)
(Change tool to Default tool)

G00 Z0.100000
G00 X76.809637 Y128.451493
M03 S35
G01 Z-1.000000 F800.0(Penetrate)
G01 X57.759235 Y139.467268 Z-1.000000 F2500.000000
G00 Z0.100000
M05
(End cutting path id: path19794)


(Start cutting path id: path19770)
(Change tool to Default tool)

G00 Z0.100000
G00 X51.850451 Y122.414561
M03 S35
G01 Z-1.000000 F800.0(Penetrate)
G01 X51.865089 Y144.269697 Z-1.000000 F2500.000000
G00 Z0.100000
M05
(End cutting path id: path19770)


(Start cutting path id: path19768)
(Change tool to Default tool)

G00 Z0.100000
G00 X51.372878 Y122.360923
M03 S35
G01 Z-1.000000 F800.0(Penetrate)
G01 X51.387589 Y144.323975 Z-1.000000 F2500.000000
G00 Z0.100000
M05
(End cutting path id: path19768)


(Start cutting path id: path19772)
(Change tool to Default tool)

G00 Z0.100000
G00 X50.852572 Y122.326335
M03 S35
G01 Z-1.000000 F800.0(Penetrate)
G01 X50.867329 Y144.359260 Z-1.000000 F2500.000000
G00 Z0.100000
M05
(End cutting path id: path19772)


(Start cutting path id: path19778)
(Change tool to Default tool)

G00 Z0.100000
G00 X67.806843 Y122.340763
M03 S35
G01 Z-1.000000 F800.0(Penetrate)
G01 X56.954082 Y128.616319 Z-1.000000 F2500.000000
G00 Z0.100000
M05
(End cutting path id: path19778)


(Start cutting path id: path19780)
(Change tool to Default tool)

G00 Z0.100000
G00 X69.613167 Y122.638712
M03 S35
G01 Z-1.000000 F800.0(Penetrate)
G01 X56.311225 Y130.330470 Z-1.000000 F2500.000000
G00 Z0.100000
M05
(End cutting path id: path19780)


(Start cutting path id: path19782)
(Change tool to Default tool)

G00 Z0.100000
G00 X71.720433 Y123.404126
M03 S35
G01 Z-1.000000 F800.0(Penetrate)
G01 X55.923420 Y132.538654 Z-1.000000 F2500.000000
G00 Z0.100000
M05
(End cutting path id: path19782)


(Start cutting path id: path19686)
(Change tool to Default tool)

G00 Z0.100000
G00 X44.856920 Y116.806541
M03 S35
G01 Z-1.000000 F800.0(Penetrate)
G01 X28.323047 Y126.367145 Z-1.000000 F2500.000000
G00 Z0.100000
M05
(End cutting path id: path19686)


(Start cutting path id: path19684)
(Change tool to Default tool)

G00 Z0.100000
G00 X44.740791 Y115.217797
M03 S35
G01 Z-1.000000 F800.0(Penetrate)
G01 X27.004023 Y125.473971 Z-1.000000 F2500.000000
G00 Z0.100000
M05
(End cutting path id: path19684)


(Start cutting path id: path19682)
(Change tool to Default tool)

G00 Z0.100000
G00 X44.421662 Y113.746441
M03 S35
G01 Z-1.000000 F800.0(Penetrate)
G01 X25.887999 Y124.463409 Z-1.000000 F2500.000000
G00 Z0.100000
M05
(End cutting path id: path19682)


(Start cutting path id: path19680)
(Change tool to Default tool)

G00 Z0.100000
G00 X43.925162 Y112.377642
M03 S35
G01 Z-1.000000 F800.0(Penetrate)
G01 X24.949346 Y123.350289 Z-1.000000 F2500.000000
G00 Z0.100000
M05
(End cutting path id: path19680)


(Start cutting path id: path19674)
(Change tool to Default tool)

G00 Z0.100000
G00 X41.448534 Y108.842071
M03 S35
G01 Z-1.000000 F800.0(Penetrate)
G01 X23.120515 Y119.440125 Z-1.000000 F2500.000000
G00 Z0.100000
M05
(End cutting path id: path19674)


(Start cutting path id: path19676)
(Change tool to Default tool)

G00 Z0.100000
G00 X42.439930 Y109.924685
M03 S35
G01 Z-1.000000 F800.0(Penetrate)
G01 X23.564272 Y120.839411 Z-1.000000 F2500.000000
G00 Z0.100000
M05
(End cutting path id: path19676)


(Start cutting path id: path19678)
(Change tool to Default tool)

G00 Z0.100000
G00 X43.263599 Y111.104282
M03 S35
G01 Z-1.000000 F800.0(Penetrate)
G01 X24.175756 Y122.141732 Z-1.000000 F2500.000000
G00 Z0.100000
M05
(End cutting path id: path19678)


(Start cutting path id: path19514)
(Change tool to Default tool)

G00 Z0.100000
G00 X26.425525 Y92.092698
M03 S35
G01 Z-1.000000 F800.0(Penetrate)
G01 X26.436491 Y108.464514 Z-1.000000 F2500.000000
G00 Z0.100000
M05
(End cutting path id: path19514)


(Start cutting path id: path19516)
(Change tool to Default tool)

G00 Z0.100000
G00 X27.858282 Y90.996735
M03 S35
G01 Z-1.000000 F800.0(Penetrate)
G01 X27.870715 Y109.558557 Z-1.000000 F2500.000000
G00 Z0.100000
M05
(End cutting path id: path19516)


(Start cutting path id: path19518)
(Change tool to Default tool)

G00 Z0.100000
G00 X29.291252 Y90.219265
M03 S35
G01 Z-1.000000 F800.0(Penetrate)
G01 X29.304725 Y110.334125 Z-1.000000 F2500.000000
G00 Z0.100000
M05
(End cutting path id: path19518)


(Start cutting path id: path19520)
(Change tool to Default tool)

G00 Z0.100000
G00 X30.724388 Y89.689953
M03 S35
G01 Z-1.000000 F800.0(Penetrate)
G01 X30.738569 Y110.861498 Z-1.000000 F2500.000000
G00 Z0.100000
M05
(End cutting path id: path19520)


(Start cutting path id: path19538)
(Change tool to Default tool)

G00 Z0.100000
G00 X43.629521 Y95.239265
M03 S35
G01 Z-1.000000 F800.0(Penetrate)
G01 X43.636256 Y105.294885 Z-1.000000 F2500.000000
G00 Z0.100000
M05
(End cutting path id: path19538)


(Start cutting path id: path19536)
(Change tool to Default tool)

G00 Z0.100000
G00 X42.194598 Y93.101440
M03 S35
G01 Z-1.000000 F800.0(Penetrate)
G01 X42.204199 Y107.434649 Z-1.000000 F2500.000000
G00 Z0.100000
M05
(End cutting path id: path19536)


(Start cutting path id: path19534)
(Change tool to Default tool)

G00 Z0.100000
G00 X40.760173 Y91.705611
M03 S35
G01 Z-1.000000 F800.0(Penetrate)
G01 X40.771644 Y108.832398 Z-1.000000 F2500.000000
G00 Z0.100000
M05
(End cutting path id: path19534)


(Start cutting path id: path19532)
(Change tool to Default tool)

G00 Z0.100000
G00 X39.326022 Y90.720440
M03 S35
G01 Z-1.000000 F800.0(Penetrate)
G01 X39.338815 Y109.819489 Z-1.000000 F2500.000000
G00 Z0.100000
M05
(End cutting path id: path19532)


(Start cutting path id: path19530)
(Change tool to Default tool)

G00 Z0.100000
G00 X37.892067 Y90.026635
M03 S35
G01 Z-1.000000 F800.0(Penetrate)
G01 X37.905790 Y110.515214 Z-1.000000 F2500.000000
G00 Z0.100000
M05
(End cutting path id: path19530)


(Start cutting path id: path19528)
(Change tool to Default tool)

G00 Z0.100000
G00 X36.458268 Y89.567317
M03 S35
G01 Z-1.000000 F800.0(Penetrate)
G01 X36.472608 Y110.976453 Z-1.000000 F2500.000000
G00 Z0.100000
M05
(End cutting path id: path19528)


(Start cutting path id: path19526)
(Change tool to Default tool)

G00 Z0.100000
G00 X35.024607 Y89.312913
M03 S35
G01 Z-1.000000 F800.0(Penetrate)
G01 X35.039289 Y111.232777 Z-1.000000 F2500.000000
G00 Z0.100000
M05
(End cutting path id: path19526)


(Start cutting path id: path19524)
(Change tool to Default tool)

G00 Z0.100000
G00 X33.591074 Y89.249164
M03 S35
G01 Z-1.000000 F800.0(Penetrate)
G01 X33.605843 Y111.298446 Z-1.000000 F2500.000000
G00 Z0.100000
M05
(End cutting path id: path19524)


(Start cutting path id: path19522)
(Change tool to Default tool)

G00 Z0.100000
G00 X32.157666 Y89.372670
M03 S35
G01 Z-1.000000 F800.0(Penetrate)
G01 X32.172270 Y111.176861 Z-1.000000 F2500.000000
G00 Z0.100000
M05
(End cutting path id: path19522)


(Start cutting path id: path19434)
(Change tool to Default tool)

G00 Z0.100000
G00 X43.073079 Y89.712355
M03 S35
G01 Z-1.000000 F800.0(Penetrate)
G01 X34.368032 Y94.746007 Z-1.000000 F2500.000000
G00 Z0.100000
M05
(End cutting path id: path19434)


(Start cutting path id: path19432)
(Change tool to Default tool)

G00 Z0.100000
G00 X44.207040 Y87.400772
M03 S35
G01 Z-1.000000 F800.0(Penetrate)
G01 X31.798919 Y94.575691 Z-1.000000 F2500.000000
G00 Z0.100000
M05
(End cutting path id: path19432)


(Start cutting path id: path19540)
(Change tool to Default tool)

G00 Z0.100000
G00 X46.020907 Y90.125027
M03 S35
G01 Z-1.000000 F800.0(Penetrate)
G01 X39.412475 Y101.588888 Z-1.000000 F2500.000000
G00 Z0.100000
M05
(End cutting path id: path19540)


(Start cutting path id: path19542)
(Change tool to Default tool)

G00 Z0.100000
G00 X48.046806 Y89.480933
M03 S35
G01 Z-1.000000 F800.0(Penetrate)
G01 X39.870395 Y103.664809 Z-1.000000 F2500.000000
G00 Z0.100000
M05
(End cutting path id: path19542)


(Start cutting path id: path19544)
(Change tool to Default tool)

G00 Z0.100000
G00 X49.835592 Y89.248171
M03 S35
G01 Z-1.000000 F800.0(Penetrate)
G01 X40.565448 Y105.329398 Z-1.000000 F2500.000000
G00 Z0.100000
M05
(End cutting path id: path19544)


(Start cutting path id: path19546)
(Change tool to Default tool)

G00 Z0.100000
G00 X51.465316 Y89.291334
M03 S35
G01 Z-1.000000 F800.0(Penetrate)
G01 X41.419562 Y106.718062 Z-1.000000 F2500.000000
G00 Z0.100000
M05
(End cutting path id: path19546)


(Start cutting path id: path19548)
(Change tool to Default tool)

G00 Z0.100000
G00 X52.971113 Y89.549511
M03 S35
G01 Z-1.000000 F800.0(Penetrate)
G01 X42.397622 Y107.891711 Z-1.000000 F2500.000000
G00 Z0.100000
M05
(End cutting path id: path19548)


(Start cutting path id: path19566)
(Change tool to Default tool)

G00 Z0.100000
G00 X61.372624 Y100.807941
M03 S35
G01 Z-1.000000 F800.0(Penetrate)
G01 X56.350638 Y109.519724 Z-1.000000 F2500.000000
G00 Z0.100000
M05
(End cutting path id: path19566)


(Start cutting path id: path19694)
(Change tool to Default tool)

G00 Z0.100000
G00 X66.923057 Y105.764928
M03 S35
G01 Z-1.000000 F800.0(Penetrate)
G01 X55.883798 Y116.819004 Z-1.000000 F2500.000000
G00 Z0.100000
M05
(End cutting path id: path19694)


(Start cutting path id: path19696)
(Change tool to Default tool)

G00 Z0.100000
G00 X68.326450 Y105.856191
M03 S35
G01 Z-1.000000 F800.0(Penetrate)
G01 X55.976941 Y118.222255 Z-1.000000 F2500.000000
G00 Z0.100000
M05
(End cutting path id: path19696)


(Start cutting path id: path19698)
(Change tool to Default tool)

G00 Z0.100000
G00 X69.324333 Y106.032338
M03 S35
G01 Z-1.000000 F800.0(Penetrate)
G01 X56.154425 Y119.219919 Z-1.000000 F2500.000000
G00 Z0.100000
M05
(End cutting path id: path19698)


(Start cutting path id: path19784)
(Change tool to Default tool)

G00 Z0.100000
G00 X73.806197 Y124.718379
M03 S35
G01 Z-1.000000 F800.0(Penetrate)
G01 X56.022033 Y135.001968 Z-1.000000 F2500.000000
G00 Z0.100000
M05
(End cutting path id: path19784)


(Start cutting path id: path19786)
(Change tool to Default tool)

G00 Z0.100000
G00 X73.930409 Y124.819155
M03 S35
G01 Z-1.000000 F800.0(Penetrate)
G01 X56.047390 Y135.159893 Z-1.000000 F2500.000000
G00 Z0.100000
M05
(End cutting path id: path19786)


(Start cutting path id: path19792)
(Change tool to Default tool)

G00 Z0.100000
G00 X75.738093 Y126.709159
M03 S35
G01 Z-1.000000 F800.0(Penetrate)
G01 X56.783716 Y137.669405 Z-1.000000 F2500.000000
G00 Z0.100000
M05
(End cutting path id: path19792)


(Start cutting path id: path19790)
(Change tool to Default tool)

G00 Z0.100000
G00 X76.370929 Y127.648444
M03 S35
G01 Z-1.000000 F800.0(Penetrate)
G01 X57.282094 Y138.686445 Z-1.000000 F2500.000000
G00 Z0.100000
M05
(End cutting path id: path19790)


(Start cutting path id: path19822)
(Change tool to Default tool)

G00 Z0.100000
G00 X86.349340 Y143.963081
M03 S35
G01 Z-1.000000 F800.0(Penetrate)
G01 X72.816001 Y130.447841 Z-1.000000 F2500.000000
G00 Z0.100000
M05
(End cutting path id: path19822)


(Start cutting path id: path19820)
(Change tool to Default tool)

G00 Z0.100000
G00 X88.885627 Y142.921752
M03 S35
G01 Z-1.000000 F800.0(Penetrate)
G01 X73.853913 Y127.910161 Z-1.000000 F2500.000000
G00 Z0.100000
M05
(End cutting path id: path19820)


(Start cutting path id: path19716)
(Change tool to Default tool)

G00 Z0.100000
G00 X74.676993 Y110.101613
M03 S35
G01 Z-1.000000 F800.0(Penetrate)
G01 X74.685948 Y123.471517 Z-1.000000 F2500.000000
G00 Z0.100000
M05
(End cutting path id: path19716)


(Start cutting path id: path19712)
(Change tool to Default tool)

G00 Z0.100000
G00 X75.522750 Y109.905375
M03 S35
G01 Z-1.000000 F800.0(Penetrate)
G01 X60.035761 Y125.413124 Z-1.000000 F2500.000000
G00 Z0.100000
M05
(End cutting path id: path19712)


(Start cutting path id: path19702)
(Change tool to Default tool)

G00 Z0.100000
G00 X70.439780 Y106.344938
M03 S35
G01 Z-1.000000 F800.0(Penetrate)
G01 X56.468518 Y120.334928 Z-1.000000 F2500.000000
G00 Z0.100000
M05
(End cutting path id: path19702)


(Start cutting path id: path19700)
(Change tool to Default tool)

G00 Z0.100000
G00 X70.858865 Y106.496000
M03 S35
G01 Z-1.000000 F800.0(Penetrate)
G01 X56.620160 Y120.753828 Z-1.000000 F2500.000000
G00 Z0.100000
M05
(End cutting path id: path19700)


(Start cutting path id: path19704)
(Change tool to Default tool)

G00 Z0.100000
G00 X71.572082 Y106.798651
M03 S35
G01 Z-1.000000 F800.0(Penetrate)
G01 X56.923766 Y121.466621 Z-1.000000 F2500.000000
G00 Z0.100000
M05
(End cutting path id: path19704)


(Start cutting path id: path19706)
(Change tool to Default tool)

G00 Z0.100000
G00 X72.953784 Y107.568355
M03 S35
G01 Z-1.000000 F800.0(Penetrate)
G01 X57.695302 Y122.847291 Z-1.000000 F2500.000000
G00 Z0.100000
M05
(End cutting path id: path19706)


(Start cutting path id: path19708)
(Change tool to Default tool)

G00 Z0.100000
G00 X74.663063 Y108.950143
M03 S35
G01 Z-1.000000 F800.0(Penetrate)
G01 X59.079397 Y124.554717 Z-1.000000 F2500.000000
G00 Z0.100000
M05
(End cutting path id: path19708)


(Start cutting path id: path19710)
(Change tool to Default tool)

G00 Z0.100000
G00 X75.209189 Y109.530561
M03 S35
G01 Z-1.000000 F800.0(Penetrate)
G01 X59.660528 Y125.100065 Z-1.000000 F2500.000000
G00 Z0.100000
M05
(End cutting path id: path19710)


(Start cutting path id: path19714)
(Change tool to Default tool)

G00 Z0.100000
G00 X76.403234 Y108.300010
M03 S35
G01 Z-1.000000 F800.0(Penetrate)
G01 X76.414601 Y125.270805 Z-1.000000 F2500.000000
G00 Z0.100000
M05
(End cutting path id: path19714)


(Start cutting path id: path19718)
(Change tool to Default tool)

G00 Z0.100000
G00 X76.970068 Y107.859347
M03 S35
G01 Z-1.000000 F800.0(Penetrate)
G01 X76.982025 Y125.710709 Z-1.000000 F2500.000000
G00 Z0.100000
M05
(End cutting path id: path19718)


(Start cutting path id: path19802)
(Change tool to Default tool)

G00 Z0.100000
G00 X94.331927 Y131.467564
M03 S35
G01 Z-1.000000 F800.0(Penetrate)
G01 X85.300813 Y122.448521 Z-1.000000 F2500.000000
G00 Z0.100000
M05
(End cutting path id: path19802)


(Start cutting path id: path19806)
(Change tool to Default tool)

G00 Z0.100000
G00 X94.484998 Y133.031363
M03 S35
G01 Z-1.000000 F800.0(Penetrate)
G01 X83.736792 Y122.297545 Z-1.000000 F2500.000000
G00 Z0.100000
M05
(End cutting path id: path19806)


(Start cutting path id: path19804)
(Change tool to Default tool)

G00 Z0.100000
G00 X94.488746 Y133.359428
M03 S35
G01 Z-1.000000 F800.0(Penetrate)
G01 X83.408722 Y122.294237 Z-1.000000 F2500.000000
G00 Z0.100000
M05
(End cutting path id: path19804)


(Start cutting path id: path19722)
(Change tool to Default tool)

G00 Z0.100000
G00 X78.215302 Y107.076048
M03 S35
G01 Z-1.000000 F800.0(Penetrate)
G01 X78.228307 Y126.492339 Z-1.000000 F2500.000000
G00 Z0.100000
M05
(End cutting path id: path19722)


(Start cutting path id: path19808)
(Change tool to Default tool)

G00 Z0.100000
G00 X94.429335 Y134.464615
M03 S35
G01 Z-1.000000 F800.0(Penetrate)
G01 X82.303597 Y122.355128 Z-1.000000 F2500.000000
G00 Z0.100000
M05
(End cutting path id: path19808)


(Start cutting path id: path19720)
(Change tool to Default tool)

G00 Z0.100000
G00 X80.041193 Y106.294252
M03 S35
G01 Z-1.000000 F800.0(Penetrate)
G01 X80.055244 Y127.271688 Z-1.000000 F2500.000000
G00 Z0.100000
M05
(End cutting path id: path19720)


(Start cutting path id: path19812)
(Change tool to Default tool)

G00 Z0.100000
G00 X93.441169 Y138.012101
M03 S35
G01 Z-1.000000 F800.0(Penetrate)
G01 X78.757457 Y123.348046 Z-1.000000 F2500.000000
G00 Z0.100000
M05
(End cutting path id: path19812)


(Start cutting path id: path19726)
(Change tool to Default tool)

G00 Z0.100000
G00 X81.111467 Y106.004852
M03 S35
G01 Z-1.000000 F800.0(Penetrate)
G01 X81.125905 Y127.559654 Z-1.000000 F2500.000000
G00 Z0.100000
M05
(End cutting path id: path19726)


(Start cutting path id: path19810)
(Change tool to Default tool)

G00 Z0.100000
G00 X92.973123 Y138.900296
M03 S35
G01 Z-1.000000 F800.0(Penetrate)
G01 X77.869889 Y123.817281 Z-1.000000 F2500.000000
G00 Z0.100000
M05
(End cutting path id: path19810)


(Start cutting path id: path19724)
(Change tool to Default tool)

G00 Z0.100000
G00 X83.374009 Y105.754112
M03 S35
G01 Z-1.000000 F800.0(Penetrate)
G01 X83.388781 Y127.807363 Z-1.000000 F2500.000000
G00 Z0.100000
M05
(End cutting path id: path19724)


(Start cutting path id: path19814)
(Change tool to Default tool)

G00 Z0.100000
G00 X92.752019 Y139.261188
M03 S35
G01 Z-1.000000 F800.0(Penetrate)
G01 X77.509294 Y124.038868 Z-1.000000 F2500.000000
G00 Z0.100000
M05
(End cutting path id: path19814)


(Start cutting path id: path19728)
(Change tool to Default tool)

G00 Z0.100000
G00 X85.893424 Y106.027765
M03 S35
G01 Z-1.000000 F800.0(Penetrate)
G01 X85.907826 Y127.530335 Z-1.000000 F2500.000000
G00 Z0.100000
M05
(End cutting path id: path19728)


(Start cutting path id: path19818)
(Change tool to Default tool)

G00 Z0.100000
G00 X91.309171 Y141.067746
M03 S35
G01 Z-1.000000 F800.0(Penetrate)
G01 X75.704670 Y125.484135 Z-1.000000 F2500.000000
G00 Z0.100000
M05
(End cutting path id: path19818)


(Start cutting path id: path19730)
(Change tool to Default tool)

G00 Z0.100000
G00 X87.154810 Y106.394518
M03 S35
G01 Z-1.000000 F800.0(Penetrate)
G01 X87.168720 Y127.161892 Z-1.000000 F2500.000000
G00 Z0.100000
M05
(End cutting path id: path19730)


(Start cutting path id: path19826)
(Change tool to Default tool)

G00 Z0.100000
G00 X102.968508 Y122.689496
M03 S35
G01 Z-1.000000 F800.0(Penetrate)
G01 X89.317903 Y130.582857 Z-1.000000 F2500.000000
G00 Z0.100000
M05
(End cutting path id: path19826)


(Start cutting path id: path19824)
(Change tool to Default tool)

G00 Z0.100000
G00 X103.880242 Y122.987456
M03 S35
G01 Z-1.000000 F800.0(Penetrate)
G01 X89.121335 Y131.521686 Z-1.000000 F2500.000000
G00 Z0.100000
M05
(End cutting path id: path19824)


(Start cutting path id: path19828)
(Change tool to Default tool)

G00 Z0.100000
G00 X104.512549 Y123.247652
M03 S35
G01 Z-1.000000 F800.0(Penetrate)
G01 X89.031424 Y132.199512 Z-1.000000 F2500.000000
G00 Z0.100000
M05
(End cutting path id: path19828)


(Start cutting path id: path19832)
(Change tool to Default tool)

G00 Z0.100000
G00 X106.253499 Y124.226204
M03 S35
G01 Z-1.000000 F800.0(Penetrate)
G01 X89.011075 Y134.196525 Z-1.000000 F2500.000000
G00 Z0.100000
M05
(End cutting path id: path19832)


(Start cutting path id: path19830)
(Change tool to Default tool)

G00 Z0.100000
G00 X107.342679 Y125.081323
M03 S35
G01 Z-1.000000 F800.0(Penetrate)
G01 X89.208878 Y135.567085 Z-1.000000 F2500.000000
G00 Z0.100000
M05
(End cutting path id: path19830)


(Start cutting path id: path19834)
(Change tool to Default tool)

G00 Z0.100000
G00 X108.455763 Y126.229686
M03 S35
G01 Z-1.000000 F800.0(Penetrate)
G01 X89.648905 Y137.104632 Z-1.000000 F2500.000000
G00 Z0.100000
M05
(End cutting path id: path19834)


(Start cutting path id: path19844)
(Change tool to Default tool)

G00 Z0.100000
G00 X110.990772 Y134.228170
M03 S35
G01 Z-1.000000 F800.0(Penetrate)
G01 X95.316587 Y143.291659 Z-1.000000 F2500.000000
G00 Z0.100000
M05
(End cutting path id: path19844)


(Start cutting path id: path19842)
(Change tool to Default tool)

G00 Z0.100000
G00 X110.604153 Y130.278244
M03 S35
G01 Z-1.000000 F800.0(Penetrate)
G01 X92.086087 Y140.986215 Z-1.000000 F2500.000000
G00 Z0.100000
M05
(End cutting path id: path19842)


(Start cutting path id: path19840)
(Change tool to Default tool)

G00 Z0.100000
G00 X110.132107 Y128.953629
M03 S35
G01 Z-1.000000 F800.0(Penetrate)
G01 X91.173505 Y139.916321 Z-1.000000 F2500.000000
G00 Z0.100000
M05
(End cutting path id: path19840)


(Start cutting path id: path19836)
(Change tool to Default tool)

G00 Z0.100000
G00 X110.099969 Y128.879642
M03 S35
G01 Z-1.000000 F800.0(Penetrate)
G01 X91.125421 Y139.851552 Z-1.000000 F2500.000000
G00 Z0.100000
M05
(End cutting path id: path19836)


(Start cutting path id: path19940)
(Change tool to Default tool)

G00 Z0.100000
G00 X117.865222 Y138.890515
M03 S35
G01 Z-1.000000 F800.0(Penetrate)
G01 X106.410224 Y145.514299 Z-1.000000 F2500.000000
G00 Z0.100000
M05
(End cutting path id: path19940)


(Start cutting path id: path19942)
(Change tool to Default tool)

G00 Z0.100000
G00 X119.941755 Y139.345673
M03 S35
G01 Z-1.000000 F800.0(Penetrate)
G01 X105.768845 Y147.541059 Z-1.000000 F2500.000000
G00 Z0.100000
M05
(End cutting path id: path19942)


(Start cutting path id: path19944)
(Change tool to Default tool)

G00 Z0.100000
G00 X121.607273 Y140.038477
M03 S35
G01 Z-1.000000 F800.0(Penetrate)
G01 X105.538480 Y149.330155 Z-1.000000 F2500.000000
G00 Z0.100000
M05
(End cutting path id: path19944)


(Start cutting path id: path19946)
(Change tool to Default tool)

G00 Z0.100000
G00 X122.997080 Y140.890730
M03 S35
G01 Z-1.000000 F800.0(Penetrate)
G01 X105.583826 Y150.959820 Z-1.000000 F2500.000000
G00 Z0.100000
M05
(End cutting path id: path19946)


(Start cutting path id: path19948)
(Change tool to Default tool)

G00 Z0.100000
G00 X124.172039 Y141.867216
M03 S35
G01 Z-1.000000 F800.0(Penetrate)
G01 X105.844020 Y152.465270 Z-1.000000 F2500.000000
G00 Z0.100000
M05
(End cutting path id: path19948)


(Start cutting path id: path19964)
(Change tool to Default tool)

G00 Z0.100000
G00 X126.952702 Y153.506438
M03 S35
G01 Z-1.000000 F800.0(Penetrate)
G01 X114.544581 Y160.681375 Z-1.000000 F2500.000000
G00 Z0.100000
M05
(End cutting path id: path19964)


(Start cutting path id: path19962)
(Change tool to Default tool)

G00 Z0.100000
G00 X127.444321 Y151.566283
M03 S35
G01 Z-1.000000 F800.0(Penetrate)
G01 X112.617809 Y160.139611 Z-1.000000 F2500.000000
G00 Z0.100000
M05
(End cutting path id: path19962)


(Start cutting path id: path19960)
(Change tool to Default tool)

G00 Z0.100000
G00 X127.580425 Y149.831687
M03 S35
G01 Z-1.000000 F800.0(Penetrate)
G01 X111.046552 Y159.392290 Z-1.000000 F2500.000000
G00 Z0.100000
M05
(End cutting path id: path19960)


(Start cutting path id: path19958)
(Change tool to Default tool)

G00 Z0.100000
G00 X127.464296 Y148.242942
M03 S35
G01 Z-1.000000 F800.0(Penetrate)
G01 X109.727528 Y158.499116 Z-1.000000 F2500.000000
G00 Z0.100000
M05
(End cutting path id: path19958)


(Start cutting path id: path19956)
(Change tool to Default tool)

G00 Z0.100000
G00 X127.145167 Y146.771586
M03 S35
G01 Z-1.000000 F800.0(Penetrate)
G01 X108.611485 Y157.488555 Z-1.000000 F2500.000000
G00 Z0.100000
M05
(End cutting path id: path19956)


(Start cutting path id: path19954)
(Change tool to Default tool)

G00 Z0.100000
G00 X126.648667 Y145.402788
M03 S35
G01 Z-1.000000 F800.0(Penetrate)
G01 X107.672851 Y156.375434 Z-1.000000 F2500.000000
G00 Z0.100000
M05
(End cutting path id: path19954)


(Start cutting path id: path19952)
(Change tool to Default tool)

G00 Z0.100000
G00 X125.987104 Y144.129427
M03 S35
G01 Z-1.000000 F800.0(Penetrate)
G01 X106.899261 Y155.166877 Z-1.000000 F2500.000000
G00 Z0.100000
M05
(End cutting path id: path19952)


(Start cutting path id: path19950)
(Change tool to Default tool)

G00 Z0.100000
G00 X125.163453 Y142.949830
M03 S35
G01 Z-1.000000 F800.0(Penetrate)
G01 X106.287759 Y153.864556 Z-1.000000 F2500.000000
G00 Z0.100000
M05
(End cutting path id: path19950)


(Start cutting path id: path19750)
(Change tool to Default tool)

G00 Z0.100000
G00 X126.425550 Y111.890535
M03 S35
G01 Z-1.000000 F800.0(Penetrate)
G01 X111.676663 Y126.659174 Z-1.000000 F2500.000000
G00 Z0.100000
M05
(End cutting path id: path19750)


(Start cutting path id: path19734)
(Change tool to Default tool)

G00 Z0.100000
G00 X113.242266 Y106.233659
M03 S35
G01 Z-1.000000 F800.0(Penetrate)
G01 X106.002150 Y113.483480 Z-1.000000 F2500.000000
G00 Z0.100000
M05
(End cutting path id: path19734)


(Start cutting path id: path19736)
(Change tool to Default tool)

G00 Z0.100000
G00 X116.925124 Y105.738714
M03 S35
G01 Z-1.000000 F800.0(Penetrate)
G01 X105.512140 Y117.166997 Z-1.000000 F2500.000000
G00 Z0.100000
M05
(End cutting path id: path19736)


(Start cutting path id: path19740)
(Change tool to Default tool)

G00 Z0.100000
G00 X117.444362 Y105.769554
M03 S35
G01 Z-1.000000 F800.0(Penetrate)
G01 X105.543675 Y117.686194 Z-1.000000 F2500.000000
G00 Z0.100000
M05
(End cutting path id: path19740)


(Start cutting path id: path19738)
(Change tool to Default tool)

G00 Z0.100000
G00 X117.743319 Y105.798483
M03 S35
G01 Z-1.000000 F800.0(Penetrate)
G01 X105.573005 Y117.985112 Z-1.000000 F2500.000000
G00 Z0.100000
M05
(End cutting path id: path19738)


(Start cutting path id: path19744)
(Change tool to Default tool)

G00 Z0.100000
G00 X120.350534 Y106.414167
M03 S35
G01 Z-1.000000 F800.0(Penetrate)
G01 X106.192181 Y120.591500 Z-1.000000 F2500.000000
G00 Z0.100000
M05
(End cutting path id: path19744)


(Start cutting path id: path19746)
(Change tool to Default tool)

G00 Z0.100000
G00 X121.837353 Y107.092186
M03 S35
G01 Z-1.000000 F800.0(Penetrate)
G01 X106.872191 Y122.077409 Z-1.000000 F2500.000000
G00 Z0.100000
M05
(End cutting path id: path19746)


(Start cutting path id: path19742)
(Change tool to Default tool)

G00 Z0.100000
G00 X122.455525 Y107.458195
M03 S35
G01 Z-1.000000 F800.0(Penetrate)
G01 X107.239027 Y122.695090 Z-1.000000 F2500.000000
G00 Z0.100000
M05
(End cutting path id: path19742)


(Start cutting path id: path19748)
(Change tool to Default tool)

G00 Z0.100000
G00 X123.445697 Y108.168745
M03 S35
G01 Z-1.000000 F800.0(Penetrate)
G01 X107.950903 Y123.684310 Z-1.000000 F2500.000000
G00 Z0.100000
M05
(End cutting path id: path19748)


(Start cutting path id: path19752)
(Change tool to Default tool)

G00 Z0.100000
G00 X126.345112 Y111.730314
M03 S35
G01 Z-1.000000 F800.0(Penetrate)
G01 X111.516353 Y126.578951 Z-1.000000 F2500.000000
G00 Z0.100000
M05
(End cutting path id: path19752)


(Start cutting path id: path19732)
(Change tool to Default tool)

G00 Z0.100000
G00 X87.269959 Y106.436325
M03 S35
G01 Z-1.000000 F800.0(Penetrate)
G01 X87.283813 Y127.119932 Z-1.000000 F2500.000000
G00 Z0.100000
M05
(End cutting path id: path19732)


(Start cutting path id: path19594)
(Change tool to Default tool)

G00 Z0.100000
G00 X90.178542 Y95.177468
M03 S35
G01 Z-1.000000 F800.0(Penetrate)
G01 X90.185318 Y105.294343 Z-1.000000 F2500.000000
G00 Z0.100000
M05
(End cutting path id: path19594)


(Start cutting path id: path19596)
(Change tool to Default tool)

G00 Z0.100000
G00 X90.946133 Y93.906422
M03 S35
G01 Z-1.000000 F800.0(Penetrate)
G01 X90.954612 Y106.564359 Z-1.000000 F2500.000000
G00 Z0.100000
M05
(End cutting path id: path19596)


(Start cutting path id: path19590)
(Change tool to Default tool)

G00 Z0.100000
G00 X91.423295 Y92.634155
M03 S35
G01 Z-1.000000 F800.0(Penetrate)
G01 X91.433477 Y107.835986 Z-1.000000 F2500.000000
G00 Z0.100000
M05
(End cutting path id: path19590)


(Start cutting path id: path19592)
(Change tool to Default tool)

G00 Z0.100000
G00 X90.773043 Y92.005435
M03 S35
G01 Z-1.000000 F800.0(Penetrate)
G01 X90.784068 Y108.465576 Z-1.000000 F2500.000000
G00 Z0.100000
M05
(End cutting path id: path19592)


(Start cutting path id: path19600)
(Change tool to Default tool)

G00 Z0.100000
G00 X93.651577 Y91.199301
M03 S35
G01 Z-1.000000 F800.0(Penetrate)
G01 X93.663680 Y109.267836 Z-1.000000 F2500.000000
G00 Z0.100000
M05
(End cutting path id: path19600)


(Start cutting path id: path19598)
(Change tool to Default tool)

G00 Z0.100000
G00 X94.553560 Y90.630152
M03 S35
G01 Z-1.000000 F800.0(Penetrate)
G01 X94.566424 Y109.835794 Z-1.000000 F2500.000000
G00 Z0.100000
M05
(End cutting path id: path19598)


(Start cutting path id: path19604)
(Change tool to Default tool)

G00 Z0.100000
G00 X95.295080 Y90.247244
M03 S35
G01 Z-1.000000 F800.0(Penetrate)
G01 X95.308456 Y110.217708 Z-1.000000 F2500.000000
G00 Z0.100000
M05
(End cutting path id: path19604)


(Start cutting path id: path19486)
(Change tool to Default tool)

G00 Z0.100000
G00 X105.417571 Y93.275752
M03 S35
G01 Z-1.000000 F800.0(Penetrate)
G01 X94.533265 Y93.283042 Z-1.000000 F2500.000000
G00 Z0.100000
M05
(End cutting path id: path19486)


(Start cutting path id: path19602)
(Change tool to Default tool)

G00 Z0.100000
G00 X96.630504 Y89.723548
M03 S35
G01 Z-1.000000 F800.0(Penetrate)
G01 X96.644580 Y110.739615 Z-1.000000 F2500.000000
G00 Z0.100000
M05
(End cutting path id: path19602)


(Start cutting path id: path19606)
(Change tool to Default tool)

G00 Z0.100000
G00 X96.932229 Y89.632081
M03 S35
G01 Z-1.000000 F800.0(Penetrate)
G01 X96.946428 Y110.830678 Z-1.000000 F2500.000000
G00 Z0.100000
M05
(End cutting path id: path19606)


(Start cutting path id: path19610)
(Change tool to Default tool)

G00 Z0.100000
G00 X101.624978 Y89.325864
M03 S35
G01 Z-1.000000 F800.0(Penetrate)
G01 X101.639583 Y111.130608 Z-1.000000 F2500.000000
G00 Z0.100000
M05
(End cutting path id: path19610)


(Start cutting path id: path19608)
(Change tool to Default tool)

G00 Z0.100000
G00 X102.048164 Y89.398174
M03 S35
G01 Z-1.000000 F800.0(Penetrate)
G01 X102.062671 Y111.057731 Z-1.000000 F2500.000000
G00 Z0.100000
M05
(End cutting path id: path19608)


(Start cutting path id: path19484)
(Change tool to Default tool)

G00 Z0.100000
G00 X109.577061 Y89.099854
M03 S35
G01 Z-1.000000 F800.0(Penetrate)
G01 X90.368185 Y89.112720 Z-1.000000 F2500.000000
G00 Z0.100000
M05
(End cutting path id: path19484)


(Start cutting path id: path19588)
(Change tool to Default tool)

G00 Z0.100000
G00 X88.079083 Y90.237007
M03 S35
G01 Z-1.000000 F800.0(Penetrate)
G01 X88.092480 Y110.237630 Z-1.000000 F2500.000000
G00 Z0.100000
M05
(End cutting path id: path19588)


(Start cutting path id: path19586)
(Change tool to Default tool)

G00 Z0.100000
G00 X87.902563 Y90.157016
M03 S35
G01 Z-1.000000 F800.0(Penetrate)
G01 X87.916067 Y110.317840 Z-1.000000 F2500.000000
G00 Z0.100000
M05
(End cutting path id: path19586)


(Start cutting path id: path19570)
(Change tool to Default tool)

G00 Z0.100000
G00 X74.034308 Y94.484732
M03 S35
G01 Z-1.000000 F800.0(Penetrate)
G01 X74.042027 Y106.008705 Z-1.000000 F2500.000000
G00 Z0.100000
M05
(End cutting path id: path19570)


(Start cutting path id: path19456)
(Change tool to Default tool)

G00 Z0.100000
G00 X69.749540 Y94.360426
M03 S35
G01 Z-1.000000 F800.0(Penetrate)
G01 X56.235437 Y80.864415 Z-1.000000 F2500.000000
G00 Z0.100000
M05
(End cutting path id: path19456)


(Start cutting path id: path19284)
(Change tool to Default tool)

G00 Z0.100000
G00 X59.602270 Y73.161007
M03 S35
G01 Z-1.000000 F800.0(Penetrate)
G01 X50.897223 Y78.194659 Z-1.000000 F2500.000000
G00 Z0.100000
M05
(End cutting path id: path19284)


(Start cutting path id: path19424)
(Change tool to Default tool)

G00 Z0.100000
G00 X44.399505 Y80.665902
M03 S35
G01 Z-1.000000 F800.0(Penetrate)
G01 X25.865841 Y91.382889 Z-1.000000 F2500.000000
G00 Z0.100000
M05
(End cutting path id: path19424)


(Start cutting path id: path19430)
(Change tool to Default tool)

G00 Z0.100000
G00 X44.698659 Y85.460599
M03 S35
G01 Z-1.000000 F800.0(Penetrate)
G01 X29.872147 Y94.033927 Z-1.000000 F2500.000000
G00 Z0.100000
M05
(End cutting path id: path19430)


(Start cutting path id: path19428)
(Change tool to Default tool)

G00 Z0.100000
G00 X44.834763 Y83.726002
M03 S35
G01 Z-1.000000 F800.0(Penetrate)
G01 X28.300890 Y93.286606 Z-1.000000 F2500.000000
G00 Z0.100000
M05
(End cutting path id: path19428)


(Start cutting path id: path19426)
(Change tool to Default tool)

G00 Z0.100000
G00 X44.718633 Y82.137258
M03 S35
G01 Z-1.000000 F800.0(Penetrate)
G01 X26.981866 Y92.393432 Z-1.000000 F2500.000000
G00 Z0.100000
M05
(End cutting path id: path19426)


(Start cutting path id: path19422)
(Change tool to Default tool)

G00 Z0.100000
G00 X43.903005 Y79.297103
M03 S35
G01 Z-1.000000 F800.0(Penetrate)
G01 X24.927189 Y90.269750 Z-1.000000 F2500.000000
G00 Z0.100000
M05
(End cutting path id: path19422)


(Start cutting path id: path19412)
(Change tool to Default tool)

G00 Z0.100000
G00 X38.861611 Y73.932793
M03 S35
G01 Z-1.000000 F800.0(Penetrate)
G01 X22.792817 Y83.224471 Z-1.000000 F2500.000000
G00 Z0.100000
M05
(End cutting path id: path19412)


(Start cutting path id: path19414)
(Change tool to Default tool)

G00 Z0.100000
G00 X40.251418 Y74.785046
M03 S35
G01 Z-1.000000 F800.0(Penetrate)
G01 X22.838163 Y84.854135 Z-1.000000 F2500.000000
G00 Z0.100000
M05
(End cutting path id: path19414)


(Start cutting path id: path19416)
(Change tool to Default tool)

G00 Z0.100000
G00 X41.426376 Y75.761532
M03 S35
G01 Z-1.000000 F800.0(Penetrate)
G01 X23.098357 Y86.359586 Z-1.000000 F2500.000000
G00 Z0.100000
M05
(End cutting path id: path19416)


(Start cutting path id: path19418)
(Change tool to Default tool)

G00 Z0.100000
G00 X42.417772 Y76.844146
M03 S35
G01 Z-1.000000 F800.0(Penetrate)
G01 X23.542115 Y87.758890 Z-1.000000 F2500.000000
G00 Z0.100000
M05
(End cutting path id: path19418)


(Start cutting path id: path19420)
(Change tool to Default tool)

G00 Z0.100000
G00 X43.241441 Y78.023761
M03 S35
G01 Z-1.000000 F800.0(Penetrate)
G01 X24.153599 Y89.061193 Z-1.000000 F2500.000000
G00 Z0.100000
M05
(End cutting path id: path19420)


(Start cutting path id: path19256)
(Change tool to Default tool)

G00 Z0.100000
G00 X44.810197 Y67.738481
M03 S35
G01 Z-1.000000 F800.0(Penetrate)
G01 X39.788211 Y76.450264 Z-1.000000 F2500.000000
G00 Z0.100000
M05
(End cutting path id: path19256)


(Start cutting path id: path19254)
(Change tool to Default tool)

G00 Z0.100000
G00 X44.636421 Y65.169598
M03 S35
G01 Z-1.000000 F800.0(Penetrate)
G01 X37.478149 Y77.587320 Z-1.000000 F2500.000000
G00 Z0.100000
M05
(End cutting path id: path19254)


(Start cutting path id: path19252)
(Change tool to Default tool)

G00 Z0.100000
G00 X44.092095 Y63.243554
M03 S35
G01 Z-1.000000 F800.0(Penetrate)
G01 X35.538636 Y78.081537 Z-1.000000 F2500.000000
G00 Z0.100000
M05
(End cutting path id: path19252)


(Start cutting path id: path19250)
(Change tool to Default tool)

G00 Z0.100000
G00 X43.342669 Y61.673299
M03 S35
G01 Z-1.000000 F800.0(Penetrate)
G01 X33.804223 Y78.219965 Z-1.000000 F2500.000000
G00 Z0.100000
M05
(End cutting path id: path19250)


(Start cutting path id: path19248)
(Change tool to Default tool)

G00 Z0.100000
G00 X42.447730 Y60.355473
M03 S35
G01 Z-1.000000 F800.0(Penetrate)
G01 X32.215325 Y78.105964 Z-1.000000 F2500.000000
G00 Z0.100000
M05
(End cutting path id: path19248)


(Start cutting path id: path19246)
(Change tool to Default tool)

G00 Z0.100000
G00 X41.435674 Y59.240803
M03 S35
G01 Z-1.000000 F800.0(Penetrate)
G01 X30.743542 Y77.788807 Z-1.000000 F2500.000000
G00 Z0.100000
M05
(End cutting path id: path19246)


(Start cutting path id: path19224)
(Change tool to Default tool)

G00 Z0.100000
G00 X24.197746 Y58.636151
M03 S35
G01 Z-1.000000 F800.0(Penetrate)
G01 X24.209217 Y75.762938 Z-1.000000 F2500.000000
G00 Z0.100000
M05
(End cutting path id: path19224)


(Start cutting path id: path19222)
(Change tool to Default tool)

G00 Z0.100000
G00 X22.763595 Y57.650980
M03 S35
G01 Z-1.000000 F800.0(Penetrate)
G01 X22.776388 Y76.750029 Z-1.000000 F2500.000000
G00 Z0.100000
M05
(End cutting path id: path19222)


(Start cutting path id: path19220)
(Change tool to Default tool)

G00 Z0.100000
G00 X21.329640 Y56.957175
M03 S35
G01 Z-1.000000 F800.0(Penetrate)
G01 X21.343363 Y77.445754 Z-1.000000 F2500.000000
G00 Z0.100000
M05
(End cutting path id: path19220)


(Start cutting path id: path19218)
(Change tool to Default tool)

G00 Z0.100000
G00 X19.895841 Y56.497856
M03 S35
G01 Z-1.000000 F800.0(Penetrate)
G01 X19.910181 Y77.906993 Z-1.000000 F2500.000000
G00 Z0.100000
M05
(End cutting path id: path19218)


(Start cutting path id: path19046)
(Change tool to Default tool)

G00 Z0.100000
G00 X26.510652 Y56.642895
M03 S35
G01 Z-1.000000 F800.0(Penetrate)
G01 X17.805605 Y61.676547 Z-1.000000 F2500.000000
G00 Z0.100000
M05
(End cutting path id: path19046)


(Start cutting path id: path19044)
(Change tool to Default tool)

G00 Z0.100000
G00 X27.644613 Y54.331311
M03 S35
G01 Z-1.000000 F800.0(Penetrate)
G01 X15.236492 Y61.506230 Z-1.000000 F2500.000000
G00 Z0.100000
M05
(End cutting path id: path19044)


(Start cutting path id: path19230)
(Change tool to Default tool)

G00 Z0.100000
G00 X29.458480 Y57.055567
M03 S35
G01 Z-1.000000 F800.0(Penetrate)
G01 X22.850048 Y68.519428 Z-1.000000 F2500.000000
G00 Z0.100000
M05
(End cutting path id: path19230)


(Start cutting path id: path19232)
(Change tool to Default tool)

G00 Z0.100000
G00 X31.484379 Y56.411473
M03 S35
G01 Z-1.000000 F800.0(Penetrate)
G01 X23.307968 Y70.595348 Z-1.000000 F2500.000000
G00 Z0.100000
M05
(End cutting path id: path19232)


(Start cutting path id: path19234)
(Change tool to Default tool)

G00 Z0.100000
G00 X33.273165 Y56.178711
M03 S35
G01 Z-1.000000 F800.0(Penetrate)
G01 X24.003021 Y72.259937 Z-1.000000 F2500.000000
G00 Z0.100000
M05
(End cutting path id: path19234)


(Start cutting path id: path19236)
(Change tool to Default tool)

G00 Z0.100000
G00 X34.902889 Y56.221874
M03 S35
G01 Z-1.000000 F800.0(Penetrate)
G01 X24.857135 Y73.648602 Z-1.000000 F2500.000000
G00 Z0.100000
M05
(End cutting path id: path19236)


(Start cutting path id: path19238)
(Change tool to Default tool)

G00 Z0.100000
G00 X36.408686 Y56.480051
M03 S35
G01 Z-1.000000 F800.0(Penetrate)
G01 X25.835195 Y74.822251 Z-1.000000 F2500.000000
G00 Z0.100000
M05
(End cutting path id: path19238)


(Start cutting path id: path19240)
(Change tool to Default tool)

G00 Z0.100000
G00 X37.808565 Y56.921934
M03 S35
G01 Z-1.000000 F800.0(Penetrate)
G01 X26.919136 Y75.812196 Z-1.000000 F2500.000000
G00 Z0.100000
M05
(End cutting path id: path19240)


(Start cutting path id: path19242)
(Change tool to Default tool)

G00 Z0.100000
G00 X39.111704 Y57.531673
M03 S35
G01 Z-1.000000 F800.0(Penetrate)
G01 X28.099853 Y76.634284 Z-1.000000 F2500.000000
G00 Z0.100000
M05
(End cutting path id: path19242)


(Start cutting path id: path19244)
(Change tool to Default tool)

G00 Z0.100000
G00 X40.321297 Y58.303643
M03 S35
G01 Z-1.000000 F800.0(Penetrate)
G01 X29.374080 Y77.294141 Z-1.000000 F2500.000000
G00 Z0.100000
M05
(End cutting path id: path19244)


(Start cutting path id: path19042)
(Change tool to Default tool)

G00 Z0.100000
G00 X28.136232 Y52.391139
M03 S35
G01 Z-1.000000 F800.0(Penetrate)
G01 X13.309720 Y60.964467 Z-1.000000 F2500.000000
G00 Z0.100000
M05
(End cutting path id: path19042)


(Start cutting path id: path19040)
(Change tool to Default tool)

G00 Z0.100000
G00 X28.272336 Y50.656542
M03 S35
G01 Z-1.000000 F800.0(Penetrate)
G01 X11.738463 Y60.217145 Z-1.000000 F2500.000000
G00 Z0.100000
M05
(End cutting path id: path19040)


(Start cutting path id: path18812)
(Change tool to Default tool)

G00 Z0.100000
G00 X22.268785 Y43.934184
M03 S35
G01 Z-1.000000 F800.0(Penetrate)
G01 X12.213183 Y43.940919 Z-1.000000 F2500.000000
G00 Z0.100000
M05
(End cutting path id: path18812)


(Start cutting path id: path19020)
(Change tool to Default tool)

G00 Z0.100000
G00 X18.557133 Y39.715371
M03 S35
G01 Z-1.000000 F800.0(Penetrate)
G01 X7.102135 Y46.339154 Z-1.000000 F2500.000000
G00 Z0.100000
M05
(End cutting path id: path19020)


(Start cutting path id: path19022)
(Change tool to Default tool)

G00 Z0.100000
G00 X20.633665 Y40.170510
M03 S35
G01 Z-1.000000 F800.0(Penetrate)
G01 X6.460756 Y48.365915 Z-1.000000 F2500.000000
G00 Z0.100000
M05
(End cutting path id: path19022)


(Start cutting path id: path19024)
(Change tool to Default tool)

G00 Z0.100000
G00 X22.299184 Y40.863333
M03 S35
G01 Z-1.000000 F800.0(Penetrate)
G01 X6.230390 Y50.155010 Z-1.000000 F2500.000000
G00 Z0.100000
M05
(End cutting path id: path19024)


(Start cutting path id: path19026)
(Change tool to Default tool)

G00 Z0.100000
G00 X23.688991 Y41.715586
M03 S35
G01 Z-1.000000 F800.0(Penetrate)
G01 X6.275736 Y51.784675 Z-1.000000 F2500.000000
G00 Z0.100000
M05
(End cutting path id: path19026)


(Start cutting path id: path18810)
(Change tool to Default tool)

G00 Z0.100000
G00 X24.406629 Y42.499261
M03 S35
G01 Z-1.000000 F800.0(Penetrate)
G01 X10.073419 Y42.508862 Z-1.000000 F2500.000000
G00 Z0.100000
M05
(End cutting path id: path18810)


(Start cutting path id: path19028)
(Change tool to Default tool)

G00 Z0.100000
G00 X24.863949 Y42.692072
M03 S35
G01 Z-1.000000 F800.0(Penetrate)
G01 X6.535930 Y53.290125 Z-1.000000 F2500.000000
G00 Z0.100000
M05
(End cutting path id: path19028)


(Start cutting path id: path19030)
(Change tool to Default tool)

G00 Z0.100000
G00 X25.855345 Y43.774686
M03 S35
G01 Z-1.000000 F800.0(Penetrate)
G01 X6.979688 Y54.689430 Z-1.000000 F2500.000000
G00 Z0.100000
M05
(End cutting path id: path19030)


(Start cutting path id: path19038)
(Change tool to Default tool)

G00 Z0.100000
G00 X28.156206 Y49.067798
M03 S35
G01 Z-1.000000 F800.0(Penetrate)
G01 X10.419439 Y59.323972 Z-1.000000 F2500.000000
G00 Z0.100000
M05
(End cutting path id: path19038)


(Start cutting path id: path19036)
(Change tool to Default tool)

G00 Z0.100000
G00 X27.837078 Y47.596441
M03 S35
G01 Z-1.000000 F800.0(Penetrate)
G01 X9.303414 Y58.313428 Z-1.000000 F2500.000000
G00 Z0.100000
M05
(End cutting path id: path19036)


(Start cutting path id: path19034)
(Change tool to Default tool)

G00 Z0.100000
G00 X27.340578 Y46.227643
M03 S35
G01 Z-1.000000 F800.0(Penetrate)
G01 X8.364761 Y57.200290 Z-1.000000 F2500.000000
G00 Z0.100000
M05
(End cutting path id: path19034)


(Start cutting path id: path19032)
(Change tool to Default tool)

G00 Z0.100000
G00 X26.679014 Y44.954301
M03 S35
G01 Z-1.000000 F800.0(Penetrate)
G01 X7.591172 Y55.991732 Z-1.000000 F2500.000000
G00 Z0.100000
M05
(End cutting path id: path19032)


(Start cutting path id: path18808)
(Change tool to Default tool)

G00 Z0.100000
G00 X25.802457 Y41.064836
M03 S35
G01 Z-1.000000 F800.0(Penetrate)
G01 X8.675670 Y41.076307 Z-1.000000 F2500.000000
G00 Z0.100000
M05
(End cutting path id: path18808)


(Start cutting path id: path18806)
(Change tool to Default tool)

G00 Z0.100000
G00 X26.787628 Y39.630685
M03 S35
G01 Z-1.000000 F800.0(Penetrate)
G01 X7.688579 Y39.643478 Z-1.000000 F2500.000000
G00 Z0.100000
M05
(End cutting path id: path18806)


(Start cutting path id: path18804)
(Change tool to Default tool)

G00 Z0.100000
G00 X27.481433 Y38.196730
M03 S35
G01 Z-1.000000 F800.0(Penetrate)
G01 X6.992854 Y38.210453 Z-1.000000 F2500.000000
G00 Z0.100000
M05
(End cutting path id: path18804)


(Start cutting path id: path18802)
(Change tool to Default tool)

G00 Z0.100000
G00 X27.940752 Y36.762931
M03 S35
G01 Z-1.000000 F800.0(Penetrate)
G01 X6.531615 Y36.777271 Z-1.000000 F2500.000000
G00 Z0.100000
M05
(End cutting path id: path18802)


(Start cutting path id: path18786)
(Change tool to Default tool)

G00 Z0.100000
G00 X23.844610 Y25.297750
M03 S35
G01 Z-1.000000 F800.0(Penetrate)
G01 X10.612394 Y25.306613 Z-1.000000 F2500.000000
G00 Z0.100000
M05
(End cutting path id: path18786)


(Start cutting path id: path18788)
(Change tool to Default tool)

G00 Z0.100000
G00 X25.415370 Y26.730188
M03 S35
G01 Z-1.000000 F800.0(Penetrate)
G01 X9.043554 Y26.741154 Z-1.000000 F2500.000000
G00 Z0.100000
M05
(End cutting path id: path18788)


(Start cutting path id: path18790)
(Change tool to Default tool)

G00 Z0.100000
G00 X26.511333 Y28.162945
M03 S35
G01 Z-1.000000 F800.0(Penetrate)
G01 X7.949512 Y28.175378 Z-1.000000 F2500.000000
G00 Z0.100000
M05
(End cutting path id: path18790)


(Start cutting path id: path18600)
(Change tool to Default tool)

G00 Z0.100000
G00 X26.488495 Y23.562356
M03 S35
G01 Z-1.000000 F800.0(Penetrate)
G01 X17.783447 Y28.596008 Z-1.000000 F2500.000000
G00 Z0.100000
M05
(End cutting path id: path18600)


(Start cutting path id: path18792)
(Change tool to Default tool)

G00 Z0.100000
G00 X27.288804 Y29.595915
M03 S35
G01 Z-1.000000 F800.0(Penetrate)
G01 X7.173961 Y29.609388 Z-1.000000 F2500.000000
G00 Z0.100000
M05
(End cutting path id: path18792)


(Start cutting path id: path18794)
(Change tool to Default tool)

G00 Z0.100000
G00 X27.818115 Y31.029051
M03 S35
G01 Z-1.000000 F800.0(Penetrate)
G01 X6.646570 Y31.043232 Z-1.000000 F2500.000000
G00 Z0.100000
M05
(End cutting path id: path18794)


(Start cutting path id: path18796)
(Change tool to Default tool)

G00 Z0.100000
G00 X28.135399 Y32.462329
M03 S35
G01 Z-1.000000 F800.0(Penetrate)
G01 X6.331207 Y32.476934 Z-1.000000 F2500.000000
G00 Z0.100000
M05
(End cutting path id: path18796)


(Start cutting path id: path18798)
(Change tool to Default tool)

G00 Z0.100000
G00 X28.258904 Y33.895737
M03 S35
G01 Z-1.000000 F800.0(Penetrate)
G01 X6.209622 Y33.910506 Z-1.000000 F2500.000000
G00 Z0.100000
M05
(End cutting path id: path18798)


(Start cutting path id: path18800)
(Change tool to Default tool)

G00 Z0.100000
G00 X28.195155 Y35.329270
M03 S35
G01 Z-1.000000 F800.0(Penetrate)
G01 X6.275291 Y35.343952 Z-1.000000 F2500.000000
G00 Z0.100000
M05
(End cutting path id: path18800)


(Start cutting path id: path18598)
(Change tool to Default tool)

G00 Z0.100000
G00 X27.622455 Y21.250772
M03 S35
G01 Z-1.000000 F800.0(Penetrate)
G01 X15.214334 Y28.425673 Z-1.000000 F2500.000000
G00 Z0.100000
M05
(End cutting path id: path18598)


(Start cutting path id: path18596)
(Change tool to Default tool)

G00 Z0.100000
G00 X28.114074 Y19.310599
M03 S35
G01 Z-1.000000 F800.0(Penetrate)
G01 X13.287562 Y27.883928 Z-1.000000 F2500.000000
G00 Z0.100000
M05
(End cutting path id: path18596)


(Start cutting path id: path18594)
(Change tool to Default tool)

G00 Z0.100000
G00 X28.250178 Y17.576003
M03 S35
G01 Z-1.000000 F800.0(Penetrate)
G01 X11.716305 Y27.136606 Z-1.000000 F2500.000000
G00 Z0.100000
M05
(End cutting path id: path18594)


(Start cutting path id: path18592)
(Change tool to Default tool)

G00 Z0.100000
G00 X28.134049 Y15.987259
M03 S35
G01 Z-1.000000 F800.0(Penetrate)
G01 X10.397281 Y26.243433 Z-1.000000 F2500.000000
G00 Z0.100000
M05
(End cutting path id: path18592)


(Start cutting path id: path18590)
(Change tool to Default tool)

G00 Z0.100000
G00 X27.814920 Y14.515902
M03 S35
G01 Z-1.000000 F800.0(Penetrate)
G01 X9.281257 Y25.232871 Z-1.000000 F2500.000000
G00 Z0.100000
M05
(End cutting path id: path18590)


(Start cutting path id: path18574)
(Change tool to Default tool)

G00 Z0.100000
G00 X18.534975 Y6.634832
M03 S35
G01 Z-1.000000 F800.0(Penetrate)
G01 X7.079977 Y13.258615 Z-1.000000 F2500.000000
G00 Z0.100000
M05
(End cutting path id: path18574)


(Start cutting path id: path18576)
(Change tool to Default tool)

G00 Z0.100000
G00 X20.611508 Y7.089989
M03 S35
G01 Z-1.000000 F800.0(Penetrate)
G01 X6.438598 Y15.285376 Z-1.000000 F2500.000000
G00 Z0.100000
M05
(End cutting path id: path18576)


(Start cutting path id: path18578)
(Change tool to Default tool)

G00 Z0.100000
G00 X22.277026 Y7.782793
M03 S35
G01 Z-1.000000 F800.0(Penetrate)
G01 X6.208232 Y17.074471 Z-1.000000 F2500.000000
G00 Z0.100000
M05
(End cutting path id: path18578)


(Start cutting path id: path18580)
(Change tool to Default tool)

G00 Z0.100000
G00 X23.666833 Y8.635047
M03 S35
G01 Z-1.000000 F800.0(Penetrate)
G01 X6.253578 Y18.704136 Z-1.000000 F2500.000000
G00 Z0.100000
M05
(End cutting path id: path18580)


(Start cutting path id: path18582)
(Change tool to Default tool)

G00 Z0.100000
G00 X24.841792 Y9.611533
M03 S35
G01 Z-1.000000 F800.0(Penetrate)
G01 X6.513773 Y20.209586 Z-1.000000 F2500.000000
G00 Z0.100000
M05
(End cutting path id: path18582)


(Start cutting path id: path18584)
(Change tool to Default tool)

G00 Z0.100000
G00 X25.833188 Y10.694147
M03 S35
G01 Z-1.000000 F800.0(Penetrate)
G01 X6.957530 Y21.608872 Z-1.000000 F2500.000000
G00 Z0.100000
M05
(End cutting path id: path18584)


(Start cutting path id: path18586)
(Change tool to Default tool)

G00 Z0.100000
G00 X26.656857 Y11.873762
M03 S35
G01 Z-1.000000 F800.0(Penetrate)
G01 X7.569014 Y22.911193 Z-1.000000 F2500.000000
G00 Z0.100000
M05
(End cutting path id: path18586)


(Start cutting path id: path18588)
(Change tool to Default tool)

G00 Z0.100000
G00 X27.318420 Y13.147104
M03 S35
G01 Z-1.000000 F800.0(Penetrate)
G01 X8.342604 Y24.119751 Z-1.000000 F2500.000000
G00 Z0.100000
M05
(End cutting path id: path18588)


(Start cutting path id: path18814)
(Change tool to Default tool)

G00 Z0.100000
G00 X32.207934 Y23.197598
M03 S35
G01 Z-1.000000 F800.0(Penetrate)
G01 X22.857609 Y32.560456 Z-1.000000 F2500.000000
G00 Z0.100000
M05
(End cutting path id: path18814)


(Start cutting path id: path19048)
(Change tool to Default tool)

G00 Z0.100000
G00 X32.219012 Y39.737867
M03 S35
G01 Z-1.000000 F800.0(Penetrate)
G01 X22.868688 Y49.100726 Z-1.000000 F2500.000000
G00 Z0.100000
M05
(End cutting path id: path19048)


(Start cutting path id: path19050)
(Change tool to Default tool)

G00 Z0.100000
G00 X34.342590 Y39.640070
M03 S35
G01 Z-1.000000 F800.0(Penetrate)
G01 X22.773736 Y51.224432 Z-1.000000 F2500.000000
G00 Z0.100000
M05
(End cutting path id: path19050)


(Start cutting path id: path19052)
(Change tool to Default tool)

G00 Z0.100000
G00 X36.130680 Y39.878210
M03 S35
G01 Z-1.000000 F800.0(Penetrate)
G01 X23.014271 Y53.012202 Z-1.000000 F2500.000000
G00 Z0.100000
M05
(End cutting path id: path19052)


(Start cutting path id: path19054)
(Change tool to Default tool)

G00 Z0.100000
G00 X37.693697 Y40.341724
M03 S35
G01 Z-1.000000 F800.0(Penetrate)
G01 X23.479879 Y54.574597 Z-1.000000 F2500.000000
G00 Z0.100000
M05
(End cutting path id: path19054)


(Start cutting path id: path19056)
(Change tool to Default tool)

G00 Z0.100000
G00 X39.081340 Y40.980830
M03 S35
G01 Z-1.000000 F800.0(Penetrate)
G01 X24.120843 Y55.961400 Z-1.000000 F2500.000000
G00 Z0.100000
M05
(End cutting path id: path19056)


(Start cutting path id: path19074)
(Change tool to Default tool)

G00 Z0.100000
G00 X44.282698 Y54.030087
M03 S35
G01 Z-1.000000 F800.0(Penetrate)
G01 X37.177056 Y61.145255 Z-1.000000 F2500.000000
G00 Z0.100000
M05
(End cutting path id: path19074)


(Start cutting path id: path19072)
(Change tool to Default tool)

G00 Z0.100000
G00 X44.779732 Y51.503779
M03 S35
G01 Z-1.000000 F800.0(Penetrate)
G01 X34.651415 Y61.645672 Z-1.000000 F2500.000000
G00 Z0.100000
M05
(End cutting path id: path19072)


(Start cutting path id: path19070)
(Change tool to Default tool)

G00 Z0.100000
G00 X44.752442 Y49.502479
M03 S35
G01 Z-1.000000 F800.0(Penetrate)
G01 X32.650080 Y61.621063 Z-1.000000 F2500.000000
G00 Z0.100000
M05
(End cutting path id: path19070)


(Start cutting path id: path19068)
(Change tool to Default tool)

G00 Z0.100000
G00 X44.434972 Y47.791765
M03 S35
G01 Z-1.000000 F800.0(Penetrate)
G01 X30.938943 Y61.305867 Z-1.000000 F2500.000000
G00 Z0.100000
M05
(End cutting path id: path19068)


(Start cutting path id: path19066)
(Change tool to Default tool)

G00 Z0.100000
G00 X43.911604 Y46.287208
M03 S35
G01 Z-1.000000 F800.0(Penetrate)
G01 X29.433686 Y60.784534 Z-1.000000 F2500.000000
G00 Z0.100000
M05
(End cutting path id: path19066)


(Start cutting path id: path19064)
(Change tool to Default tool)

G00 Z0.100000
G00 X43.222522 Y44.948568
M03 S35
G01 Z-1.000000 F800.0(Penetrate)
G01 X28.094125 Y60.097245 Z-1.000000 F2500.000000
G00 Z0.100000
M05
(End cutting path id: path19064)


(Start cutting path id: path19062)
(Change tool to Default tool)

G00 Z0.100000
G00 X42.388662 Y43.754937
M03 S35
G01 Z-1.000000 F800.0(Penetrate)
G01 X26.899378 Y59.264985 Z-1.000000 F2500.000000
G00 Z0.100000
M05
(End cutting path id: path19062)


(Start cutting path id: path19060)
(Change tool to Default tool)

G00 Z0.100000
G00 X41.420089 Y42.696200
M03 S35
G01 Z-1.000000 F800.0(Penetrate)
G01 X25.839344 Y58.297832 Z-1.000000 F2500.000000
G00 Z0.100000
M05
(End cutting path id: path19060)


(Start cutting path id: path19058)
(Change tool to Default tool)

G00 Z0.100000
G00 X40.319173 Y41.769965
M03 S35
G01 Z-1.000000 F800.0(Penetrate)
G01 X24.911635 Y57.198157 Z-1.000000 F2500.000000
G00 Z0.100000
M05
(End cutting path id: path19058)


(Start cutting path id: path19258)
(Change tool to Default tool)

G00 Z0.100000
G00 X51.648751 Y56.233483
M03 S35
G01 Z-1.000000 F800.0(Penetrate)
G01 X40.193753 Y62.857266 Z-1.000000 F2500.000000
G00 Z0.100000
M05
(End cutting path id: path19258)


(Start cutting path id: path19260)
(Change tool to Default tool)

G00 Z0.100000
G00 X53.725283 Y56.688622
M03 S35
G01 Z-1.000000 F800.0(Penetrate)
G01 X39.552373 Y64.884027 Z-1.000000 F2500.000000
G00 Z0.100000
M05
(End cutting path id: path19260)


(Start cutting path id: path19102)
(Change tool to Default tool)

G00 Z0.100000
G00 X55.360403 Y60.452296
M03 S35
G01 Z-1.000000 F800.0(Penetrate)
G01 X45.304801 Y60.459031 Z-1.000000 F2500.000000
G00 Z0.100000
M05
(End cutting path id: path19102)


(Start cutting path id: path19262)
(Change tool to Default tool)

G00 Z0.100000
G00 X55.390801 Y57.381445
M03 S35
G01 Z-1.000000 F800.0(Penetrate)
G01 X39.322008 Y66.673122 Z-1.000000 F2500.000000
G00 Z0.100000
M05
(End cutting path id: path19262)


(Start cutting path id: path19264)
(Change tool to Default tool)

G00 Z0.100000
G00 X56.780609 Y58.233698
M03 S35
G01 Z-1.000000 F800.0(Penetrate)
G01 X39.367354 Y68.302787 Z-1.000000 F2500.000000
G00 Z0.100000
M05
(End cutting path id: path19264)


(Start cutting path id: path19100)
(Change tool to Default tool)

G00 Z0.100000
G00 X57.498246 Y59.017373
M03 S35
G01 Z-1.000000 F800.0(Penetrate)
G01 X43.165037 Y59.026974 Z-1.000000 F2500.000000
G00 Z0.100000
M05
(End cutting path id: path19100)


(Start cutting path id: path19266)
(Change tool to Default tool)

G00 Z0.100000
G00 X57.955567 Y59.210184
M03 S35
G01 Z-1.000000 F800.0(Penetrate)
G01 X39.627548 Y69.808237 Z-1.000000 F2500.000000
G00 Z0.100000
M05
(End cutting path id: path19266)


(Start cutting path id: path19282)
(Change tool to Default tool)

G00 Z0.100000
G00 X60.736230 Y70.849423
M03 S35
G01 Z-1.000000 F800.0(Penetrate)
G01 X48.328110 Y78.024342 Z-1.000000 F2500.000000
G00 Z0.100000
M05
(End cutting path id: path19282)


(Start cutting path id: path19550)
(Change tool to Default tool)

G00 Z0.100000
G00 X54.370992 Y89.991394
M03 S35
G01 Z-1.000000 F800.0(Penetrate)
G01 X43.481563 Y108.881674 Z-1.000000 F2500.000000
G00 Z0.100000
M05
(End cutting path id: path19550)


(Start cutting path id: path19564)
(Change tool to Default tool)

G00 Z0.100000
G00 X61.198866 Y98.239059
M03 S35
G01 Z-1.000000 F800.0(Penetrate)
G01 X54.040576 Y110.656780 Z-1.000000 F2500.000000
G00 Z0.100000
M05
(End cutting path id: path19564)


(Start cutting path id: path19562)
(Change tool to Default tool)

G00 Z0.100000
G00 X60.654522 Y96.313014
M03 S35
G01 Z-1.000000 F800.0(Penetrate)
G01 X52.101063 Y111.150998 Z-1.000000 F2500.000000
G00 Z0.100000
M05
(End cutting path id: path19562)


(Start cutting path id: path19560)
(Change tool to Default tool)

G00 Z0.100000
G00 X59.905096 Y94.742759
M03 S35
G01 Z-1.000000 F800.0(Penetrate)
G01 X50.366650 Y111.289425 Z-1.000000 F2500.000000
G00 Z0.100000
M05
(End cutting path id: path19560)


(Start cutting path id: path19558)
(Change tool to Default tool)

G00 Z0.100000
G00 X59.010157 Y93.424933
M03 S35
G01 Z-1.000000 F800.0(Penetrate)
G01 X48.777752 Y111.175424 Z-1.000000 F2500.000000
G00 Z0.100000
M05
(End cutting path id: path19558)


(Start cutting path id: path19556)
(Change tool to Default tool)

G00 Z0.100000
G00 X57.998119 Y92.310264
M03 S35
G01 Z-1.000000 F800.0(Penetrate)
G01 X47.305969 Y110.858267 Z-1.000000 F2500.000000
G00 Z0.100000
M05
(End cutting path id: path19556)


(Start cutting path id: path19554)
(Change tool to Default tool)

G00 Z0.100000
G00 X56.883724 Y91.373103
M03 S35
G01 Z-1.000000 F800.0(Penetrate)
G01 X45.936507 Y110.363601 Z-1.000000 F2500.000000
G00 Z0.100000
M05
(End cutting path id: path19554)


(Start cutting path id: path19552)
(Change tool to Default tool)

G00 Z0.100000
G00 X55.674131 Y90.601133
M03 S35
G01 Z-1.000000 F800.0(Penetrate)
G01 X44.662280 Y109.703744 Z-1.000000 F2500.000000
G00 Z0.100000
M05
(End cutting path id: path19552)


(Start cutting path id: path19462)
(Change tool to Default tool)

G00 Z0.100000
G00 X63.511217 Y94.208170
M03 S35
G01 Z-1.000000 F800.0(Penetrate)
G01 X56.396050 Y87.102528 Z-1.000000 F2500.000000
G00 Z0.100000
M05
(End cutting path id: path19462)


(Start cutting path id: path19460)
(Change tool to Default tool)

G00 Z0.100000
G00 X66.037526 Y94.705204
M03 S35
G01 Z-1.000000 F800.0(Penetrate)
G01 X55.895632 Y84.576887 Z-1.000000 F2500.000000
G00 Z0.100000
M05
(End cutting path id: path19460)


(Start cutting path id: path19458)
(Change tool to Default tool)

G00 Z0.100000
G00 X68.038826 Y94.677913
M03 S35
G01 Z-1.000000 F800.0(Penetrate)
G01 X55.920241 Y82.575552 Z-1.000000 F2500.000000
G00 Z0.100000
M05
(End cutting path id: path19458)


(Start cutting path id: path19280)
(Change tool to Default tool)

G00 Z0.100000
G00 X61.227849 Y68.909251
M03 S35
G01 Z-1.000000 F800.0(Penetrate)
G01 X46.401337 Y77.482579 Z-1.000000 F2500.000000
G00 Z0.100000
M05
(End cutting path id: path19280)


(Start cutting path id: path19278)
(Change tool to Default tool)

G00 Z0.100000
G00 X61.363953 Y67.174654
M03 S35
G01 Z-1.000000 F800.0(Penetrate)
G01 X44.830080 Y76.735257 Z-1.000000 F2500.000000
G00 Z0.100000
M05
(End cutting path id: path19278)


(Start cutting path id: path19276)
(Change tool to Default tool)

G00 Z0.100000
G00 X61.247824 Y65.585910
M03 S35
G01 Z-1.000000 F800.0(Penetrate)
G01 X43.511057 Y75.842084 Z-1.000000 F2500.000000
G00 Z0.100000
M05
(End cutting path id: path19276)


(Start cutting path id: path19274)
(Change tool to Default tool)

G00 Z0.100000
G00 X60.928696 Y64.114553
M03 S35
G01 Z-1.000000 F800.0(Penetrate)
G01 X42.395032 Y74.831540 Z-1.000000 F2500.000000
G00 Z0.100000
M05
(End cutting path id: path19274)


(Start cutting path id: path19272)
(Change tool to Default tool)

G00 Z0.100000
G00 X60.432195 Y62.745755
M03 S35
G01 Z-1.000000 F800.0(Penetrate)
G01 X41.456379 Y73.718402 Z-1.000000 F2500.000000
G00 Z0.100000
M05
(End cutting path id: path19272)


(Start cutting path id: path19270)
(Change tool to Default tool)

G00 Z0.100000
G00 X59.770632 Y61.472413
M03 S35
G01 Z-1.000000 F800.0(Penetrate)
G01 X40.682790 Y72.509844 Z-1.000000 F2500.000000
G00 Z0.100000
M05
(End cutting path id: path19270)


(Start cutting path id: path19268)
(Change tool to Default tool)

G00 Z0.100000
G00 X58.946963 Y60.292798
M03 S35
G01 Z-1.000000 F800.0(Penetrate)
G01 X40.071305 Y71.207542 Z-1.000000 F2500.000000
G00 Z0.100000
M05
(End cutting path id: path19268)


(Start cutting path id: path19098)
(Change tool to Default tool)

G00 Z0.100000
G00 X58.894075 Y57.582948
M03 S35
G01 Z-1.000000 F800.0(Penetrate)
G01 X41.767288 Y57.594419 Z-1.000000 F2500.000000
G00 Z0.100000
M05
(End cutting path id: path19098)


(Start cutting path id: path19096)
(Change tool to Default tool)

G00 Z0.100000
G00 X59.879246 Y56.148797
M03 S35
G01 Z-1.000000 F800.0(Penetrate)
G01 X40.780197 Y56.161590 Z-1.000000 F2500.000000
G00 Z0.100000
M05
(End cutting path id: path19096)


(Start cutting path id: path18840)
(Change tool to Default tool)

G00 Z0.100000
G00 X44.271619 Y37.489818
M03 S35
G01 Z-1.000000 F800.0(Penetrate)
G01 X37.165977 Y44.604985 Z-1.000000 F2500.000000
G00 Z0.100000
M05
(End cutting path id: path18840)


(Start cutting path id: path18838)
(Change tool to Default tool)

G00 Z0.100000
G00 X44.768653 Y34.963509
M03 S35
G01 Z-1.000000 F800.0(Penetrate)
G01 X34.640337 Y45.105403 Z-1.000000 F2500.000000
G00 Z0.100000
M05
(End cutting path id: path18838)


(Start cutting path id: path18836)
(Change tool to Default tool)

G00 Z0.100000
G00 X44.741363 Y32.962209
M03 S35
G01 Z-1.000000 F800.0(Penetrate)
G01 X32.639002 Y45.080794 Z-1.000000 F2500.000000
G00 Z0.100000
M05
(End cutting path id: path18836)


(Start cutting path id: path18834)
(Change tool to Default tool)

G00 Z0.100000
G00 X44.423893 Y31.251495
M03 S35
G01 Z-1.000000 F800.0(Penetrate)
G01 X30.927864 Y44.765616 Z-1.000000 F2500.000000
G00 Z0.100000
M05
(End cutting path id: path18834)


(Start cutting path id: path18832)
(Change tool to Default tool)

G00 Z0.100000
G00 X43.900525 Y29.746938
M03 S35
G01 Z-1.000000 F800.0(Penetrate)
G01 X29.422607 Y44.244264 Z-1.000000 F2500.000000
G00 Z0.100000
M05
(End cutting path id: path18832)


(Start cutting path id: path18830)
(Change tool to Default tool)

G00 Z0.100000
G00 X43.211443 Y28.408299
M03 S35
G01 Z-1.000000 F800.0(Penetrate)
G01 X28.083046 Y43.556975 Z-1.000000 F2500.000000
G00 Z0.100000
M05
(End cutting path id: path18830)


(Start cutting path id: path18816)
(Change tool to Default tool)

G00 Z0.100000
G00 X34.331511 Y23.099801
M03 S35
G01 Z-1.000000 F800.0(Penetrate)
G01 X22.762657 Y34.684163 Z-1.000000 F2500.000000
G00 Z0.100000
M05
(End cutting path id: path18816)


(Start cutting path id: path18818)
(Change tool to Default tool)

G00 Z0.100000
G00 X36.119601 Y23.337941
M03 S35
G01 Z-1.000000 F800.0(Penetrate)
G01 X23.003192 Y36.471932 Z-1.000000 F2500.000000
G00 Z0.100000
M05
(End cutting path id: path18818)


(Start cutting path id: path18820)
(Change tool to Default tool)

G00 Z0.100000
G00 X37.682618 Y23.801455
M03 S35
G01 Z-1.000000 F800.0(Penetrate)
G01 X23.468800 Y38.034327 Z-1.000000 F2500.000000
G00 Z0.100000
M05
(End cutting path id: path18820)


(Start cutting path id: path18822)
(Change tool to Default tool)

G00 Z0.100000
G00 X39.070261 Y24.440561
M03 S35
G01 Z-1.000000 F800.0(Penetrate)
G01 X24.109764 Y39.421131 Z-1.000000 F2500.000000
G00 Z0.100000
M05
(End cutting path id: path18822)


(Start cutting path id: path18824)
(Change tool to Default tool)

G00 Z0.100000
G00 X40.308094 Y25.229695
M03 S35
G01 Z-1.000000 F800.0(Penetrate)
G01 X24.900556 Y40.657887 Z-1.000000 F2500.000000
G00 Z0.100000
M05
(End cutting path id: path18824)


(Start cutting path id: path18826)
(Change tool to Default tool)

G00 Z0.100000
G00 X41.409011 Y26.155930
M03 S35
G01 Z-1.000000 F800.0(Penetrate)
G01 X25.828265 Y41.757562 Z-1.000000 F2500.000000
G00 Z0.100000
M05
(End cutting path id: path18826)


(Start cutting path id: path18828)
(Change tool to Default tool)

G00 Z0.100000
G00 X42.377583 Y27.214668
M03 S35
G01 Z-1.000000 F800.0(Penetrate)
G01 X26.888299 Y42.724715 Z-1.000000 F2500.000000
G00 Z0.100000
M05
(End cutting path id: path18828)


(Start cutting path id: path18628)
(Change tool to Default tool)

G00 Z0.100000
G00 X43.028764 Y23.551277
M03 S35
G01 Z-1.000000 F800.0(Penetrate)
G01 X34.323717 Y28.584929 Z-1.000000 F2500.000000
G00 Z0.100000
M05
(End cutting path id: path18628)


(Start cutting path id: path18626)
(Change tool to Default tool)

G00 Z0.100000
G00 X44.162725 Y21.239694
M03 S35
G01 Z-1.000000 F800.0(Penetrate)
G01 X31.754604 Y28.414594 Z-1.000000 F2500.000000
G00 Z0.100000
M05
(End cutting path id: path18626)


(Start cutting path id: path18624)
(Change tool to Default tool)

G00 Z0.100000
G00 X44.654344 Y19.299521
M03 S35
G01 Z-1.000000 F800.0(Penetrate)
G01 X29.827832 Y27.872849 Z-1.000000 F2500.000000
G00 Z0.100000
M05
(End cutting path id: path18624)


(Start cutting path id: path18622)
(Change tool to Default tool)

G00 Z0.100000
G00 X44.790448 Y17.564924
M03 S35
G01 Z-1.000000 F800.0(Penetrate)
G01 X28.256575 Y27.125528 Z-1.000000 F2500.000000
G00 Z0.100000
M05
(End cutting path id: path18622)


(Start cutting path id: path18620)
(Change tool to Default tool)

G00 Z0.100000
G00 X44.674318 Y15.976180
M03 S35
G01 Z-1.000000 F800.0(Penetrate)
G01 X26.937551 Y26.232354 Z-1.000000 F2500.000000
G00 Z0.100000
M05
(End cutting path id: path18620)


(Start cutting path id: path18618)
(Change tool to Default tool)

G00 Z0.100000
G00 X44.355190 Y14.504823
M03 S35
G01 Z-1.000000 F800.0(Penetrate)
G01 X25.821526 Y25.221792 Z-1.000000 F2500.000000
G00 Z0.100000
M05
(End cutting path id: path18618)


(Start cutting path id: path18602)
(Change tool to Default tool)

G00 Z0.100000
G00 X35.075245 Y6.623753
M03 S35
G01 Z-1.000000 F800.0(Penetrate)
G01 X23.620247 Y13.247536 Z-1.000000 F2500.000000
G00 Z0.100000
M05
(End cutting path id: path18602)


(Start cutting path id: path18604)
(Change tool to Default tool)

G00 Z0.100000
G00 X37.151777 Y7.078911
M03 S35
G01 Z-1.000000 F800.0(Penetrate)
G01 X22.978868 Y15.274297 Z-1.000000 F2500.000000
G00 Z0.100000
M05
(End cutting path id: path18604)


(Start cutting path id: path18606)
(Change tool to Default tool)

G00 Z0.100000
G00 X38.817296 Y7.771715
M03 S35
G01 Z-1.000000 F800.0(Penetrate)
G01 X22.748502 Y17.063392 Z-1.000000 F2500.000000
G00 Z0.100000
M05
(End cutting path id: path18606)


(Start cutting path id: path18608)
(Change tool to Default tool)

G00 Z0.100000
G00 X40.207103 Y8.623968
M03 S35
G01 Z-1.000000 F800.0(Penetrate)
G01 X22.793848 Y18.693057 Z-1.000000 F2500.000000
G00 Z0.100000
M05
(End cutting path id: path18608)


(Start cutting path id: path18610)
(Change tool to Default tool)

G00 Z0.100000
G00 X41.382061 Y9.600454
M03 S35
G01 Z-1.000000 F800.0(Penetrate)
G01 X23.054042 Y20.198508 Z-1.000000 F2500.000000
G00 Z0.100000
M05
(End cutting path id: path18610)


(Start cutting path id: path18612)
(Change tool to Default tool)

G00 Z0.100000
G00 X42.373457 Y10.683068
M03 S35
G01 Z-1.000000 F800.0(Penetrate)
G01 X23.497800 Y21.597793 Z-1.000000 F2500.000000
G00 Z0.100000
M05
(End cutting path id: path18612)


(Start cutting path id: path18614)
(Change tool to Default tool)

G00 Z0.100000
G00 X43.197126 Y11.862683
M03 S35
G01 Z-1.000000 F800.0(Penetrate)
G01 X24.109284 Y22.900114 Z-1.000000 F2500.000000
G00 Z0.100000
M05
(End cutting path id: path18614)


(Start cutting path id: path18616)
(Change tool to Default tool)

G00 Z0.100000
G00 X43.858690 Y13.136025
M03 S35
G01 Z-1.000000 F800.0(Penetrate)
G01 X24.882873 Y24.108672 Z-1.000000 F2500.000000
G00 Z0.100000
M05
(End cutting path id: path18616)


(Start cutting path id: path18842)
(Change tool to Default tool)

G00 Z0.100000
G00 X48.748203 Y23.186519
M03 S35
G01 Z-1.000000 F800.0(Penetrate)
G01 X39.397879 Y32.549377 Z-1.000000 F2500.000000
G00 Z0.100000
M05
(End cutting path id: path18842)


(Start cutting path id: path18844)
(Change tool to Default tool)

G00 Z0.100000
G00 X50.871780 Y23.088722
M03 S35
G01 Z-1.000000 F800.0(Penetrate)
G01 X39.302926 Y34.673084 Z-1.000000 F2500.000000
G00 Z0.100000
M05
(End cutting path id: path18844)


(Start cutting path id: path18846)
(Change tool to Default tool)

G00 Z0.100000
G00 X52.659870 Y23.326862
M03 S35
G01 Z-1.000000 F800.0(Penetrate)
G01 X39.543462 Y36.460853 Z-1.000000 F2500.000000
G00 Z0.100000
M05
(End cutting path id: path18846)


(Start cutting path id: path19076)
(Change tool to Default tool)

G00 Z0.100000
G00 X56.936228 Y41.815862
M03 S35
G01 Z-1.000000 F800.0(Penetrate)
G01 X43.704012 Y41.824725 Z-1.000000 F2500.000000
G00 Z0.100000
M05
(End cutting path id: path19076)


(Start cutting path id: path19078)
(Change tool to Default tool)

G00 Z0.100000
G00 X58.506988 Y43.248300
M03 S35
G01 Z-1.000000 F800.0(Penetrate)
G01 X42.135172 Y43.259266 Z-1.000000 F2500.000000
G00 Z0.100000
M05
(End cutting path id: path19078)


(Start cutting path id: path19080)
(Change tool to Default tool)

G00 Z0.100000
G00 X59.602951 Y44.681057
M03 S35
G01 Z-1.000000 F800.0(Penetrate)
G01 X41.041129 Y44.693490 Z-1.000000 F2500.000000
G00 Z0.100000
M05
(End cutting path id: path19080)


(Start cutting path id: path19082)
(Change tool to Default tool)

G00 Z0.100000
G00 X60.380421 Y46.114027
M03 S35
G01 Z-1.000000 F800.0(Penetrate)
G01 X40.265579 Y46.127500 Z-1.000000 F2500.000000
G00 Z0.100000
M05
(End cutting path id: path19082)


(Start cutting path id: path19084)
(Change tool to Default tool)

G00 Z0.100000
G00 X60.909733 Y47.547163
M03 S35
G01 Z-1.000000 F800.0(Penetrate)
G01 X39.738188 Y47.561344 Z-1.000000 F2500.000000
G00 Z0.100000
M05
(End cutting path id: path19084)


(Start cutting path id: path19086)
(Change tool to Default tool)

G00 Z0.100000
G00 X61.227016 Y48.980441
M03 S35
G01 Z-1.000000 F800.0(Penetrate)
G01 X39.422825 Y48.995046 Z-1.000000 F2500.000000
G00 Z0.100000
M05
(End cutting path id: path19086)


(Start cutting path id: path19094)
(Change tool to Default tool)

G00 Z0.100000
G00 X60.573051 Y54.714842
M03 S35
G01 Z-1.000000 F800.0(Penetrate)
G01 X40.084472 Y54.728565 Z-1.000000 F2500.000000
G00 Z0.100000
M05
(End cutting path id: path19094)


(Start cutting path id: path19092)
(Change tool to Default tool)

G00 Z0.100000
G00 X61.032369 Y53.281043
