%
(Header)
(Generated by gcodetools from Inkscape.)
(Using default header. To add your own header create file "header" in the output dir.)
M3
(Header end.)
G21 (All units in mm)

(Start cutting path id: path10052)
(Change tool to Default tool)
M05
G00 Z0.100000
G00 X262.562034 Y192.075483
M03 S35
G01 Z-1.000000 F800.0(Penetrate)
G01 X247.219980 Y200.946967 Z-1.000000 F2500.000000
G00 Z0.100000
M05
(End cutting path id: path10052)


(Start cutting path id: path10050)
(Change tool to Default tool)

G00 Z0.100000
G00 X263.169899 Y189.676570
M03 S35
G01 Z-1.000000 F800.0(Penetrate)
G01 X244.837591 Y200.277101 Z-1.000000 F2500.000000
G00 Z0.100000
M05
(End cutting path id: path10050)


(Start cutting path id: path10048)
(Change tool to Default tool)

G00 Z0.100000
G00 X263.338186 Y187.531820
M03 S35
G01 Z-1.000000 F800.0(Penetrate)
G01 X242.894803 Y199.353072 Z-1.000000 F2500.000000
G00 Z0.100000
M05
(End cutting path id: path10048)


(Start cutting path id: path10008)
(Change tool to Default tool)

G00 Z0.100000
G00 X221.550645 Y192.400337
M03 S35
G01 Z-1.000000 F800.0(Penetrate)
G01 X203.952346 Y174.825597 Z-1.000000 F2500.000000
G00 Z0.100000
M05
(End cutting path id: path10008)


(Start cutting path id: path9820)
(Change tool to Default tool)

G00 Z0.100000
G00 X200.148538 Y173.939945
M03 S35
G01 Z-1.000000 F800.0(Penetrate)
G01 X176.533431 Y173.955762 Z-1.000000 F2500.000000
G00 Z0.100000
M05
(End cutting path id: path9820)


(Start cutting path id: path9950)
(Change tool to Default tool)

G00 Z0.100000
G00 X176.072036 Y176.682911
M03 S35
G01 Z-1.000000 F800.0(Penetrate)
G01 X159.711003 Y176.693870 Z-1.000000 F2500.000000
G00 Z0.100000
M05
(End cutting path id: path9950)


(Start cutting path id: path9952)
(Change tool to Default tool)

G00 Z0.100000
G00 X178.014210 Y178.454056
M03 S35
G01 Z-1.000000 F800.0(Penetrate)
G01 X157.771203 Y178.467615 Z-1.000000 F2500.000000
G00 Z0.100000
M05
(End cutting path id: path9952)


(Start cutting path id: path9932)
(Change tool to Default tool)

G00 Z0.100000
G00 X140.082512 Y183.796801
M03 S35
G01 Z-1.000000 F800.0(Penetrate)
G01 X113.904859 Y183.814335 Z-1.000000 F2500.000000
G00 Z0.100000
M05
(End cutting path id: path9932)


(Start cutting path id: path9900)
(Change tool to Default tool)

G00 Z0.100000
G00 X119.892151 Y184.854091
M03 S35
G01 Z-1.000000 F800.0(Penetrate)
G01 X109.309818 Y174.285925 Z-1.000000 F2500.000000
G00 Z0.100000
M05
(End cutting path id: path9900)


(Start cutting path id: path9902)
(Change tool to Default tool)

G00 Z0.100000
G00 X120.174924 Y187.296992
M03 S35
G01 Z-1.000000 F800.0(Penetrate)
G01 X106.866564 Y174.006425 Z-1.000000 F2500.000000
G00 Z0.100000
M05
(End cutting path id: path9902)


(Start cutting path id: path9904)
(Change tool to Default tool)

G00 Z0.100000
G00 X120.148068 Y188.556901
M03 S35
G01 Z-1.000000 F800.0(Penetrate)
G01 X105.606669 Y174.034969 Z-1.000000 F2500.000000
G00 Z0.100000
M05
(End cutting path id: path9904)


(Start cutting path id: path9908)
(Change tool to Default tool)

G00 Z0.100000
G00 X118.930963 Y193.335776
M03 S35
G01 Z-1.000000 F800.0(Penetrate)
G01 X100.829429 Y175.258475 Z-1.000000 F2500.000000
G00 Z0.100000
M05
(End cutting path id: path9908)


(Start cutting path id: path9906)
(Change tool to Default tool)

G00 Z0.100000
G00 X118.674152 Y193.863705
M03 S35
G01 Z-1.000000 F800.0(Penetrate)
G01 X100.301844 Y175.515992 Z-1.000000 F2500.000000
G00 Z0.100000
M05
(End cutting path id: path9906)


(Start cutting path id: path9912)
(Change tool to Default tool)

G00 Z0.100000
G00 X118.310472 Y194.526230
M03 S35
G01 Z-1.000000 F800.0(Penetrate)
G01 X99.639784 Y175.880560 Z-1.000000 F2500.000000
G00 Z0.100000
M05
(End cutting path id: path9912)


(Start cutting path id: path9922)
(Change tool to Default tool)

G00 Z0.100000
G00 X105.409733 Y201.223696
M03 S35
G01 Z-1.000000 F800.0(Penetrate)
G01 X92.959629 Y188.790259 Z-1.000000 F2500.000000
G00 Z0.100000
M05
(End cutting path id: path9922)


(Start cutting path id: path9920)
(Change tool to Default tool)

G00 Z0.100000
G00 X109.299323 Y200.989923
M03 S35
G01 Z-1.000000 F800.0(Penetrate)
G01 X93.188191 Y184.900360 Z-1.000000 F2500.000000
G00 Z0.100000
M05
(End cutting path id: path9920)


(Start cutting path id: path9898)
(Change tool to Default tool)

G00 Z0.100000
G00 X73.064983 Y176.227603
M03 S35
G01 Z-1.000000 F800.0(Penetrate)
G01 X73.080297 Y199.090920 Z-1.000000 F2500.000000
G00 Z0.100000
M05
(End cutting path id: path9898)


(Start cutting path id: path9896)
(Change tool to Default tool)

G00 Z0.100000
G00 X68.746732 Y174.388151
M03 S35
G01 Z-1.000000 F800.0(Penetrate)
G01 X68.764514 Y200.936154 Z-1.000000 F2500.000000
G00 Z0.100000
M05
(End cutting path id: path9896)


(Start cutting path id: path9878)
(Change tool to Default tool)

G00 Z0.100000
G00 X55.109240 Y179.007190
M03 S35
G01 Z-1.000000 F800.0(Penetrate)
G01 X55.120846 Y196.335388 Z-1.000000 F2500.000000
G00 Z0.100000
M05
(End cutting path id: path9878)


(Start cutting path id: path9880)
(Change tool to Default tool)

G00 Z0.100000
G00 X57.519503 Y176.713871
M03 S35
G01 Z-1.000000 F800.0(Penetrate)
G01 X57.534179 Y198.625476 Z-1.000000 F2500.000000
G00 Z0.100000
M05
(End cutting path id: path9880)


(Start cutting path id: path9882)
(Change tool to Default tool)

G00 Z0.100000
G00 X57.889539 Y176.448847
M03 S35
G01 Z-1.000000 F800.0(Penetrate)
G01 X57.904570 Y198.890004 Z-1.000000 F2500.000000
G00 Z0.100000
M05
(End cutting path id: path9882)


(Start cutting path id: path9886)
(Change tool to Default tool)

G00 Z0.100000
G00 X59.897564 Y175.299435
M03 S35
G01 Z-1.000000 F800.0(Penetrate)
G01 X59.914133 Y200.036749 Z-1.000000 F2500.000000
G00 Z0.100000
M05
(End cutting path id: path9886)


(Start cutting path id: path9884)
(Change tool to Default tool)

G00 Z0.100000
G00 X60.334956 Y175.105468
M03 S35
G01 Z-1.000000 F800.0(Penetrate)
G01 X60.351807 Y200.230107 Z-1.000000 F2500.000000
G00 Z0.100000
M05
(End cutting path id: path9884)


(Start cutting path id: path9890)
(Change tool to Default tool)

G00 Z0.100000
G00 X62.097088 Y174.499043
M03 S35
G01 Z-1.000000 F800.0(Penetrate)
G01 X62.114728 Y200.834171 Z-1.000000 F2500.000000
G00 Z0.100000
M05
(End cutting path id: path9890)


(Start cutting path id: path9892)
(Change tool to Default tool)

G00 Z0.100000
G00 X63.889770 Y174.143148
M03 S35
G01 Z-1.000000 F800.0(Penetrate)
G01 X63.907884 Y201.187663 Z-1.000000 F2500.000000
G00 Z0.100000
M05
(End cutting path id: path9892)


(Start cutting path id: path9888)
(Change tool to Default tool)

G00 Z0.100000
G00 X63.991700 Y174.130332
M03 S35
G01 Z-1.000000 F800.0(Penetrate)
G01 X64.009831 Y201.200343 Z-1.000000 F2500.000000
G00 Z0.100000
M05
(End cutting path id: path9888)


(Start cutting path id: path9894)
(Change tool to Default tool)

G00 Z0.100000
G00 X66.699389 Y174.071073
M03 S35
G01 Z-1.000000 F800.0(Penetrate)
G01 X66.717598 Y201.255975 Z-1.000000 F2500.000000
G00 Z0.100000
M05
(End cutting path id: path9894)


(Start cutting path id: path9744)
(Change tool to Default tool)

G00 Z0.100000
G00 X57.261146 Y173.541230
M03 S35
G01 Z-1.000000 F800.0(Penetrate)
G01 X33.102080 Y173.557412 Z-1.000000 F2500.000000
G00 Z0.100000
M05
(End cutting path id: path9744)


(Start cutting path id: path9718)
(Change tool to Default tool)

G00 Z0.100000
G00 X35.320087 Y175.822794
M03 S35
G01 Z-1.000000 F800.0(Penetrate)
G01 X14.143593 Y175.836978 Z-1.000000 F2500.000000
G00 Z0.100000
M05
(End cutting path id: path9718)


(Start cutting path id: path9722)
(Change tool to Default tool)

G00 Z0.100000
G00 X30.950861 Y179.370612
M03 S35
G01 Z-1.000000 F800.0(Penetrate)
G01 X18.517567 Y179.378940 Z-1.000000 F2500.000000
G00 Z0.100000
M05
(End cutting path id: path9722)


(Start cutting path id: path9720)
(Change tool to Default tool)

G00 Z0.100000
G00 X33.594208 Y177.596396
M03 S35
G01 Z-1.000000 F800.0(Penetrate)
G01 X15.871846 Y177.608266 Z-1.000000 F2500.000000
G00 Z0.100000
M05
(End cutting path id: path9720)


(Start cutting path id: path9716)
(Change tool to Default tool)

G00 Z0.100000
G00 X36.538206 Y174.049532
M03 S35
G01 Z-1.000000 F800.0(Penetrate)
G01 X12.923100 Y174.065349 Z-1.000000 F2500.000000
G00 Z0.100000
M05
(End cutting path id: path9716)


(Start cutting path id: path9714)
(Change tool to Default tool)

G00 Z0.100000
G00 X37.396064 Y172.276511
M03 S35
G01 Z-1.000000 F800.0(Penetrate)
G01 X12.062867 Y172.293479 Z-1.000000 F2500.000000
G00 Z0.100000
M05
(End cutting path id: path9714)


(Start cutting path id: path9712)
(Change tool to Default tool)

G00 Z0.100000
G00 X37.963991 Y170.503685
M03 S35
G01 Z-1.000000 F800.0(Penetrate)
G01 X11.492566 Y170.521415 Z-1.000000 F2500.000000
G00 Z0.100000
M05
(End cutting path id: path9712)


(Start cutting path id: path9696)
(Change tool to Default tool)

G00 Z0.100000
G00 X32.899297 Y156.327508
M03 S35
G01 Z-1.000000 F800.0(Penetrate)
G01 X16.538264 Y156.338467 Z-1.000000 F2500.000000
G00 Z0.100000
M05
(End cutting path id: path9696)


(Start cutting path id: path9370)
(Change tool to Default tool)

G00 Z0.100000
G00 X20.522888 Y139.316726
M03 S35
G01 Z-1.000000 F800.0(Penetrate)
G01 X11.725307 Y130.530945 Z-1.000000 F2500.000000
G00 Z0.100000
M05
(End cutting path id: path9370)


(Start cutting path id: path9368)
(Change tool to Default tool)

G00 Z0.100000
G00 X23.646554 Y139.931308
M03 S35
G01 Z-1.000000 F800.0(Penetrate)
G01 X11.106563 Y127.408105 Z-1.000000 F2500.000000
G00 Z0.100000
M05
(End cutting path id: path9368)


(Start cutting path id: path9366)
(Change tool to Default tool)

G00 Z0.100000
G00 X26.121071 Y139.897565
M03 S35
G01 Z-1.000000 F800.0(Penetrate)
G01 X11.136992 Y124.933545 Z-1.000000 F2500.000000
G00 Z0.100000
M05
(End cutting path id: path9366)


(Start cutting path id: path9364)
(Change tool to Default tool)

G00 Z0.100000
G00 X28.236290 Y139.505029
M03 S35
G01 Z-1.000000 F800.0(Penetrate)
G01 X11.526717 Y122.817779 Z-1.000000 F2500.000000
G00 Z0.100000
M05
(End cutting path id: path9364)


(Start cutting path id: path9362)
(Change tool to Default tool)

G00 Z0.100000
G00 X30.096607 Y138.857885
M03 S35
G01 Z-1.000000 F800.0(Penetrate)
G01 X12.171345 Y120.956620 Z-1.000000 F2500.000000
G00 Z0.100000
M05
(End cutting path id: path9362)


(Start cutting path id: path9360)
(Change tool to Default tool)

G00 Z0.100000
G00 X31.751774 Y138.005889
M03 S35
G01 Z-1.000000 F800.0(Penetrate)
G01 X13.021124 Y119.300313 Z-1.000000 F2500.000000
G00 Z0.100000
M05
(End cutting path id: path9360)


(Start cutting path id: path9344)
(Change tool to Default tool)

G00 Z0.100000
G00 X38.194569 Y124.400549
M03 S35
G01 Z-1.000000 F800.0(Penetrate)
G01 X26.617820 Y112.839298 Z-1.000000 F2500.000000
G00 Z0.100000
M05
(End cutting path id: path9344)


(Start cutting path id: path9346)
(Change tool to Default tool)

G00 Z0.100000
G00 X38.315491 Y127.026256
M03 S35
G01 Z-1.000000 F800.0(Penetrate)
G01 X23.991953 Y112.721894 Z-1.000000 F2500.000000
G00 Z0.100000
M05
(End cutting path id: path9346)


(Start cutting path id: path9348)
(Change tool to Default tool)

G00 Z0.100000
G00 X38.021041 Y129.237148
M03 S35
G01 Z-1.000000 F800.0(Penetrate)
G01 X21.781458 Y113.019305 Z-1.000000 F2500.000000
G00 Z0.100000
M05
(End cutting path id: path9348)


(Start cutting path id: path9350)
(Change tool to Default tool)

G00 Z0.100000
G00 X37.447927 Y131.169748
M03 S35
G01 Z-1.000000 F800.0(Penetrate)
G01 X19.849627 Y113.595008 Z-1.000000 F2500.000000
G00 Z0.100000
M05
(End cutting path id: path9350)


(Start cutting path id: path9352)
(Change tool to Default tool)

G00 Z0.100000
G00 X36.657702 Y132.885528
M03 S35
G01 Z-1.000000 F800.0(Penetrate)
G01 X18.134907 Y114.387508 Z-1.000000 F2500.000000
G00 Z0.100000
M05
(End cutting path id: path9352)


(Start cutting path id: path9354)
(Change tool to Default tool)

G00 Z0.100000
G00 X35.681973 Y134.416053
M03 S35
G01 Z-1.000000 F800.0(Penetrate)
G01 X16.605714 Y115.365286 Z-1.000000 F2500.000000
G00 Z0.100000
M05
(End cutting path id: path9354)


(Start cutting path id: path9356)
(Change tool to Default tool)

G00 Z0.100000
G00 X34.536725 Y135.777263
M03 S35
G01 Z-1.000000 F800.0(Penetrate)
G01 X15.246016 Y116.512379 Z-1.000000 F2500.000000
G00 Z0.100000
M05
(End cutting path id: path9356)


(Start cutting path id: path9358)
(Change tool to Default tool)

G00 Z0.100000
G00 X33.227644 Y136.974882
M03 S35
G01 Z-1.000000 F800.0(Penetrate)
G01 X14.050175 Y117.823063 Z-1.000000 F2500.000000
G00 Z0.100000
M05
(End cutting path id: path9358)


(Start cutting path id: path9698)
(Change tool to Default tool)

G00 Z0.100000
G00 X34.841471 Y158.098654
M03 S35
G01 Z-1.000000 F800.0(Penetrate)
G01 X14.598465 Y158.112212 Z-1.000000 F2500.000000
G00 Z0.100000
M05
(End cutting path id: path9698)


(Start cutting path id: path9700)
(Change tool to Default tool)

G00 Z0.100000
G00 X36.196579 Y159.870192
M03 S35
G01 Z-1.000000 F800.0(Penetrate)
G01 X13.245731 Y159.885565 Z-1.000000 F2500.000000
G00 Z0.100000
M05
(End cutting path id: path9700)


(Start cutting path id: path9702)
(Change tool to Default tool)

G00 Z0.100000
G00 X37.157886 Y161.641994
M03 S35
G01 Z-1.000000 F800.0(Penetrate)
G01 X12.286798 Y161.658653 Z-1.000000 F2500.000000
G00 Z0.100000
M05
(End cutting path id: path9702)


(Start cutting path id: path9704)
(Change tool to Default tool)

G00 Z0.100000
G00 X37.812356 Y163.414002
M03 S35
G01 Z-1.000000 F800.0(Penetrate)
G01 X11.634703 Y163.431536 Z-1.000000 F2500.000000
G00 Z0.100000
M05
(End cutting path id: path9704)


(Start cutting path id: path9706)
(Change tool to Default tool)

G00 Z0.100000
G00 X38.204663 Y165.186185
M03 S35
G01 Z-1.000000 F800.0(Penetrate)
G01 X11.244771 Y165.204243 Z-1.000000 F2500.000000
G00 Z0.100000
M05
(End cutting path id: path9706)


(Start cutting path id: path9708)
(Change tool to Default tool)

G00 Z0.100000
G00 X38.357371 Y166.958529
M03 S35
G01 Z-1.000000 F800.0(Penetrate)
G01 X11.094436 Y166.976790 Z-1.000000 F2500.000000
G00 Z0.100000
M05
(End cutting path id: path9708)


(Start cutting path id: path9710)
(Change tool to Default tool)

G00 Z0.100000
G00 X38.278549 Y168.731028
M03 S35
G01 Z-1.000000 F800.0(Penetrate)
G01 X11.175634 Y168.749181 Z-1.000000 F2500.000000
G00 Z0.100000
M05
(End cutting path id: path9710)


(Start cutting path id: path9724)
(Change tool to Default tool)

G00 Z0.100000
G00 X53.117102 Y156.142766
M03 S35
G01 Z-1.000000 F800.0(Penetrate)
G01 X37.222813 Y156.153412 Z-1.000000 F2500.000000
G00 Z0.100000
M05
(End cutting path id: path9724)


(Start cutting path id: path9726)
(Change tool to Default tool)

G00 Z0.100000
G00 X53.822739 Y156.683912
M03 S35
G01 Z-1.000000 F800.0(Penetrate)
G01 X36.517902 Y156.695503 Z-1.000000 F2500.000000
G00 Z0.100000
M05
(End cutting path id: path9726)


(Start cutting path id: path9730)
(Change tool to Default tool)

G00 Z0.100000
G00 X55.035141 Y157.807740
M03 S35
G01 Z-1.000000 F800.0(Penetrate)
G01 X35.307007 Y157.820954 Z-1.000000 F2500.000000
G00 Z0.100000
M05
(End cutting path id: path9730)


(Start cutting path id: path9728)
(Change tool to Default tool)

G00 Z0.100000
G00 X56.052985 Y159.003959
M03 S35
G01 Z-1.000000 F800.0(Penetrate)
G01 X34.290766 Y159.018536 Z-1.000000 F2500.000000
G00 Z0.100000
M05
(End cutting path id: path9728)


(Start cutting path id: path9734)
(Change tool to Default tool)

G00 Z0.100000
G00 X57.536447 Y161.469506
M03 S35
G01 Z-1.000000 F800.0(Penetrate)
G01 X32.810608 Y161.486068 Z-1.000000 F2500.000000
G00 Z0.100000
M05
(End cutting path id: path9734)


(Start cutting path id: path9732)
(Change tool to Default tool)

G00 Z0.100000
G00 X58.276835 Y163.445674
M03 S35
G01 Z-1.000000 F800.0(Penetrate)
G01 X32.072868 Y163.463225 Z-1.000000 F2500.000000
G00 Z0.100000
M05
(End cutting path id: path9732)


(Start cutting path id: path9736)
(Change tool to Default tool)

G00 Z0.100000
G00 X58.482842 Y164.250794
M03 S35
G01 Z-1.000000 F800.0(Penetrate)
G01 X31.867940 Y164.268621 Z-1.000000 F2500.000000
G00 Z0.100000
M05
(End cutting path id: path9736)


(Start cutting path id: path9746)
(Change tool to Default tool)

G00 Z0.100000
G00 X57.390818 Y173.286638
M03 S35
G01 Z-1.000000 F800.0(Penetrate)
G01 X32.972067 Y173.302994 Z-1.000000 F2500.000000
G00 Z0.100000
M05
(End cutting path id: path9746)


(Start cutting path id: path9742)
(Change tool to Default tool)

G00 Z0.100000
G00 X58.342052 Y170.773877
M03 S35
G01 Z-1.000000 F800.0(Penetrate)
G01 X32.017468 Y170.791509 Z-1.000000 F2500.000000
G00 Z0.100000
M05
(End cutting path id: path9742)


(Start cutting path id: path9740)
(Change tool to Default tool)

G00 Z0.100000
G00 X58.562855 Y169.818994
M03 S35
G01 Z-1.000000 F800.0(Penetrate)
G01 X31.795386 Y169.836923 Z-1.000000 F2500.000000
G00 Z0.100000
M05
(End cutting path id: path9740)


(Start cutting path id: path9738)
(Change tool to Default tool)

G00 Z0.100000
G00 X58.791868 Y167.959522
M03 S35
G01 Z-1.000000 F800.0(Penetrate)
G01 X31.563882 Y167.977759 Z-1.000000 F2500.000000
G00 Z0.100000
M05
(End cutting path id: path9738)


(Start cutting path id: path9524)
(Change tool to Default tool)

G00 Z0.100000
G00 X65.306548 Y133.130956
M03 S35
G01 Z-1.000000 F800.0(Penetrate)
G01 X51.983871 Y146.471492 Z-1.000000 F2500.000000
G00 Z0.100000
M05
(End cutting path id: path9524)


(Start cutting path id: path9526)
(Change tool to Default tool)

G00 Z0.100000
G00 X68.136595 Y133.362660
M03 S35
G01 Z-1.000000 F800.0(Penetrate)
G01 X52.219389 Y149.301226 Z-1.000000 F2500.000000
G00 Z0.100000
M05
(End cutting path id: path9526)


(Start cutting path id: path9532)
(Change tool to Default tool)

G00 Z0.100000
G00 X69.127361 Y133.587642
M03 S35
G01 Z-1.000000 F800.0(Penetrate)
G01 X52.445675 Y150.291690 Z-1.000000 F2500.000000
G00 Z0.100000
M05
(End cutting path id: path9532)


(Start cutting path id: path9530)
(Change tool to Default tool)

G00 Z0.100000
G00 X69.401960 Y133.663946
M03 S35
G01 Z-1.000000 F800.0(Penetrate)
G01 X52.522347 Y150.566186 Z-1.000000 F2500.000000
G00 Z0.100000
M05
(End cutting path id: path9530)


(Start cutting path id: path9528)
(Change tool to Default tool)

G00 Z0.100000
G00 X69.483735 Y133.687865
M03 S35
G01 Z-1.000000 F800.0(Penetrate)
G01 X52.546375 Y150.647930 Z-1.000000 F2500.000000
G00 Z0.100000
M05
(End cutting path id: path9528)


(Start cutting path id: path9534)
(Change tool to Default tool)

G00 Z0.100000
G00 X71.598837 Y134.510749
M03 S35
G01 Z-1.000000 F800.0(Penetrate)
G01 X53.372092 Y152.761927 Z-1.000000 F2500.000000
G00 Z0.100000
M05
(End cutting path id: path9534)


(Start cutting path id: path9536)
(Change tool to Default tool)

G00 Z0.100000
G00 X73.444365 Y135.599567
M03 S35
G01 Z-1.000000 F800.0(Penetrate)
G01 X54.463382 Y154.605995 Z-1.000000 F2500.000000
G00 Z0.100000
M05
(End cutting path id: path9536)


(Start cutting path id: path9538)
(Change tool to Default tool)

G00 Z0.100000
G00 X73.639655 Y135.739142
M03 S35
G01 Z-1.000000 F800.0(Penetrate)
G01 X54.603218 Y154.801097 Z-1.000000 F2500.000000
G00 Z0.100000
M05
(End cutting path id: path9538)


(Start cutting path id: path9542)
(Change tool to Default tool)

G00 Z0.100000
G00 X78.462352 Y142.196977
M03 S35
G01 Z-1.000000 F800.0(Penetrate)
G01 X61.067508 Y159.615139 Z-1.000000 F2500.000000
G00 Z0.100000
M05
(End cutting path id: path9542)


(Start cutting path id: path9540)
(Change tool to Default tool)

G00 Z0.100000
G00 X76.161464 Y138.120893
M03 S35
G01 Z-1.000000 F800.0(Penetrate)
G01 X56.988345 Y157.319713 Z-1.000000 F2500.000000
G00 Z0.100000
M05
(End cutting path id: path9540)


(Start cutting path id: path9396)
(Change tool to Default tool)

G00 Z0.100000
G00 X95.090741 Y136.504650
M03 S35
G01 Z-1.000000 F800.0(Penetrate)
G01 X77.028070 Y136.516748 Z-1.000000 F2500.000000
G00 Z0.100000
M05
(End cutting path id: path9396)


(Start cutting path id: path9394)
(Change tool to Default tool)

G00 Z0.100000
G00 X96.741697 Y134.760343
M03 S35
G01 Z-1.000000 F800.0(Penetrate)
G01 X75.374779 Y134.774655 Z-1.000000 F2500.000000
G00 Z0.100000
M05
(End cutting path id: path9394)


(Start cutting path id: path9392)
(Change tool to Default tool)

G00 Z0.100000
G00 X99.141454 Y130.114064
M03 S35
G01 Z-1.000000 F800.0(Penetrate)
G01 X72.968800 Y130.131594 Z-1.000000 F2500.000000
G00 Z0.100000
M05
(End cutting path id: path9392)


(Start cutting path id: path9372)
(Change tool to Default tool)

G00 Z0.100000
G00 X94.577265 Y115.656143
M03 S35
G01 Z-1.000000 F800.0(Penetrate)
G01 X77.513617 Y115.667572 Z-1.000000 F2500.000000
G00 Z0.100000
M05
(End cutting path id: path9372)


(Start cutting path id: path9204)
(Change tool to Default tool)

G00 Z0.100000
G00 X77.717843 Y99.634297
M03 S35
G01 Z-1.000000 F800.0(Penetrate)
G01 X77.726171 Y112.067592 Z-1.000000 F2500.000000
G00 Z0.100000
M05
(End cutting path id: path9204)


(Start cutting path id: path9202)
(Change tool to Default tool)

G00 Z0.100000
G00 X75.943627 Y96.990950
M03 S35
G01 Z-1.000000 F800.0(Penetrate)
G01 X75.955497 Y114.713313 Z-1.000000 F2500.000000
G00 Z0.100000
M05
(End cutting path id: path9202)


(Start cutting path id: path9200)
(Change tool to Default tool)

G00 Z0.100000
G00 X74.170025 Y95.265072
M03 S35
G01 Z-1.000000 F800.0(Penetrate)
G01 X74.184209 Y116.441566 Z-1.000000 F2500.000000
G00 Z0.100000
M05
(End cutting path id: path9200)


(Start cutting path id: path9374)
(Change tool to Default tool)

G00 Z0.100000
G00 X95.810614 Y116.774480
M03 S35
G01 Z-1.000000 F800.0(Penetrate)
G01 X76.281767 Y116.787560 Z-1.000000 F2500.000000
G00 Z0.100000
M05
(End cutting path id: path9374)


(Start cutting path id: path9378)
(Change tool to Default tool)

G00 Z0.100000
G00 X96.896330 Y118.032053
M03 S35
G01 Z-1.000000 F800.0(Penetrate)
G01 X75.197737 Y118.046587 Z-1.000000 F2500.000000
G00 Z0.100000
M05
(End cutting path id: path9378)


(Start cutting path id: path9376)
(Change tool to Default tool)

G00 Z0.100000
G00 X97.008503 Y118.181318
M03 S35
G01 Z-1.000000 F800.0(Penetrate)
G01 X75.085764 Y118.196002 Z-1.000000 F2500.000000
G00 Z0.100000
M05
(End cutting path id: path9376)


(Start cutting path id: path9382)
(Change tool to Default tool)

G00 Z0.100000
G00 X97.988529 Y119.706965
M03 S35
G01 Z-1.000000 F800.0(Penetrate)
G01 X74.107783 Y119.722960 Z-1.000000 F2500.000000
G00 Z0.100000
M05
(End cutting path id: path9382)


(Start cutting path id: path9380)
(Change tool to Default tool)

G00 Z0.100000
G00 X98.535547 Y120.813400
M03 S35
G01 Z-1.000000 F800.0(Penetrate)
G01 X73.562247 Y120.830127 Z-1.000000 F2500.000000
G00 Z0.100000
M05
(End cutting path id: path9380)


(Start cutting path id: path9386)
(Change tool to Default tool)

G00 Z0.100000
G00 X99.275444 Y122.973016
M03 S35
G01 Z-1.000000 F800.0(Penetrate)
G01 X72.825244 Y122.990733 Z-1.000000 F2500.000000
G00 Z0.100000
M05
(End cutting path id: path9386)


(Start cutting path id: path9384)
(Change tool to Default tool)

G00 Z0.100000
G00 X99.386383 Y123.450548
M03 S35
G01 Z-1.000000 F800.0(Penetrate)
G01 X72.714945 Y123.468413 Z-1.000000 F2500.000000
G00 Z0.100000
M05
(End cutting path id: path9384)


(Start cutting path id: path9390)
(Change tool to Default tool)

G00 Z0.100000
G00 X99.673264 Y126.903058
M03 S35
G01 Z-1.000000 F800.0(Penetrate)
G01 X72.432689 Y126.921304 Z-1.000000 F2500.000000
G00 Z0.100000
M05
(End cutting path id: path9390)


(Start cutting path id: path9388)
(Change tool to Default tool)

G00 Z0.100000
G00 X99.448820 Y128.832788
M03 S35
G01 Z-1.000000 F800.0(Penetrate)
G01 X72.659718 Y128.850732 Z-1.000000 F2500.000000
G00 Z0.100000
M05
(End cutting path id: path9388)


(Start cutting path id: path9198)
(Change tool to Default tool)

G00 Z0.100000
G00 X72.396763 Y94.046953
M03 S35
G01 Z-1.000000 F800.0(Penetrate)
G01 X72.412580 Y117.662059 Z-1.000000 F2500.000000
G00 Z0.100000
M05
(End cutting path id: path9198)


(Start cutting path id: path9196)
(Change tool to Default tool)

G00 Z0.100000
G00 X70.623742 Y93.189095
M03 S35
G01 Z-1.000000 F800.0(Penetrate)
G01 X70.640710 Y118.522291 Z-1.000000 F2500.000000
G00 Z0.100000
M05
(End cutting path id: path9196)


(Start cutting path id: path9194)
(Change tool to Default tool)

G00 Z0.100000
G00 X68.850916 Y92.621168
M03 S35
G01 Z-1.000000 F800.0(Penetrate)
G01 X68.868646 Y119.092593 Z-1.000000 F2500.000000
G00 Z0.100000
M05
(End cutting path id: path9194)


(Start cutting path id: path9178)
(Change tool to Default tool)

G00 Z0.100000
G00 X54.674740 Y97.685861
M03 S35
G01 Z-1.000000 F800.0(Penetrate)
G01 X54.685698 Y114.046894 Z-1.000000 F2500.000000
G00 Z0.100000
M05
(End cutting path id: path9178)


(Start cutting path id: path9180)
(Change tool to Default tool)

G00 Z0.100000
G00 X56.445885 Y95.743687
M03 S35
G01 Z-1.000000 F800.0(Penetrate)
G01 X56.459444 Y115.986694 Z-1.000000 F2500.000000
G00 Z0.100000
M05
(End cutting path id: path9180)


(Start cutting path id: path9182)
(Change tool to Default tool)

G00 Z0.100000
G00 X58.217423 Y94.388579
M03 S35
G01 Z-1.000000 F800.0(Penetrate)
G01 X58.232796 Y117.339428 Z-1.000000 F2500.000000
G00 Z0.100000
M05
(End cutting path id: path9182)


(Start cutting path id: path9184)
(Change tool to Default tool)

G00 Z0.100000
G00 X59.989225 Y93.427272
M03 S35
G01 Z-1.000000 F800.0(Penetrate)
G01 X60.005884 Y118.298360 Z-1.000000 F2500.000000
G00 Z0.100000
M05
(End cutting path id: path9184)


(Start cutting path id: path9186)
(Change tool to Default tool)

G00 Z0.100000
G00 X61.761233 Y92.772802
M03 S35
G01 Z-1.000000 F800.0(Penetrate)
G01 X61.778767 Y118.950456 Z-1.000000 F2500.000000
G00 Z0.100000
M05
(End cutting path id: path9186)


(Start cutting path id: path9188)
(Change tool to Default tool)

G00 Z0.100000
G00 X63.533416 Y92.380496
M03 S35
G01 Z-1.000000 F800.0(Penetrate)
G01 X63.551474 Y119.340388 Z-1.000000 F2500.000000
G00 Z0.100000
M05
(End cutting path id: path9188)


(Start cutting path id: path9190)
(Change tool to Default tool)

G00 Z0.100000
G00 X65.305760 Y92.227787
M03 S35
G01 Z-1.000000 F800.0(Penetrate)
G01 X65.324021 Y119.490722 Z-1.000000 F2500.000000
G00 Z0.100000
M05
(End cutting path id: path9190)


(Start cutting path id: path9192)
(Change tool to Default tool)

G00 Z0.100000
G00 X67.078259 Y92.306610
M03 S35
G01 Z-1.000000 F800.0(Penetrate)
G01 X67.096413 Y119.409525 Z-1.000000 F2500.000000
G00 Z0.100000
M05
(End cutting path id: path9192)


(Start cutting path id: path9052)
(Change tool to Default tool)

G00 Z0.100000
G00 X75.112333 Y77.220871
M03 S35
G01 Z-1.000000 F800.0(Penetrate)
G01 X75.123291 Y93.581905 Z-1.000000 F2500.000000
G00 Z0.100000
M05
(End cutting path id: path9052)


(Start cutting path id: path9054)
(Change tool to Default tool)

G00 Z0.100000
G00 X76.883478 Y75.278698
M03 S35
G01 Z-1.000000 F800.0(Penetrate)
G01 X76.897037 Y95.521704 Z-1.000000 F2500.000000
G00 Z0.100000
M05
(End cutting path id: path9054)


(Start cutting path id: path9056)
(Change tool to Default tool)

G00 Z0.100000
G00 X78.655016 Y73.923589
M03 S35
G01 Z-1.000000 F800.0(Penetrate)
G01 X78.670389 Y96.874438 Z-1.000000 F2500.000000
G00 Z0.100000
M05
(End cutting path id: path9056)


(Start cutting path id: path9058)
(Change tool to Default tool)

G00 Z0.100000
G00 X80.426818 Y72.962282
M03 S35
G01 Z-1.000000 F800.0(Penetrate)
G01 X80.443477 Y97.833371 Z-1.000000 F2500.000000
G00 Z0.100000
M05
(End cutting path id: path9058)


(Start cutting path id: path9060)
(Change tool to Default tool)

G00 Z0.100000
G00 X82.198826 Y72.307813
M03 S35
G01 Z-1.000000 F800.0(Penetrate)
G01 X82.216360 Y98.485466 Z-1.000000 F2500.000000
G00 Z0.100000
M05
(End cutting path id: path9060)


(Start cutting path id: path9078)
(Change tool to Default tool)

G00 Z0.100000
G00 X98.155436 Y79.169307
M03 S35
G01 Z-1.000000 F800.0(Penetrate)
G01 X98.163764 Y91.602602 Z-1.000000 F2500.000000
G00 Z0.100000
M05
(End cutting path id: path9078)


(Start cutting path id: path9076)
(Change tool to Default tool)

G00 Z0.100000
G00 X96.381220 Y76.525961
M03 S35
G01 Z-1.000000 F800.0(Penetrate)
G01 X96.393090 Y94.248323 Z-1.000000 F2500.000000
G00 Z0.100000
M05
(End cutting path id: path9076)


(Start cutting path id: path9074)
(Change tool to Default tool)

G00 Z0.100000
G00 X94.607618 Y74.800082
M03 S35
G01 Z-1.000000 F800.0(Penetrate)
G01 X94.621802 Y95.976576 Z-1.000000 F2500.000000
G00 Z0.100000
M05
(End cutting path id: path9074)


(Start cutting path id: path9072)
(Change tool to Default tool)

G00 Z0.100000
G00 X92.834356 Y73.581963
M03 S35
G01 Z-1.000000 F800.0(Penetrate)
G01 X92.850173 Y97.197069 Z-1.000000 F2500.000000
G00 Z0.100000
M05
(End cutting path id: path9072)


(Start cutting path id: path9070)
(Change tool to Default tool)

G00 Z0.100000
G00 X91.061335 Y72.724105
M03 S35
G01 Z-1.000000 F800.0(Penetrate)
G01 X91.078304 Y98.057302 Z-1.000000 F2500.000000
G00 Z0.100000
M05
(End cutting path id: path9070)


(Start cutting path id: path9068)
(Change tool to Default tool)

G00 Z0.100000
G00 X89.288509 Y72.156178
M03 S35
G01 Z-1.000000 F800.0(Penetrate)
G01 X89.306239 Y98.627603 Z-1.000000 F2500.000000
G00 Z0.100000
M05
(End cutting path id: path9068)


(Start cutting path id: path9066)
(Change tool to Default tool)

G00 Z0.100000
G00 X87.515852 Y71.841620
M03 S35
G01 Z-1.000000 F800.0(Penetrate)
G01 X87.534006 Y98.944535 Z-1.000000 F2500.000000
G00 Z0.100000
M05
(End cutting path id: path9066)


(Start cutting path id: path9064)
(Change tool to Default tool)

G00 Z0.100000
G00 X85.743353 Y71.762797
M03 S35
G01 Z-1.000000 F800.0(Penetrate)
G01 X85.761614 Y99.025732 Z-1.000000 F2500.000000
G00 Z0.100000
M05
(End cutting path id: path9064)


(Start cutting path id: path9062)
(Change tool to Default tool)

G00 Z0.100000
G00 X83.971009 Y71.915506
M03 S35
G01 Z-1.000000 F800.0(Penetrate)
G01 X83.989067 Y98.875398 Z-1.000000 F2500.000000
G00 Z0.100000
M05
(End cutting path id: path9062)


(Start cutting path id: path8950)
(Change tool to Default tool)

G00 Z0.100000
G00 X97.467422 Y72.335511
M03 S35
G01 Z-1.000000 F800.0(Penetrate)
G01 X86.704027 Y78.559394 Z-1.000000 F2500.000000
G00 Z0.100000
M05
(End cutting path id: path8950)


(Start cutting path id: path8948)
(Change tool to Default tool)

G00 Z0.100000
G00 X98.869512 Y69.477344
M03 S35
G01 Z-1.000000 F800.0(Penetrate)
G01 X83.527435 Y78.348805 Z-1.000000 F2500.000000
G00 Z0.100000
M05
(End cutting path id: path8948)


(Start cutting path id: path8946)
(Change tool to Default tool)

G00 Z0.100000
G00 X99.477377 Y67.078408
M03 S35
G01 Z-1.000000 F800.0(Penetrate)
G01 X81.145069 Y77.678939 Z-1.000000 F2500.000000
G00 Z0.100000
M05
(End cutting path id: path8946)


(Start cutting path id: path8944)
(Change tool to Default tool)

G00 Z0.100000
G00 X99.645663 Y64.933658
M03 S35
G01 Z-1.000000 F800.0(Penetrate)
G01 X79.202281 Y76.754910 Z-1.000000 F2500.000000
G00 Z0.100000
M05
(End cutting path id: path8944)


(Start cutting path id: path8942)
(Change tool to Default tool)

G00 Z0.100000
G00 X99.502075 Y62.969248
M03 S35
G01 Z-1.000000 F800.0(Penetrate)
G01 X77.571368 Y75.650541 Z-1.000000 F2500.000000
G00 Z0.100000
M05
(End cutting path id: path8942)


(Start cutting path id: path8940)
(Change tool to Default tool)

G00 Z0.100000
G00 X99.107487 Y61.149983
M03 S35
G01 Z-1.000000 F800.0(Penetrate)
G01 X76.191432 Y74.401050 Z-1.000000 F2500.000000
G00 Z0.100000
M05
(End cutting path id: path8940)


(Start cutting path id: path8924)
(Change tool to Default tool)

G00 Z0.100000
G00 X87.633257 Y51.405398
M03 S35
G01 Z-1.000000 F800.0(Penetrate)
G01 X73.469672 Y59.595405 Z-1.000000 F2500.000000
G00 Z0.100000
M05
(End cutting path id: path8924)


(Start cutting path id: path8926)
(Change tool to Default tool)

G00 Z0.100000
G00 X90.200794 Y51.968156
M03 S35
G01 Z-1.000000 F800.0(Penetrate)
G01 X72.676636 Y62.101402 Z-1.000000 F2500.000000
G00 Z0.100000
M05
(End cutting path id: path8926)


(Start cutting path id: path8928)
(Change tool to Default tool)

G00 Z0.100000
G00 X92.260132 Y52.824800
M03 S35
G01 Z-1.000000 F800.0(Penetrate)
G01 X72.391799 Y64.313537 Z-1.000000 F2500.000000
G00 Z0.100000
M05
(End cutting path id: path8928)


(Start cutting path id: path8930)
(Change tool to Default tool)

G00 Z0.100000
G00 X93.978566 Y53.878573
M03 S35
G01 Z-1.000000 F800.0(Penetrate)
G01 X72.447868 Y66.328544 Z-1.000000 F2500.000000
G00 Z0.100000
M05
(End cutting path id: path8930)


(Start cutting path id: path8932)
(Change tool to Default tool)

G00 Z0.100000
G00 X95.431349 Y55.085953
M03 S35
G01 Z-1.000000 F800.0(Penetrate)
G01 X72.769586 Y68.189965 Z-1.000000 F2500.000000
G00 Z0.100000
M05
(End cutting path id: path8932)


(Start cutting path id: path8934)
(Change tool to Default tool)

G00 Z0.100000
G00 X96.657165 Y56.424556
M03 S35
G01 Z-1.000000 F800.0(Penetrate)
G01 X73.318272 Y69.920141 Z-1.000000 F2500.000000
G00 Z0.100000
M05
(End cutting path id: path8934)


(Start cutting path id: path8936)
(Change tool to Default tool)

G00 Z0.100000
G00 X97.675594 Y57.883097
M03 S35
G01 Z-1.000000 F800.0(Penetrate)
G01 X74.074344 Y71.530379 Z-1.000000 F2500.000000
G00 Z0.100000
M05
(End cutting path id: path8936)


(Start cutting path id: path8938)
(Change tool to Default tool)

G00 Z0.100000
G00 X98.493587 Y59.457526
M03 S35
G01 Z-1.000000 F800.0(Penetrate)
G01 X75.030853 Y73.024705 Z-1.000000 F2500.000000
G00 Z0.100000
M05
(End cutting path id: path8938)


(Start cutting path id: path8878)
(Change tool to Default tool)

G00 Z0.100000
G00 X98.976759 Y48.667301
M03 S35
G01 Z-1.000000 F800.0(Penetrate)
G01 X90.190956 Y57.464882 Z-1.000000 F2500.000000
G00 Z0.100000
M05
(End cutting path id: path8878)


(Start cutting path id: path8876)
(Change tool to Default tool)

G00 Z0.100000
G00 X99.591319 Y45.543635
M03 S35
G01 Z-1.000000 F800.0(Penetrate)
G01 X87.068116 Y58.083626 Z-1.000000 F2500.000000
G00 Z0.100000
M05
(End cutting path id: path8876)


(Start cutting path id: path8874)
(Change tool to Default tool)

G00 Z0.100000
G00 X99.557576 Y43.069118
M03 S35
G01 Z-1.000000 F800.0(Penetrate)
G01 X84.593556 Y58.053197 Z-1.000000 F2500.000000
G00 Z0.100000
M05
(End cutting path id: path8874)


(Start cutting path id: path8872)
(Change tool to Default tool)

G00 Z0.100000
G00 X99.165016 Y40.953899
M03 S35
G01 Z-1.000000 F800.0(Penetrate)
G01 X82.477812 Y57.663495 Z-1.000000 F2500.000000
G00 Z0.100000
M05
(End cutting path id: path8872)


(Start cutting path id: path8870)
(Change tool to Default tool)

G00 Z0.100000
G00 X98.517918 Y39.093582
M03 S35
G01 Z-1.000000 F800.0(Penetrate)
G01 X80.616630 Y57.018866 Z-1.000000 F2500.000000
G00 Z0.100000
M05
(End cutting path id: path8870)


(Start cutting path id: path8868)
(Change tool to Default tool)

G00 Z0.100000
G00 X97.665899 Y37.438415
M03 S35
G01 Z-1.000000 F800.0(Penetrate)
G01 X78.960324 Y56.169065 Z-1.000000 F2500.000000
G00 Z0.100000
M05
(End cutting path id: path8868)


(Start cutting path id: path8852)
(Change tool to Default tool)

G00 Z0.100000
G00 X84.060560 Y30.995620
M03 S35
G01 Z-1.000000 F800.0(Penetrate)
G01 X72.499309 Y42.572369 Z-1.000000 F2500.000000
G00 Z0.100000
M05
(End cutting path id: path8852)


(Start cutting path id: path8854)
(Change tool to Default tool)

G00 Z0.100000
G00 X86.686267 Y30.874698
M03 S35
G01 Z-1.000000 F800.0(Penetrate)
G01 X72.381904 Y45.198236 Z-1.000000 F2500.000000
G00 Z0.100000
M05
(End cutting path id: path8854)


(Start cutting path id: path8856)
(Change tool to Default tool)

G00 Z0.100000
G00 X88.897159 Y31.169148
M03 S35
G01 Z-1.000000 F800.0(Penetrate)
G01 X72.679315 Y47.408731 Z-1.000000 F2500.000000
G00 Z0.100000
M05
(End cutting path id: path8856)


(Start cutting path id: path8858)
(Change tool to Default tool)

G00 Z0.100000
G00 X90.829759 Y31.742262
M03 S35
G01 Z-1.000000 F800.0(Penetrate)
G01 X73.255018 Y49.340562 Z-1.000000 F2500.000000
G00 Z0.100000
M05
(End cutting path id: path8858)


(Start cutting path id: path8860)
(Change tool to Default tool)

G00 Z0.100000
G00 X92.545516 Y32.532487
M03 S35
G01 Z-1.000000 F800.0(Penetrate)
G01 X74.047541 Y51.055282 Z-1.000000 F2500.000000
G00 Z0.100000
M05
(End cutting path id: path8860)


(Start cutting path id: path8862)
(Change tool to Default tool)

G00 Z0.100000
G00 X94.076040 Y33.508216
M03 S35
G01 Z-1.000000 F800.0(Penetrate)
G01 X75.025297 Y52.584475 Z-1.000000 F2500.000000
G00 Z0.100000
M05
(End cutting path id: path8862)


(Start cutting path id: path8864)
(Change tool to Default tool)

G00 Z0.100000
G00 X95.437273 Y34.653464
M03 S35
G01 Z-1.000000 F800.0(Penetrate)
G01 X76.172389 Y53.944172 Z-1.000000 F2500.000000
G00 Z0.100000
M05
(End cutting path id: path8864)


(Start cutting path id: path8866)
(Change tool to Default tool)

G00 Z0.100000
G00 X96.634869 Y35.962545
M03 S35
G01 Z-1.000000 F800.0(Penetrate)
G01 X77.483073 Y55.140014 Z-1.000000 F2500.000000
G00 Z0.100000
M05
(End cutting path id: path8866)


(Start cutting path id: path8776)
(Change tool to Default tool)

G00 Z0.100000
G00 X112.660139 Y36.156778
M03 S35
G01 Z-1.000000 F800.0(Penetrate)
G01 X100.226844 Y36.165106 Z-1.000000 F2500.000000
G00 Z0.100000
M05
(End cutting path id: path8776)


(Start cutting path id: path8774)
(Change tool to Default tool)

G00 Z0.100000
G00 X115.303485 Y34.382562
M03 S35
G01 Z-1.000000 F800.0(Penetrate)
G01 X97.581123 Y34.394432 Z-1.000000 F2500.000000
G00 Z0.100000
M05
(End cutting path id: path8774)


(Start cutting path id: path8772)
(Change tool to Default tool)

G00 Z0.100000
G00 X117.029364 Y32.608960
M03 S35
G01 Z-1.000000 F800.0(Penetrate)
G01 X95.852870 Y32.623144 Z-1.000000 F2500.000000
G00 Z0.100000
M05
(End cutting path id: path8772)


(Start cutting path id: path8770)
(Change tool to Default tool)

G00 Z0.100000
G00 X118.247483 Y30.835698
M03 S35
G01 Z-1.000000 F800.0(Penetrate)
G01 X94.632377 Y30.851515 Z-1.000000 F2500.000000
G00 Z0.100000
M05
(End cutting path id: path8770)


(Start cutting path id: path8768)
(Change tool to Default tool)

G00 Z0.100000
G00 X119.105341 Y29.062677
M03 S35
G01 Z-1.000000 F800.0(Penetrate)
G01 X93.772144 Y29.079645 Z-1.000000 F2500.000000
G00 Z0.100000
M05
(End cutting path id: path8768)


(Start cutting path id: path8766)
(Change tool to Default tool)

G00 Z0.100000
G00 X119.673268 Y27.289851
M03 S35
G01 Z-1.000000 F800.0(Penetrate)
G01 X93.201843 Y27.307581 Z-1.000000 F2500.000000
G00 Z0.100000
M05
(End cutting path id: path8766)


(Start cutting path id: path8750)
(Change tool to Default tool)

G00 Z0.100000
G00 X114.608575 Y13.113675
M03 S35
G01 Z-1.000000 F800.0(Penetrate)
G01 X98.247541 Y13.124633 Z-1.000000 F2500.000000
G00 Z0.100000
M05
(End cutting path id: path8750)


(Start cutting path id: path8752)
(Change tool to Default tool)

G00 Z0.100000
G00 X116.550748 Y14.884820
M03 S35
G01 Z-1.000000 F800.0(Penetrate)
G01 X96.307742 Y14.898379 Z-1.000000 F2500.000000
G00 Z0.100000
M05
(End cutting path id: path8752)


(Start cutting path id: path8754)
(Change tool to Default tool)

G00 Z0.100000
G00 X117.905857 Y16.656358
M03 S35
G01 Z-1.000000 F800.0(Penetrate)
G01 X94.955008 Y16.671731 Z-1.000000 F2500.000000
G00 Z0.100000
M05
(End cutting path id: path8754)


(Start cutting path id: path8756)
(Change tool to Default tool)

G00 Z0.100000
G00 X118.867164 Y18.428160
M03 S35
G01 Z-1.000000 F800.0(Penetrate)
G01 X93.996075 Y18.444819 Z-1.000000 F2500.000000
G00 Z0.100000
M05
(End cutting path id: path8756)


(Start cutting path id: path8758)
(Change tool to Default tool)

G00 Z0.100000
G00 X119.521633 Y20.200168
M03 S35
G01 Z-1.000000 F800.0(Penetrate)
G01 X93.343980 Y20.217702 Z-1.000000 F2500.000000
G00 Z0.100000
M05
(End cutting path id: path8758)


(Start cutting path id: path8760)
(Change tool to Default tool)

G00 Z0.100000
G00 X119.913940 Y21.972351
M03 S35
G01 Z-1.000000 F800.0(Penetrate)
G01 X92.954048 Y21.990409 Z-1.000000 F2500.000000
G00 Z0.100000
M05
(End cutting path id: path8760)


(Start cutting path id: path8762)
(Change tool to Default tool)

G00 Z0.100000
G00 X120.066649 Y23.744695
M03 S35
G01 Z-1.000000 F800.0(Penetrate)
G01 X92.803714 Y23.762956 Z-1.000000 F2500.000000
G00 Z0.100000
M05
(End cutting path id: path8762)


(Start cutting path id: path8764)
(Change tool to Default tool)

G00 Z0.100000
G00 X119.987826 Y25.517194
M03 S35
G01 Z-1.000000 F800.0(Penetrate)
G01 X92.884911 Y25.535348 Z-1.000000 F2500.000000
G00 Z0.100000
M05
(End cutting path id: path8764)


(Start cutting path id: path8952)
(Change tool to Default tool)

G00 Z0.100000
G00 X128.535840 Y51.378001
M03 S35
G01 Z-1.000000 F800.0(Penetrate)
G01 X114.372255 Y59.568008 Z-1.000000 F2500.000000
G00 Z0.100000
M05
(End cutting path id: path8952)


(Start cutting path id: path8954)
(Change tool to Default tool)

G00 Z0.100000
G00 X131.103377 Y51.940760
M03 S35
G01 Z-1.000000 F800.0(Penetrate)
G01 X113.579219 Y62.074005 Z-1.000000 F2500.000000
G00 Z0.100000
M05
(End cutting path id: path8954)


(Start cutting path id: path8956)
(Change tool to Default tool)

G00 Z0.100000
G00 X133.162715 Y52.797403
M03 S35
G01 Z-1.000000 F800.0(Penetrate)
G01 X113.294382 Y64.286140 Z-1.000000 F2500.000000
G00 Z0.100000
M05
(End cutting path id: path8956)


(Start cutting path id: path8980)
(Change tool to Default tool)

G00 Z0.100000
G00 X135.810919 Y57.663812
M03 S35
G01 Z-1.000000 F800.0(Penetrate)
G01 X135.820625 Y72.155029 Z-1.000000 F2500.000000
G00 Z0.100000
M05
(End cutting path id: path8980)


(Start cutting path id: path8978)
(Change tool to Default tool)

G00 Z0.100000
G00 X138.370005 Y72.308115
M03 S35
G01 Z-1.000000 F800.0(Penetrate)
G01 X127.606610 Y78.531997 Z-1.000000 F2500.000000
G00 Z0.100000
M05
(End cutting path id: path8978)


(Start cutting path id: path8976)
(Change tool to Default tool)

G00 Z0.100000
G00 X139.772095 Y69.449947
M03 S35
G01 Z-1.000000 F800.0(Penetrate)
G01 X124.430018 Y78.321408 Z-1.000000 F2500.000000
G00 Z0.100000
M05
(End cutting path id: path8976)


(Start cutting path id: path8974)
(Change tool to Default tool)

G00 Z0.100000
G00 X140.379960 Y67.051011
M03 S35
G01 Z-1.000000 F800.0(Penetrate)
G01 X122.047652 Y77.651542 Z-1.000000 F2500.000000
G00 Z0.100000
M05
(End cutting path id: path8974)


(Start cutting path id: path8972)
(Change tool to Default tool)

G00 Z0.100000
G00 X140.548246 Y64.906262
M03 S35
G01 Z-1.000000 F800.0(Penetrate)
G01 X120.104864 Y76.727513 Z-1.000000 F2500.000000
G00 Z0.100000
M05
(End cutting path id: path8972)


(Start cutting path id: path8970)
(Change tool to Default tool)

G00 Z0.100000
G00 X140.404658 Y62.941851
M03 S35
G01 Z-1.000000 F800.0(Penetrate)
G01 X118.473951 Y75.623145 Z-1.000000 F2500.000000
G00 Z0.100000
M05
(End cutting path id: path8970)


(Start cutting path id: path8968)
(Change tool to Default tool)

G00 Z0.100000
G00 X140.010070 Y61.122586
M03 S35
G01 Z-1.000000 F800.0(Penetrate)
G01 X117.094014 Y74.373654 Z-1.000000 F2500.000000
G00 Z0.100000
M05
(End cutting path id: path8968)


(Start cutting path id: path8966)
(Change tool to Default tool)

G00 Z0.100000
G00 X139.396170 Y59.430130
M03 S35
G01 Z-1.000000 F800.0(Penetrate)
G01 X115.933436 Y72.997309 Z-1.000000 F2500.000000
G00 Z0.100000
M05
(End cutting path id: path8966)


(Start cutting path id: path8958)
(Change tool to Default tool)

G00 Z0.100000
G00 X134.881149 Y53.851176
M03 S35
G01 Z-1.000000 F800.0(Penetrate)
G01 X113.350451 Y66.301147 Z-1.000000 F2500.000000
G00 Z0.100000
M05
(End cutting path id: path8958)


(Start cutting path id: path8960)
(Change tool to Default tool)

G00 Z0.100000
G00 X136.333932 Y55.058556
M03 S35
G01 Z-1.000000 F800.0(Penetrate)
G01 X113.672169 Y68.162568 Z-1.000000 F2500.000000
G00 Z0.100000
M05
(End cutting path id: path8960)


(Start cutting path id: path8962)
(Change tool to Default tool)

G00 Z0.100000
G00 X137.559770 Y56.397159
M03 S35
G01 Z-1.000000 F800.0(Penetrate)
G01 X114.220855 Y69.892744 Z-1.000000 F2500.000000
G00 Z0.100000
M05
(End cutting path id: path8962)


(Start cutting path id: path8964)
(Change tool to Default tool)

G00 Z0.100000
G00 X138.578177 Y57.855700
M03 S35
G01 Z-1.000000 F800.0(Penetrate)
G01 X114.976927 Y71.502982 Z-1.000000 F2500.000000
G00 Z0.100000
M05
(End cutting path id: path8964)


(Start cutting path id: path8982)
(Change tool to Default tool)

G00 Z0.100000
G00 X137.936696 Y55.053234
M03 S35
G01 Z-1.000000 F800.0(Penetrate)
G01 X137.949898 Y74.762779 Z-1.000000 F2500.000000
G00 Z0.100000
M05
(End cutting path id: path8982)


(Start cutting path id: path8986)
(Change tool to Default tool)

G00 Z0.100000
G00 X138.029441 Y54.965299
M03 S35
G01 Z-1.000000 F800.0(Penetrate)
G01 X138.042760 Y74.850590 Z-1.000000 F2500.000000
G00 Z0.100000
M05
(End cutting path id: path8986)


(Start cutting path id: path9224)
(Change tool to Default tool)

G00 Z0.100000
G00 X148.496598 Y92.214831
M03 S35
G01 Z-1.000000 F800.0(Penetrate)
G01 X135.064205 Y99.982029 Z-1.000000 F2500.000000
G00 Z0.100000
M05
(End cutting path id: path9224)


(Start cutting path id: path9206)
(Change tool to Default tool)

G00 Z0.100000
G00 X120.097009 Y106.694855
M03 S35
G01 Z-1.000000 F800.0(Penetrate)
G01 X105.608751 Y92.225993 Z-1.000000 F2500.000000
G00 Z0.100000
M05
(End cutting path id: path9206)


(Start cutting path id: path9212)
(Change tool to Default tool)

G00 Z0.100000
G00 X119.613302 Y109.529547
M03 S35
G01 Z-1.000000 F800.0(Penetrate)
G01 X102.774709 Y92.713496 Z-1.000000 F2500.000000
G00 Z0.100000
M05
(End cutting path id: path9212)


(Start cutting path id: path9208)
(Change tool to Default tool)

G00 Z0.100000
G00 X119.598499 Y109.581685
M03 S35
G01 Z-1.000000 F800.0(Penetrate)
G01 X102.722591 Y92.728369 Z-1.000000 F2500.000000
G00 Z0.100000
M05
(End cutting path id: path9208)


(Start cutting path id: path9210)
(Change tool to Default tool)

G00 Z0.100000
G00 X118.967700 Y111.327308
M03 S35
G01 Z-1.000000 F800.0(Penetrate)
G01 X100.977814 Y93.361506 Z-1.000000 F2500.000000
G00 Z0.100000
M05
(End cutting path id: path9210)


(Start cutting path id: path9214)
(Change tool to Default tool)

G00 Z0.100000
G00 X118.578850 Y112.136827
M03 S35
G01 Z-1.000000 F800.0(Penetrate)
G01 X100.168818 Y93.751440 Z-1.000000 F2500.000000
G00 Z0.100000
M05
(End cutting path id: path9214)


(Start cutting path id: path9218)
(Change tool to Default tool)

G00 Z0.100000
G00 X117.659192 Y113.651134
M03 S35
G01 Z-1.000000 F800.0(Penetrate)
G01 X98.655743 Y94.673126 Z-1.000000 F2500.000000
G00 Z0.100000
M05
(End cutting path id: path9218)


(Start cutting path id: path9216)
(Change tool to Default tool)

G00 Z0.100000
G00 X117.308114 Y114.130066
M03 S35
G01 Z-1.000000 F800.0(Penetrate)
G01 X98.177282 Y95.024845 Z-1.000000 F2500.000000
G00 Z0.100000
M05
(End cutting path id: path9216)


(Start cutting path id: path9222)
(Change tool to Default tool)

G00 Z0.100000
G00 X112.151432 Y118.234938
M03 S35
G01 Z-1.000000 F800.0(Penetrate)
G01 X94.079322 Y100.187021 Z-1.000000 F2500.000000
G00 Z0.100000
M05
(End cutting path id: path9222)


(Start cutting path id: path9220)
(Change tool to Default tool)

G00 Z0.100000
G00 X114.061711 Y117.170236
M03 S35
G01 Z-1.000000 F800.0(Penetrate)
G01 X95.141464 Y98.275318 Z-1.000000 F2500.000000
G00 Z0.100000
M05
(End cutting path id: path9220)


(Start cutting path id: path9544)
(Change tool to Default tool)

G00 Z0.100000
G00 X125.096277 Y133.215571
M03 S35
G01 Z-1.000000 F800.0(Penetrate)
G01 X113.461360 Y144.866085 Z-1.000000 F2500.000000
G00 Z0.100000
M05
(End cutting path id: path9544)


(Start cutting path id: path9548)
(Change tool to Default tool)

G00 Z0.100000
G00 X129.802439 Y133.384073
M03 S35
G01 Z-1.000000 F800.0(Penetrate)
G01 X113.636167 Y149.572016 Z-1.000000 F2500.000000
G00 Z0.100000
M05
(End cutting path id: path9548)


(Start cutting path id: path9546)
(Change tool to Default tool)

G00 Z0.100000
G00 X130.048891 Y133.438808
M03 S35
G01 Z-1.000000 F800.0(Penetrate)
G01 X113.691255 Y149.818395 Z-1.000000 F2500.000000
G00 Z0.100000
M05
(End cutting path id: path9546)


(Start cutting path id: path9552)
(Change tool to Default tool)

G00 Z0.100000
G00 X131.810607 Y133.975020
M03 S35
G01 Z-1.000000 F800.0(Penetrate)
G01 X114.229804 Y151.579391 Z-1.000000 F2500.000000
G00 Z0.100000
M05
(End cutting path id: path9552)


(Start cutting path id: path9748)
(Change tool to Default tool)

G00 Z0.100000
G00 X136.521001 Y158.984942
M03 S35
G01 Z-1.000000 F800.0(Penetrate)
G01 X136.531959 Y175.345975 Z-1.000000 F2500.000000
G00 Z0.100000
M05
(End cutting path id: path9748)


(Start cutting path id: path9924)
(Change tool to Default tool)

G00 Z0.100000
G00 X135.169453 Y176.710308
M03 S35
G01 Z-1.000000 F800.0(Penetrate)
G01 X118.808420 Y176.721267 Z-1.000000 F2500.000000
G00 Z0.100000
M05
(End cutting path id: path9924)


(Start cutting path id: path9926)
(Change tool to Default tool)

G00 Z0.100000
G00 X137.111627 Y178.481453
M03 S35
G01 Z-1.000000 F800.0(Penetrate)
G01 X116.868621 Y178.495012 Z-1.000000 F2500.000000
G00 Z0.100000
M05
(End cutting path id: path9926)


(Start cutting path id: path9910)
(Change tool to Default tool)

G00 Z0.100000
G00 X117.560767 Y195.670710
M03 S35
G01 Z-1.000000 F800.0(Penetrate)
G01 X98.496333 Y176.631797 Z-1.000000 F2500.000000
G00 Z0.100000
M05
(End cutting path id: path9910)


(Start cutting path id: path9918)
(Change tool to Default tool)

G00 Z0.100000
G00 X109.659099 Y200.910626
M03 S35
G01 Z-1.000000 F800.0(Penetrate)
G01 X93.267006 Y184.540478 Z-1.000000 F2500.000000
G00 Z0.100000
M05
(End cutting path id: path9918)


(Start cutting path id: path9916)
(Change tool to Default tool)

G00 Z0.100000
G00 X111.454125 Y200.356557
M03 S35
G01 Z-1.000000 F800.0(Penetrate)
G01 X93.818670 Y182.744711 Z-1.000000 F2500.000000
G00 Z0.100000
M05
(End cutting path id: path9916)


(Start cutting path id: path9914)
(Change tool to Default tool)

G00 Z0.100000
G00 X117.020953 Y196.362916
M03 S35
G01 Z-1.000000 F800.0(Penetrate)
G01 X97.804850 Y177.172538 Z-1.000000 F2500.000000
G00 Z0.100000
M05
(End cutting path id: path9914)


(Start cutting path id: path9928)
(Change tool to Default tool)

G00 Z0.100000
G00 X138.466735 Y180.252992
M03 S35
G01 Z-1.000000 F800.0(Penetrate)
G01 X115.515887 Y180.268364 Z-1.000000 F2500.000000
G00 Z0.100000
M05
(End cutting path id: path9928)


(Start cutting path id: path9930)
(Change tool to Default tool)

G00 Z0.100000
G00 X139.428065 Y182.024794
M03 S35
G01 Z-1.000000 F800.0(Penetrate)
G01 X114.556954 Y182.041453 Z-1.000000 F2500.000000
G00 Z0.100000
M05
(End cutting path id: path9930)


(Start cutting path id: path9934)
(Change tool to Default tool)

G00 Z0.100000
G00 X140.474819 Y185.568985
M03 S35
G01 Z-1.000000 F800.0(Penetrate)
G01 X113.514926 Y185.587043 Z-1.000000 F2500.000000
G00 Z0.100000
M05
(End cutting path id: path9934)


(Start cutting path id: path9948)
(Change tool to Default tool)

G00 Z0.100000
G00 X135.864364 Y197.979195
M03 S35
G01 Z-1.000000 F800.0(Penetrate)
G01 X118.142002 Y197.991066 Z-1.000000 F2500.000000
G00 Z0.100000
M05
(End cutting path id: path9948)


(Start cutting path id: path9946)
(Change tool to Default tool)

G00 Z0.100000
G00 X137.590243 Y196.205593
M03 S35
G01 Z-1.000000 F800.0(Penetrate)
G01 X116.413749 Y196.219777 Z-1.000000 F2500.000000
G00 Z0.100000
M05
(End cutting path id: path9946)


(Start cutting path id: path9944)
(Change tool to Default tool)

G00 Z0.100000
G00 X138.808362 Y194.432331
M03 S35
G01 Z-1.000000 F800.0(Penetrate)
G01 X115.193255 Y194.448149 Z-1.000000 F2500.000000
G00 Z0.100000
M05
(End cutting path id: path9944)


(Start cutting path id: path9942)
(Change tool to Default tool)

G00 Z0.100000
G00 X139.666220 Y192.659311
M03 S35
G01 Z-1.000000 F800.0(Penetrate)
G01 X114.333023 Y192.676279 Z-1.000000 F2500.000000
G00 Z0.100000
M05
(End cutting path id: path9942)


(Start cutting path id: path9940)
(Change tool to Default tool)

G00 Z0.100000
G00 X140.234146 Y190.886484
M03 S35
G01 Z-1.000000 F800.0(Penetrate)
G01 X113.762722 Y190.904215 Z-1.000000 F2500.000000
G00 Z0.100000
M05
(End cutting path id: path9940)


(Start cutting path id: path9938)
(Change tool to Default tool)

G00 Z0.100000
G00 X140.548704 Y189.113827
M03 S35
G01 Z-1.000000 F800.0(Penetrate)
G01 X113.445789 Y189.131981 Z-1.000000 F2500.000000
G00 Z0.100000
M05
(End cutting path id: path9938)


(Start cutting path id: path9936)
(Change tool to Default tool)

G00 Z0.100000
G00 X140.627527 Y187.341329
M03 S35
G01 Z-1.000000 F800.0(Penetrate)
G01 X113.364592 Y187.359589 Z-1.000000 F2500.000000
G00 Z0.100000
M05
(End cutting path id: path9936)


(Start cutting path id: path9750)
(Change tool to Default tool)

G00 Z0.100000
G00 X138.292146 Y157.042768
M03 S35
G01 Z-1.000000 F800.0(Penetrate)
G01 X138.305705 Y177.285775 Z-1.000000 F2500.000000
G00 Z0.100000
M05
(End cutting path id: path9750)


(Start cutting path id: path9752)
(Change tool to Default tool)

G00 Z0.100000
G00 X140.063684 Y155.687660
M03 S35
G01 Z-1.000000 F800.0(Penetrate)
G01 X140.079057 Y178.638509 Z-1.000000 F2500.000000
G00 Z0.100000
M05
(End cutting path id: path9752)


(Start cutting path id: path9754)
(Change tool to Default tool)

G00 Z0.100000
G00 X141.835486 Y154.726353
M03 S35
G01 Z-1.000000 F800.0(Penetrate)
G01 X141.852145 Y179.597464 Z-1.000000 F2500.000000
G00 Z0.100000
M05
(End cutting path id: path9754)


(Start cutting path id: path9756)
(Change tool to Default tool)

G00 Z0.100000
G00 X143.607494 Y154.071883
M03 S35
G01 Z-1.000000 F800.0(Penetrate)
G01 X143.625028 Y180.249537 Z-1.000000 F2500.000000
G00 Z0.100000
M05
(End cutting path id: path9756)


(Start cutting path id: path9772)
(Change tool to Default tool)

G00 Z0.100000
G00 X157.789888 Y158.290031
M03 S35
G01 Z-1.000000 F800.0(Penetrate)
G01 X157.801758 Y176.012393 Z-1.000000 F2500.000000
G00 Z0.100000
M05
(End cutting path id: path9772)


(Start cutting path id: path9770)
(Change tool to Default tool)

G00 Z0.100000
G00 X156.016286 Y156.564153
M03 S35
G01 Z-1.000000 F800.0(Penetrate)
G01 X156.030470 Y177.740647 Z-1.000000 F2500.000000
G00 Z0.100000
M05
(End cutting path id: path9770)


(Start cutting path id: path9768)
(Change tool to Default tool)

G00 Z0.100000
G00 X154.243024 Y155.346034
M03 S35
G01 Z-1.000000 F800.0(Penetrate)
G01 X154.258841 Y178.961140 Z-1.000000 F2500.000000
G00 Z0.100000
M05
(End cutting path id: path9768)


(Start cutting path id: path9766)
(Change tool to Default tool)

G00 Z0.100000
G00 X152.470003 Y154.488176
M03 S35
G01 Z-1.000000 F800.0(Penetrate)
G01 X152.486971 Y179.821372 Z-1.000000 F2500.000000
G00 Z0.100000
M05
(End cutting path id: path9766)


(Start cutting path id: path9764)
(Change tool to Default tool)

G00 Z0.100000
G00 X150.697177 Y153.920249
M03 S35
G01 Z-1.000000 F800.0(Penetrate)
G01 X150.714907 Y180.391674 Z-1.000000 F2500.000000
G00 Z0.100000
M05
(End cutting path id: path9764)


(Start cutting path id: path9762)
(Change tool to Default tool)

G00 Z0.100000
G00 X148.924520 Y153.605691
M03 S35
G01 Z-1.000000 F800.0(Penetrate)
G01 X148.942674 Y180.708606 Z-1.000000 F2500.000000
G00 Z0.100000
M05
(End cutting path id: path9762)


(Start cutting path id: path9760)
(Change tool to Default tool)

G00 Z0.100000
G00 X147.152021 Y153.526868
M03 S35
G01 Z-1.000000 F800.0(Penetrate)
G01 X147.170282 Y180.789803 Z-1.000000 F2500.000000
G00 Z0.100000
M05
(End cutting path id: path9760)


(Start cutting path id: path9758)
(Change tool to Default tool)

G00 Z0.100000
G00 X145.379677 Y153.679577
M03 S35
G01 Z-1.000000 F800.0(Penetrate)
G01 X145.397735 Y180.639469 Z-1.000000 F2500.000000
G00 Z0.100000
M05
(End cutting path id: path9758)


(Start cutting path id: path9774)
(Change tool to Default tool)

G00 Z0.100000
G00 X162.520945 Y154.609832
M03 S35
G01 Z-1.000000 F800.0(Penetrate)
G01 X154.349918 Y168.784375 Z-1.000000 F2500.000000
G00 Z0.100000
M05
(End cutting path id: path9774)


(Start cutting path id: path9776)
(Change tool to Default tool)

G00 Z0.100000
G00 X165.025877 Y153.813440
M03 S35
G01 Z-1.000000 F800.0(Penetrate)
G01 X154.916116 Y171.351157 Z-1.000000 F2500.000000
G00 Z0.100000
M05
(End cutting path id: path9776)


(Start cutting path id: path9778)
(Change tool to Default tool)

G00 Z0.100000
G00 X167.237629 Y153.525640
M03 S35
G01 Z-1.000000 F800.0(Penetrate)
G01 X155.775518 Y173.409346 Z-1.000000 F2500.000000
G00 Z0.100000
M05
(End cutting path id: path9778)


(Start cutting path id: path9780)
(Change tool to Default tool)

G00 Z0.100000
G00 X169.252709 Y153.579009
M03 S35
G01 Z-1.000000 F800.0(Penetrate)
G01 X156.831591 Y175.126366 Z-1.000000 F2500.000000
G00 Z0.100000
M05
(End cutting path id: path9780)


(Start cutting path id: path9954)
(Change tool to Default tool)

G00 Z0.100000
G00 X179.369318 Y180.225595
M03 S35
G01 Z-1.000000 F800.0(Penetrate)
G01 X156.418470 Y180.240967 Z-1.000000 F2500.000000
G00 Z0.100000
M05
(End cutting path id: path9954)


(Start cutting path id: path9956)
(Change tool to Default tool)

G00 Z0.100000
G00 X180.330648 Y181.997397
M03 S35
G01 Z-1.000000 F800.0(Penetrate)
G01 X155.459514 Y182.014056 Z-1.000000 F2500.000000
G00 Z0.100000
M05
(End cutting path id: path9956)


(Start cutting path id: path9958)
(Change tool to Default tool)

G00 Z0.100000
G00 X180.985095 Y183.769405
M03 S35
G01 Z-1.000000 F800.0(Penetrate)
G01 X154.807442 Y183.786939 Z-1.000000 F2500.000000
G00 Z0.100000
M05
(End cutting path id: path9958)


(Start cutting path id: path9974)
(Change tool to Default tool)

G00 Z0.100000
G00 X176.766947 Y197.951799
M03 S35
G01 Z-1.000000 F800.0(Penetrate)
G01 X159.044585 Y197.963669 Z-1.000000 F2500.000000
G00 Z0.100000
M05
(End cutting path id: path9974)


(Start cutting path id: path9972)
(Change tool to Default tool)

G00 Z0.100000
G00 X178.492826 Y196.178196
M03 S35
G01 Z-1.000000 F800.0(Penetrate)
G01 X157.316331 Y196.192381 Z-1.000000 F2500.000000
G00 Z0.100000
M05
(End cutting path id: path9972)


(Start cutting path id: path9970)
(Change tool to Default tool)

G00 Z0.100000
G00 X179.710945 Y194.404934
M03 S35
G01 Z-1.000000 F800.0(Penetrate)
G01 X156.095838 Y194.420752 Z-1.000000 F2500.000000
G00 Z0.100000
M05
(End cutting path id: path9970)


(Start cutting path id: path9968)
(Change tool to Default tool)

G00 Z0.100000
G00 X180.568803 Y192.631914
M03 S35
G01 Z-1.000000 F800.0(Penetrate)
G01 X155.235606 Y192.648882 Z-1.000000 F2500.000000
G00 Z0.100000
M05
(End cutting path id: path9968)


(Start cutting path id: path9966)
(Change tool to Default tool)

G00 Z0.100000
G00 X181.136729 Y190.859087
M03 S35
G01 Z-1.000000 F800.0(Penetrate)
G01 X154.665305 Y190.876818 Z-1.000000 F2500.000000
G00 Z0.100000
M05
(End cutting path id: path9966)


(Start cutting path id: path9964)
(Change tool to Default tool)

G00 Z0.100000
G00 X181.451287 Y189.086431
M03 S35
G01 Z-1.000000 F800.0(Penetrate)
G01 X154.348372 Y189.104584 Z-1.000000 F2500.000000
G00 Z0.100000
M05
(End cutting path id: path9964)


(Start cutting path id: path9962)
(Change tool to Default tool)

G00 Z0.100000
G00 X181.530110 Y187.313932
M03 S35
G01 Z-1.000000 F800.0(Penetrate)
G01 X154.267175 Y187.332193 Z-1.000000 F2500.000000
G00 Z0.100000
M05
(End cutting path id: path9962)


(Start cutting path id: path9960)
(Change tool to Default tool)

G00 Z0.100000
G00 X181.377402 Y185.541588
M03 S35
G01 Z-1.000000 F800.0(Penetrate)
G01 X154.417509 Y185.559646 Z-1.000000 F2500.000000
G00 Z0.100000
M05
(End cutting path id: path9960)


(Start cutting path id: path9798)
(Change tool to Default tool)

G00 Z0.100000
G00 X181.287802 Y164.642464
M03 S35
G01 Z-1.000000 F800.0(Penetrate)
G01 X172.436878 Y179.996412 Z-1.000000 F2500.000000
G00 Z0.100000
M05
(End cutting path id: path9798)


(Start cutting path id: path9976)
(Change tool to Default tool)

G00 Z0.100000
G00 X189.971904 Y174.044655
M03 S35
G01 Z-1.000000 F800.0(Penetrate)
G01 X175.808320 Y182.234662 Z-1.000000 F2500.000000
G00 Z0.100000
M05
(End cutting path id: path9976)


(Start cutting path id: path9978)
(Change tool to Default tool)

G00 Z0.100000
G00 X192.539442 Y174.607436
M03 S35
G01 Z-1.000000 F800.0(Penetrate)
G01 X175.015284 Y184.740659 Z-1.000000 F2500.000000
G00 Z0.100000
M05
(End cutting path id: path9978)


(Start cutting path id: path9980)
(Change tool to Default tool)

G00 Z0.100000
G00 X194.598780 Y175.464057
M03 S35
G01 Z-1.000000 F800.0(Penetrate)
G01 X174.730447 Y186.952794 Z-1.000000 F2500.000000
G00 Z0.100000
M05
(End cutting path id: path9980)


(Start cutting path id: path9982)
(Change tool to Default tool)

G00 Z0.100000
G00 X196.317213 Y176.517830
M03 S35
G01 Z-1.000000 F800.0(Penetrate)
G01 X174.786515 Y188.967801 Z-1.000000 F2500.000000
G00 Z0.100000
M05
(End cutting path id: path9982)


(Start cutting path id: path9824)
(Change tool to Default tool)

G00 Z0.100000
G00 X197.204540 Y177.486809
M03 S35
G01 Z-1.000000 F800.0(Penetrate)
G01 X179.482178 Y177.498679 Z-1.000000 F2500.000000
G00 Z0.100000
M05
(End cutting path id: path9824)


(Start cutting path id: path9796)
(Change tool to Default tool)

G00 Z0.100000
G00 X180.614745 Y162.260997
M03 S35
G01 Z-1.000000 F800.0(Penetrate)
G01 X170.038782 Y180.607489 Z-1.000000 F2500.000000
G00 Z0.100000
M05
(End cutting path id: path9796)


(Start cutting path id: path9794)
(Change tool to Default tool)

G00 Z0.100000
G00 X179.688114 Y160.319449
M03 S35
G01 Z-1.000000 F800.0(Penetrate)
G01 X167.894259 Y180.778649 Z-1.000000 F2500.000000
G00 Z0.100000
M05
(End cutting path id: path9794)


(Start cutting path id: path9792)
(Change tool to Default tool)

G00 Z0.100000
G00 X178.581562 Y158.690017
M03 S35
G01 Z-1.000000 F800.0(Penetrate)
G01 X165.929658 Y180.637692 Z-1.000000 F2500.000000
G00 Z0.100000
M05
(End cutting path id: path9792)


(Start cutting path id: path9790)
(Change tool to Default tool)

G00 Z0.100000
G00 X177.330200 Y157.311755
M03 S35
G01 Z-1.000000 F800.0(Penetrate)
G01 X164.109866 Y180.245541 Z-1.000000 F2500.000000
G00 Z0.100000
M05
(End cutting path id: path9790)


(Start cutting path id: path9788)
(Change tool to Default tool)

G00 Z0.100000
G00 X175.952325 Y156.153021
M03 S35
G01 Z-1.000000 F800.0(Penetrate)
G01 X162.416589 Y179.633909 Z-1.000000 F2500.000000
G00 Z0.100000
M05
(End cutting path id: path9788)


(Start cutting path id: path9782)
(Change tool to Default tool)

G00 Z0.100000
G00 X171.114559 Y153.898234
M03 S35
G01 Z-1.000000 F800.0(Penetrate)
G01 X158.040917 Y176.577530 Z-1.000000 F2500.000000
G00 Z0.100000
M05
(End cutting path id: path9782)


(Start cutting path id: path9784)
(Change tool to Default tool)

G00 Z0.100000
G00 X172.845446 Y154.444578
M03 S35
G01 Z-1.000000 F800.0(Penetrate)
G01 X159.381161 Y177.801574 Z-1.000000 F2500.000000
G00 Z0.100000
M05
(End cutting path id: path9784)


(Start cutting path id: path9786)
(Change tool to Default tool)

G00 Z0.100000
G00 X174.456718 Y155.198516
M03 S35
G01 Z-1.000000 F800.0(Penetrate)
G01 X160.841065 Y178.818026 Z-1.000000 F2500.000000
G00 Z0.100000
M05
(End cutting path id: path9786)


(Start cutting path id: path9984)
(Change tool to Default tool)

G00 Z0.100000
G00 X197.769996 Y177.725210
M03 S35
G01 Z-1.000000 F800.0(Penetrate)
G01 X175.108234 Y190.829222 Z-1.000000 F2500.000000
G00 Z0.100000
M05
(End cutting path id: path9984)


(Start cutting path id: path10000)
(Change tool to Default tool)

G00 Z0.100000
G00 X201.208160 Y192.116578
M03 S35
G01 Z-1.000000 F800.0(Penetrate)
G01 X185.866083 Y200.988062 Z-1.000000 F2500.000000
G00 Z0.100000
M05
(End cutting path id: path10000)


(Start cutting path id: path9998)
(Change tool to Default tool)

G00 Z0.100000
G00 X201.816025 Y189.717665
M03 S35
G01 Z-1.000000 F800.0(Penetrate)
G01 X183.483716 Y200.318196 Z-1.000000 F2500.000000
G00 Z0.100000
M05
(End cutting path id: path9998)


(Start cutting path id: path9996)
(Change tool to Default tool)

G00 Z0.100000
G00 X201.984311 Y187.572915
M03 S35
G01 Z-1.000000 F800.0(Penetrate)
G01 X181.540928 Y199.394167 Z-1.000000 F2500.000000
G00 Z0.100000
M05
(End cutting path id: path9996)


(Start cutting path id: path9994)
(Change tool to Default tool)

G00 Z0.100000
G00 X201.840722 Y185.608505
M03 S35
G01 Z-1.000000 F800.0(Penetrate)
G01 X179.910016 Y198.289798 Z-1.000000 F2500.000000
G00 Z0.100000
M05
(End cutting path id: path9994)


(Start cutting path id: path9992)
(Change tool to Default tool)

G00 Z0.100000
G00 X201.446135 Y183.789240
M03 S35
G01 Z-1.000000 F800.0(Penetrate)
G01 X178.530079 Y197.040285 Z-1.000000 F2500.000000
G00 Z0.100000
M05
(End cutting path id: path9992)


(Start cutting path id: path9990)
(Change tool to Default tool)

G00 Z0.100000
G00 X200.832234 Y182.096783
M03 S35
G01 Z-1.000000 F800.0(Penetrate)
G01 X177.369500 Y195.663962 Z-1.000000 F2500.000000
G00 Z0.100000
M05
(End cutting path id: path9990)


(Start cutting path id: path9988)
(Change tool to Default tool)

G00 Z0.100000
G00 X200.014241 Y180.522331
M03 S35
G01 Z-1.000000 F800.0(Penetrate)
G01 X176.412992 Y194.169636 Z-1.000000 F2500.000000
G00 Z0.100000
M05
(End cutting path id: path9988)


(Start cutting path id: path9986)
(Change tool to Default tool)

G00 Z0.100000
G00 X198.995835 Y179.063813
M03 S35
G01 Z-1.000000 F800.0(Penetrate)
G01 X175.656897 Y192.559375 Z-1.000000 F2500.000000
G00 Z0.100000
M05
(End cutting path id: path9986)


(Start cutting path id: path9822)
(Change tool to Default tool)

G00 Z0.100000
G00 X198.930419 Y175.713207
M03 S35
G01 Z-1.000000 F800.0(Penetrate)
G01 X177.753925 Y175.727391 Z-1.000000 F2500.000000
G00 Z0.100000
M05
(End cutting path id: path9822)


(Start cutting path id: path9818)
(Change tool to Default tool)

G00 Z0.100000
G00 X201.006396 Y172.166924
M03 S35
G01 Z-1.000000 F800.0(Penetrate)
G01 X175.673199 Y172.183892 Z-1.000000 F2500.000000
G00 Z0.100000
M05
(End cutting path id: path9818)


(Start cutting path id: path9590)
(Change tool to Default tool)

G00 Z0.100000
G00 X181.464977 Y147.745299
M03 S35
G01 Z-1.000000 F800.0(Penetrate)
G01 X168.941773 Y160.285290 Z-1.000000 F2500.000000
G00 Z0.100000
M05
(End cutting path id: path9590)


(Start cutting path id: path9588)
(Change tool to Default tool)

G00 Z0.100000
G00 X181.431233 Y145.270782
M03 S35
G01 Z-1.000000 F800.0(Penetrate)
G01 X166.467214 Y160.254861 Z-1.000000 F2500.000000
G00 Z0.100000
M05
(End cutting path id: path9588)


(Start cutting path id: path9586)
(Change tool to Default tool)

G00 Z0.100000
G00 X181.038697 Y143.155540
M03 S35
G01 Z-1.000000 F800.0(Penetrate)
G01 X164.351470 Y159.865159 Z-1.000000 F2500.000000
G00 Z0.100000
M05
(End cutting path id: path9586)


(Start cutting path id: path9584)
(Change tool to Default tool)

G00 Z0.100000
G00 X180.391553 Y141.295246
M03 S35
G01 Z-1.000000 F800.0(Penetrate)
G01 X162.490288 Y159.220508 Z-1.000000 F2500.000000
G00 Z0.100000
M05
(End cutting path id: path9584)


(Start cutting path id: path9582)
(Change tool to Default tool)

G00 Z0.100000
G00 X179.539557 Y139.640079
M03 S35
G01 Z-1.000000 F800.0(Penetrate)
G01 X160.833982 Y158.370729 Z-1.000000 F2500.000000
G00 Z0.100000
M05
(End cutting path id: path9582)


(Start cutting path id: path9564)
(Change tool to Default tool)

G00 Z0.100000
G00 X140.518041 Y145.200588
M03 S35
G01 Z-1.000000 F800.0(Penetrate)
G01 X125.467026 Y160.271780 Z-1.000000 F2500.000000
G00 Z0.100000
M05
(End cutting path id: path9564)


(Start cutting path id: path9560)
(Change tool to Default tool)

G00 Z0.100000
G00 X139.820393 Y142.167673
M03 S35
G01 Z-1.000000 F800.0(Penetrate)
G01 X122.433179 Y159.578195 Z-1.000000 F2500.000000
G00 Z0.100000
M05
(End cutting path id: path9560)


(Start cutting path id: path9562)
(Change tool to Default tool)

G00 Z0.100000
G00 X138.862721 Y140.055195
M03 S35
G01 Z-1.000000 F800.0(Penetrate)
G01 X120.319420 Y158.623353 Z-1.000000 F2500.000000
G00 Z0.100000
M05
(End cutting path id: path9562)


(Start cutting path id: path9556)
(Change tool to Default tool)

G00 Z0.100000
G00 X137.523116 Y138.089291
M03 S35
G01 Z-1.000000 F800.0(Penetrate)
G01 X118.351723 Y157.286383 Z-1.000000 F2500.000000
G00 Z0.100000
M05
(End cutting path id: path9556)


(Start cutting path id: path9554)
(Change tool to Default tool)

G00 Z0.100000
G00 X132.864766 Y134.427083
M03 S35
G01 Z-1.000000 F800.0(Penetrate)
G01 X114.683278 Y152.632943 Z-1.000000 F2500.000000
G00 Z0.100000
M05
(End cutting path id: path9554)


(Start cutting path id: path9550)
(Change tool to Default tool)

G00 Z0.100000
G00 X133.169364 Y134.577878
M03 S35
G01 Z-1.000000 F800.0(Penetrate)
G01 X114.834481 Y152.937339 Z-1.000000 F2500.000000
G00 Z0.100000
M05
(End cutting path id: path9550)


(Start cutting path id: path9558)
(Change tool to Default tool)

G00 Z0.100000
G00 X136.998886 Y137.485329
M03 S35
G01 Z-1.000000 F800.0(Penetrate)
G01 X117.747059 Y156.762963 Z-1.000000 F2500.000000
G00 Z0.100000
M05
(End cutting path id: path9558)


(Start cutting path id: path9422)
(Change tool to Default tool)

G00 Z0.100000
G00 X160.769313 Y128.962030
M03 S35
G01 Z-1.000000 F800.0(Penetrate)
G01 X150.130797 Y139.614807 Z-1.000000 F2500.000000
G00 Z0.100000
M05
(End cutting path id: path9422)


(Start cutting path id: path9566)
(Change tool to Default tool)

G00 Z0.100000
G00 X165.934218 Y133.197284
M03 S35
G01 Z-1.000000 F800.0(Penetrate)
G01 X154.372966 Y144.774033 Z-1.000000 F2500.000000
G00 Z0.100000
M05
(End cutting path id: path9566)


(Start cutting path id: path9568)
(Change tool to Default tool)

G00 Z0.100000
G00 X168.559925 Y133.076362
M03 S35
G01 Z-1.000000 F800.0(Penetrate)
G01 X154.255562 Y147.399900 Z-1.000000 F2500.000000
G00 Z0.100000
M05
(End cutting path id: path9568)


(Start cutting path id: path9570)
(Change tool to Default tool)

G00 Z0.100000
G00 X170.770816 Y133.370812
M03 S35
G01 Z-1.000000 F800.0(Penetrate)
G01 X154.552973 Y149.610395 Z-1.000000 F2500.000000
G00 Z0.100000
M05
(End cutting path id: path9570)


(Start cutting path id: path9572)
(Change tool to Default tool)

G00 Z0.100000
G00 X172.703417 Y133.943926
M03 S35
G01 Z-1.000000 F800.0(Penetrate)
G01 X155.128676 Y151.542226 Z-1.000000 F2500.000000
G00 Z0.100000
M05
(End cutting path id: path9572)


(Start cutting path id: path9574)
(Change tool to Default tool)

G00 Z0.100000
G00 X174.419196 Y134.734129
M03 S35
G01 Z-1.000000 F800.0(Penetrate)
G01 X155.921176 Y153.256945 Z-1.000000 F2500.000000
G00 Z0.100000
M05
(End cutting path id: path9574)


(Start cutting path id: path9576)
(Change tool to Default tool)

G00 Z0.100000
G00 X175.949721 Y135.709858
M03 S35
G01 Z-1.000000 F800.0(Penetrate)
G01 X156.898955 Y154.786161 Z-1.000000 F2500.000000
G00 Z0.100000
M05
(End cutting path id: path9576)


(Start cutting path id: path9578)
(Change tool to Default tool)

G00 Z0.100000
G00 X177.310931 Y136.855105
M03 S35
G01 Z-1.000000 F800.0(Penetrate)
G01 X158.046024 Y156.145836 Z-1.000000 F2500.000000
G00 Z0.100000
M05
(End cutting path id: path9578)


(Start cutting path id: path9580)
(Change tool to Default tool)

G00 Z0.100000
G00 X178.508550 Y138.164209
M03 S35
G01 Z-1.000000 F800.0(Penetrate)
G01 X159.356731 Y157.341700 Z-1.000000 F2500.000000
G00 Z0.100000
M05
(End cutting path id: path9580)


(Start cutting path id: path9444)
(Change tool to Default tool)

G00 Z0.100000
G00 X179.319699 Y133.625272
M03 S35
G01 Z-1.000000 F800.0(Penetrate)
G01 X156.405663 Y133.640620 Z-1.000000 F2500.000000
G00 Z0.100000
M05
(End cutting path id: path9444)


(Start cutting path id: path9420)
(Change tool to Default tool)

G00 Z0.100000
G00 X160.683984 Y123.157530
M03 S35
G01 Z-1.000000 F800.0(Penetrate)
G01 X144.326189 Y139.537254 Z-1.000000 F2500.000000
G00 Z0.100000
M05
(End cutting path id: path9420)


(Start cutting path id: path9418)
(Change tool to Default tool)

G00 Z0.100000
G00 X160.061145 Y121.181125
M03 S35
G01 Z-1.000000 F800.0(Penetrate)
G01 X142.348950 Y138.917063 Z-1.000000 F2500.000000
G00 Z0.100000
M05
(End cutting path id: path9418)


(Start cutting path id: path9414)
(Change tool to Default tool)

G00 Z0.100000
G00 X159.346635 Y119.673570
M03 S35
G01 Z-1.000000 F800.0(Penetrate)
G01 X140.840440 Y138.204573 Z-1.000000 F2500.000000
G00 Z0.100000
M05
(End cutting path id: path9414)


(Start cutting path id: path9398)
(Change tool to Default tool)

G00 Z0.100000
G00 X145.918096 Y112.702854
M03 S35
G01 Z-1.000000 F800.0(Penetrate)
G01 X133.851741 Y124.785384 Z-1.000000 F2500.000000
G00 Z0.100000
M05
(End cutting path id: path9398)


(Start cutting path id: path9400)
(Change tool to Default tool)

G00 Z0.100000
G00 X148.918053 Y112.705434
M03 S35
G01 Z-1.000000 F800.0(Penetrate)
G01 X133.858340 Y127.785335 Z-1.000000 F2500.000000
G00 Z0.100000
M05
(End cutting path id: path9400)


(Start cutting path id: path9402)
(Change tool to Default tool)

G00 Z0.100000
G00 X149.295230 Y112.752833
M03 S35
G01 Z-1.000000 F800.0(Penetrate)
G01 X133.906244 Y128.162448 Z-1.000000 F2500.000000
G00 Z0.100000
M05
(End cutting path id: path9402)


(Start cutting path id: path9404)
(Change tool to Default tool)

G00 Z0.100000
G00 X152.866067 Y113.762236
M03 S35
G01 Z-1.000000 F800.0(Penetrate)
G01 X134.920407 Y131.731929 Z-1.000000 F2500.000000
G00 Z0.100000
M05
(End cutting path id: path9404)


(Start cutting path id: path9406)
(Change tool to Default tool)

G00 Z0.100000
G00 X153.632712 Y114.126073
M03 S35
G01 Z-1.000000 F800.0(Penetrate)
G01 X135.285294 Y132.498086 Z-1.000000 F2500.000000
G00 Z0.100000
M05
(End cutting path id: path9406)


(Start cutting path id: path9408)
(Change tool to Default tool)

G00 Z0.100000
G00 X154.490943 Y114.606468
M03 S35
G01 Z-1.000000 F800.0(Penetrate)
G01 X135.766860 Y133.355673 Z-1.000000 F2500.000000
G00 Z0.100000
M05
(End cutting path id: path9408)


(Start cutting path id: path9410)
(Change tool to Default tool)

G00 Z0.100000
G00 X155.202163 Y115.069963
M03 S35
G01 Z-1.000000 F800.0(Penetrate)
G01 X136.231285 Y134.066272 Z-1.000000 F2500.000000
G00 Z0.100000
M05
(End cutting path id: path9410)


(Start cutting path id: path9412)
(Change tool to Default tool)

G00 Z0.100000
G00 X157.213901 Y116.784298
M03 S35
G01 Z-1.000000 F800.0(Penetrate)
G01 X137.948313 Y136.075712 Z-1.000000 F2500.000000
G00 Z0.100000
M05
(End cutting path id: path9412)


(Start cutting path id: path9416)
(Change tool to Default tool)

G00 Z0.100000
G00 X159.079686 Y119.210959
M03 S35
G01 Z-1.000000 F800.0(Penetrate)
G01 X140.377494 Y137.938243 Z-1.000000 F2500.000000
G00 Z0.100000
M05
(End cutting path id: path9416)


(Start cutting path id: path9242)
(Change tool to Default tool)

G00 Z0.100000
G00 X160.972475 Y104.586715
M03 S35
G01 Z-1.000000 F800.0(Penetrate)
G01 X139.563392 Y116.966389 Z-1.000000 F2500.000000
G00 Z0.100000
M05
(End cutting path id: path9242)


(Start cutting path id: path9244)
(Change tool to Default tool)

G00 Z0.100000
G00 X160.766501 Y103.152149
M03 S35
G01 Z-1.000000 F800.0(Penetrate)
G01 X138.422792 Y116.072249 Z-1.000000 F2500.000000
G00 Z0.100000
M05
(End cutting path id: path9244)


(Start cutting path id: path9240)
(Change tool to Default tool)

G00 Z0.100000
G00 X160.302983 Y101.420553
M03 S35
G01 Z-1.000000 F800.0(Penetrate)
G01 X137.153237 Y114.806732 Z-1.000000 F2500.000000
G00 Z0.100000
M05
(End cutting path id: path9240)


(Start cutting path id: path9226)
(Change tool to Default tool)

G00 Z0.100000
G00 X151.793170 Y92.899719
M03 S35
G01 Z-1.000000 F800.0(Penetrate)
G01 X134.013333 Y103.180817 Z-1.000000 F2500.000000
G00 Z0.100000
M05
(End cutting path id: path9226)


(Start cutting path id: path9228)
(Change tool to Default tool)

G00 Z0.100000
G00 X153.553842 Y93.641558
M03 S35
G01 Z-1.000000 F800.0(Penetrate)
G01 X133.777959 Y105.076810 Z-1.000000 F2500.000000
G00 Z0.100000
M05
(End cutting path id: path9228)


(Start cutting path id: path9230)
(Change tool to Default tool)

G00 Z0.100000
G00 X153.757880 Y93.747064
M03 S35
G01 Z-1.000000 F800.0(Penetrate)
G01 X133.767637 Y105.306303 Z-1.000000 F2500.000000
G00 Z0.100000
M05
(End cutting path id: path9230)


(Start cutting path id: path9232)
(Change tool to Default tool)

G00 Z0.100000
G00 X156.106651 Y95.318150
M03 S35
G01 Z-1.000000 F800.0(Penetrate)
G01 X133.957632 Y108.125683 Z-1.000000 F2500.000000
G00 Z0.100000
M05
(End cutting path id: path9232)


(Start cutting path id: path9234)
(Change tool to Default tool)

G00 Z0.100000
G00 X157.045054 Y96.174931
M03 S35
G01 Z-1.000000 F800.0(Penetrate)
G01 X134.232101 Y109.366393 Z-1.000000 F2500.000000
G00 Z0.100000
M05
(End cutting path id: path9234)


(Start cutting path id: path9238)
(Change tool to Default tool)

G00 Z0.100000
G00 X158.247036 Y97.553475
M03 S35
G01 Z-1.000000 F800.0(Penetrate)
G01 X134.827279 Y111.095811 Z-1.000000 F2500.000000
G00 Z0.100000
M05
(End cutting path id: path9238)


(Start cutting path id: path9236)
(Change tool to Default tool)

G00 Z0.100000
G00 X159.019898 Y98.683846
M03 S35
G01 Z-1.000000 F800.0(Penetrate)
G01 X135.421420 Y112.329513 Z-1.000000 F2500.000000
G00 Z0.100000
M05
(End cutting path id: path9236)


(Start cutting path id: path9424)
(Change tool to Default tool)

G00 Z0.100000
G00 X174.517635 Y114.344957
M03 S35
G01 Z-1.000000 F800.0(Penetrate)
G01 X161.181894 Y114.353889 Z-1.000000 F2500.000000
G00 Z0.100000
M05
(End cutting path id: path9424)


(Start cutting path id: path9426)
(Change tool to Default tool)

G00 Z0.100000
G00 X178.631560 Y117.886275
M03 S35
G01 Z-1.000000 F800.0(Penetrate)
G01 X157.072717 Y117.900715 Z-1.000000 F2500.000000
G00 Z0.100000
M05
(End cutting path id: path9426)


(Start cutting path id: path9428)
(Change tool to Default tool)

G00 Z0.100000
G00 X178.702224 Y117.978213
M03 S35
G01 Z-1.000000 F800.0(Penetrate)
G01 X157.002176 Y117.992748 Z-1.000000 F2500.000000
G00 Z0.100000
M05
(End cutting path id: path9428)


(Start cutting path id: path9430)
(Change tool to Default tool)

G00 Z0.100000
G00 X179.866045 Y119.784965
M03 S35
G01 Z-1.000000 F800.0(Penetrate)
G01 X155.840777 Y119.801057 Z-1.000000 F2500.000000
G00 Z0.100000
M05
(End cutting path id: path9430)


(Start cutting path id: path9432)
(Change tool to Default tool)

G00 Z0.100000
G00 X180.167805 Y120.380737
M03 S35
G01 Z-1.000000 F800.0(Penetrate)
G01 X155.539815 Y120.397233 Z-1.000000 F2500.000000
G00 Z0.100000
M05
(End cutting path id: path9432)


(Start cutting path id: path9434)
(Change tool to Default tool)

G00 Z0.100000
G00 X180.892529 Y122.243683
M03 S35
G01 Z-1.000000 F800.0(Penetrate)
G01 X154.817587 Y122.261148 Z-1.000000 F2500.000000
G00 Z0.100000
M05
(End cutting path id: path9434)


(Start cutting path id: path9436)
(Change tool to Default tool)

G00 Z0.100000
G00 X181.214573 Y123.505744
M03 S35
G01 Z-1.000000 F800.0(Penetrate)
G01 X154.497234 Y123.523640 Z-1.000000 F2500.000000
G00 Z0.100000
M05
(End cutting path id: path9436)


(Start cutting path id: path9438)
(Change tool to Default tool)

G00 Z0.100000
G00 X181.282027 Y123.858734
M03 S35
G01 Z-1.000000 F800.0(Penetrate)
G01 X154.430253 Y123.876719 Z-1.000000 F2500.000000
G00 Z0.100000
M05
(End cutting path id: path9438)


(Start cutting path id: path9440)
(Change tool to Default tool)

G00 Z0.100000
G00 X181.491884 Y126.274233
M03 S35
G01 Z-1.000000 F800.0(Penetrate)
G01 X154.223632 Y126.292497 Z-1.000000 F2500.000000
G00 Z0.100000
M05
(End cutting path id: path9440)


(Start cutting path id: path9442)
(Change tool to Default tool)

G00 Z0.100000
G00 X181.471951 Y126.979521
M03 S35
G01 Z-1.000000 F800.0(Penetrate)
G01 X154.244510 Y126.997758 Z-1.000000 F2500.000000
G00 Z0.100000
M05
(End cutting path id: path9442)


(Start cutting path id: path9592)
(Change tool to Default tool)

G00 Z0.100000
G00 X186.385509 Y133.183586
M03 S35
G01 Z-1.000000 F800.0(Penetrate)
G01 X174.824258 Y144.760335 Z-1.000000 F2500.000000
G00 Z0.100000
M05
(End cutting path id: path9592)


(Start cutting path id: path9594)
(Change tool to Default tool)

G00 Z0.100000
G00 X189.011216 Y133.062664
M03 S35
G01 Z-1.000000 F800.0(Penetrate)
G01 X174.706854 Y147.386201 Z-1.000000 F2500.000000
G00 Z0.100000
M05
(End cutting path id: path9594)


(Start cutting path id: path9596)
(Change tool to Default tool)

G00 Z0.100000
G00 X191.222108 Y133.357113
M03 S35
G01 Z-1.000000 F800.0(Penetrate)
G01 X175.004265 Y149.596697 Z-1.000000 F2500.000000
G00 Z0.100000
M05
(End cutting path id: path9596)


(Start cutting path id: path9800)
(Change tool to Default tool)

G00 Z0.100000
G00 X196.509629 Y156.217921
M03 S35
G01 Z-1.000000 F800.0(Penetrate)
G01 X180.148596 Y156.228880 Z-1.000000 F2500.000000
G00 Z0.100000
M05
(End cutting path id: path9800)


(Start cutting path id: path9802)
(Change tool to Default tool)

G00 Z0.100000
G00 X198.451803 Y157.989067
M03 S35
G01 Z-1.000000 F800.0(Penetrate)
G01 X178.208797 Y158.002625 Z-1.000000 F2500.000000
G00 Z0.100000
M05
(End cutting path id: path9802)


(Start cutting path id: path9804)
(Change tool to Default tool)

G00 Z0.100000
G00 X199.806911 Y159.760605
M03 S35
G01 Z-1.000000 F800.0(Penetrate)
G01 X176.856063 Y159.775978 Z-1.000000 F2500.000000
G00 Z0.100000
M05
(End cutting path id: path9804)


(Start cutting path id: path9806)
(Change tool to Default tool)

G00 Z0.100000
G00 X200.768241 Y161.532407
M03 S35
G01 Z-1.000000 F800.0(Penetrate)
G01 X175.897107 Y161.549066 Z-1.000000 F2500.000000
G00 Z0.100000
M05
(End cutting path id: path9806)


(Start cutting path id: path9808)
(Change tool to Default tool)

G00 Z0.100000
G00 X201.422688 Y163.304415
M03 S35
G01 Z-1.000000 F800.0(Penetrate)
G01 X175.245035 Y163.321949 Z-1.000000 F2500.000000
G00 Z0.100000
M05
(End cutting path id: path9808)


(Start cutting path id: path9810)
(Change tool to Default tool)

G00 Z0.100000
G00 X201.814995 Y165.076598
M03 S35
G01 Z-1.000000 F800.0(Penetrate)
G01 X174.855102 Y165.094656 Z-1.000000 F2500.000000
G00 Z0.100000
M05
(End cutting path id: path9810)


(Start cutting path id: path9812)
(Change tool to Default tool)

G00 Z0.100000
G00 X201.967703 Y166.848942
M03 S35
G01 Z-1.000000 F800.0(Penetrate)
G01 X174.704768 Y166.867203 Z-1.000000 F2500.000000
G00 Z0.100000
M05
(End cutting path id: path9812)


(Start cutting path id: path9816)
(Change tool to Default tool)

G00 Z0.100000
G00 X201.574322 Y170.394098
M03 S35
G01 Z-1.000000 F800.0(Penetrate)
G01 X175.102898 Y170.411828 Z-1.000000 F2500.000000
G00 Z0.100000
M05
(End cutting path id: path9816)


(Start cutting path id: path9814)
(Change tool to Default tool)

G00 Z0.100000
G00 X201.888880 Y168.621441
M03 S35
G01 Z-1.000000 F800.0(Penetrate)
G01 X174.785965 Y168.639594 Z-1.000000 F2500.000000
G00 Z0.100000
M05
(End cutting path id: path9814)


(Start cutting path id: path9642)
(Change tool to Default tool)

G00 Z0.100000
G00 X207.721876 Y160.259314
M03 S35
G01 Z-1.000000 F800.0(Penetrate)
G01 X195.181885 Y147.736111 Z-1.000000 F2500.000000
G00 Z0.100000
M05
(End cutting path id: path9642)


(Start cutting path id: path9616)
(Change tool to Default tool)

G00 Z0.100000
G00 X201.916268 Y147.731600
M03 S35
G01 Z-1.000000 F800.0(Penetrate)
G01 X189.393065 Y160.271591 Z-1.000000 F2500.000000
G00 Z0.100000
M05
(End cutting path id: path9616)


(Start cutting path id: path9826)
(Change tool to Default tool)

G00 Z0.100000
G00 X206.850499 Y153.621179
M03 S35
G01 Z-1.000000 F800.0(Penetrate)
G01 X195.289248 Y165.197928 Z-1.000000 F2500.000000
G00 Z0.100000
M05
(End cutting path id: path9826)


(Start cutting path id: path9640)
(Change tool to Default tool)

G00 Z0.100000
G00 X210.196392 Y160.225571
M03 S35
G01 Z-1.000000 F800.0(Penetrate)
G01 X195.212313 Y145.261552 Z-1.000000 F2500.000000
G00 Z0.100000
M05
(End cutting path id: path9640)


(Start cutting path id: path9612)
(Change tool to Default tool)

G00 Z0.100000
G00 X201.489988 Y143.141841
M03 S35
G01 Z-1.000000 F800.0(Penetrate)
G01 X184.802762 Y159.851460 Z-1.000000 F2500.000000
G00 Z0.100000
M05
(End cutting path id: path9612)


(Start cutting path id: path9614)
(Change tool to Default tool)

G00 Z0.100000
G00 X201.882525 Y145.257084
M03 S35
G01 Z-1.000000 F800.0(Penetrate)
G01 X186.918505 Y160.241163 Z-1.000000 F2500.000000
G00 Z0.100000
M05
(End cutting path id: path9614)


(Start cutting path id: path9610)
(Change tool to Default tool)

G00 Z0.100000
G00 X200.842845 Y141.281547
M03 S35
G01 Z-1.000000 F800.0(Penetrate)
G01 X182.941580 Y159.206809 Z-1.000000 F2500.000000
G00 Z0.100000
M05
(End cutting path id: path9610)


(Start cutting path id: path9608)
(Change tool to Default tool)

G00 Z0.100000
G00 X199.990848 Y139.626381
M03 S35
G01 Z-1.000000 F800.0(Penetrate)
G01 X181.285273 Y158.357031 Z-1.000000 F2500.000000
G00 Z0.100000
M05
(End cutting path id: path9608)


(Start cutting path id: path9606)
(Change tool to Default tool)

G00 Z0.100000
G00 X198.959841 Y138.150510
M03 S35
G01 Z-1.000000 F800.0(Penetrate)
G01 X179.808023 Y157.328002 Z-1.000000 F2500.000000
G00 Z0.100000
M05
(End cutting path id: path9606)


(Start cutting path id: path9598)
(Change tool to Default tool)

G00 Z0.100000
G00 X193.154708 Y133.930228
M03 S35
G01 Z-1.000000 F800.0(Penetrate)
G01 X175.579968 Y151.528527 Z-1.000000 F2500.000000
G00 Z0.100000
M05
(End cutting path id: path9598)


(Start cutting path id: path9600)
(Change tool to Default tool)

G00 Z0.100000
G00 X194.870488 Y134.720430
M03 S35
G01 Z-1.000000 F800.0(Penetrate)
G01 X176.372468 Y153.243247 Z-1.000000 F2500.000000
G00 Z0.100000
M05
(End cutting path id: path9600)


(Start cutting path id: path9602)
(Change tool to Default tool)

G00 Z0.100000
G00 X196.401012 Y135.696159
M03 S35
G01 Z-1.000000 F800.0(Penetrate)
G01 X177.350246 Y154.772463 Z-1.000000 F2500.000000
G00 Z0.100000
M05
(End cutting path id: path9602)


(Start cutting path id: path9604)
(Change tool to Default tool)

G00 Z0.100000
G00 X197.762223 Y136.841407
M03 S35
G01 Z-1.000000 F800.0(Penetrate)
G01 X178.497316 Y156.132138 Z-1.000000 F2500.000000
G00 Z0.100000
M05
(End cutting path id: path9604)


(Start cutting path id: path9828)
(Change tool to Default tool)

G00 Z0.100000
G00 X209.476206 Y153.500257
M03 S35
G01 Z-1.000000 F800.0(Penetrate)
G01 X195.171844 Y167.823794 Z-1.000000 F2500.000000
G00 Z0.100000
M05
(End cutting path id: path9828)


(Start cutting path id: path9638)
(Change tool to Default tool)

G00 Z0.100000
G00 X212.311612 Y159.833035
M03 S35
G01 Z-1.000000 F800.0(Penetrate)
G01 X195.602016 Y143.145785 Z-1.000000 F2500.000000
G00 Z0.100000
M05
(End cutting path id: path9638)


(Start cutting path id: path9830)
(Change tool to Default tool)

G00 Z0.100000
G00 X211.687098 Y153.794707
M03 S35
G01 Z-1.000000 F800.0(Penetrate)
G01 X195.469255 Y170.034290 Z-1.000000 F2500.000000
G00 Z0.100000
M05
(End cutting path id: path9830)


(Start cutting path id: path9636)
(Change tool to Default tool)

G00 Z0.100000
G00 X214.171929 Y159.185891
M03 S35
G01 Z-1.000000 F800.0(Penetrate)
G01 X196.246667 Y141.284626 Z-1.000000 F2500.000000
G00 Z0.100000
M05
(End cutting path id: path9636)


(Start cutting path id: path9832)
(Change tool to Default tool)

G00 Z0.100000
G00 X213.619698 Y154.367821
M03 S35
G01 Z-1.000000 F800.0(Penetrate)
G01 X196.044957 Y171.966120 Z-1.000000 F2500.000000
G00 Z0.100000
M05
(End cutting path id: path9832)


(Start cutting path id: path9634)
(Change tool to Default tool)

G00 Z0.100000
G00 X215.827095 Y158.333895
M03 S35
G01 Z-1.000000 F800.0(Penetrate)
G01 X197.096445 Y139.628319 Z-1.000000 F2500.000000
G00 Z0.100000
M05
(End cutting path id: path9634)


(Start cutting path id: path9470)
(Change tool to Default tool)

G00 Z0.100000
G00 X217.628435 Y136.570527
M03 S35
G01 Z-1.000000 F800.0(Penetrate)
G01 X199.906073 Y136.582398 Z-1.000000 F2500.000000
G00 Z0.100000
M05
(End cutting path id: path9470)


(Start cutting path id: path9468)
(Change tool to Default tool)

G00 Z0.100000
G00 X219.354314 Y134.796925
M03 S35
G01 Z-1.000000 F800.0(Penetrate)
G01 X198.177819 Y134.811109 Z-1.000000 F2500.000000
G00 Z0.100000
M05
(End cutting path id: path9468)


(Start cutting path id: path9466)
(Change tool to Default tool)

G00 Z0.100000
G00 X220.572432 Y133.023663
M03 S35
G01 Z-1.000000 F800.0(Penetrate)
G01 X196.957326 Y133.039481 Z-1.000000 F2500.000000
G00 Z0.100000
M05
(End cutting path id: path9466)


(Start cutting path id: path9464)
(Change tool to Default tool)

G00 Z0.100000
G00 X221.430290 Y131.250643
M03 S35
G01 Z-1.000000 F800.0(Penetrate)
G01 X196.097094 Y131.267611 Z-1.000000 F2500.000000
G00 Z0.100000
M05
(End cutting path id: path9464)


(Start cutting path id: path9472)
(Change tool to Default tool)

G00 Z0.100000
G00 X218.298770 Y118.027566
M03 S35
G01 Z-1.000000 F800.0(Penetrate)
G01 X218.309729 Y134.388599 Z-1.000000 F2500.000000
G00 Z0.100000
M05
(End cutting path id: path9472)


(Start cutting path id: path9462)
(Change tool to Default tool)

G00 Z0.100000
G00 X221.998217 Y129.477816
M03 S35
G01 Z-1.000000 F800.0(Penetrate)
G01 X195.526793 Y129.495547 Z-1.000000 F2500.000000
G00 Z0.100000
M05
(End cutting path id: path9462)


(Start cutting path id: path9446)
(Change tool to Default tool)

G00 Z0.100000
G00 X216.933524 Y115.301640
M03 S35
G01 Z-1.000000 F800.0(Penetrate)
G01 X200.572491 Y115.312599 Z-1.000000 F2500.000000
G00 Z0.100000
M05
(End cutting path id: path9446)


(Start cutting path id: path9448)
(Change tool to Default tool)

G00 Z0.100000
G00 X218.875698 Y117.072785
M03 S35
G01 Z-1.000000 F800.0(Penetrate)
G01 X198.632691 Y117.086344 Z-1.000000 F2500.000000
G00 Z0.100000
M05
(End cutting path id: path9448)


(Start cutting path id: path9474)
(Change tool to Default tool)

G00 Z0.100000
G00 X220.069915 Y116.085392
M03 S35
G01 Z-1.000000 F800.0(Penetrate)
G01 X220.083474 Y136.328398 Z-1.000000 F2500.000000
G00 Z0.100000
M05
(End cutting path id: path9474)


(Start cutting path id: path9618)
(Change tool to Default tool)

G00 Z0.100000
G00 X222.269891 Y144.728555
M03 S35
G01 Z-1.000000 F800.0(Penetrate)
G01 X210.693142 Y133.167304 Z-1.000000 F2500.000000
G00 Z0.100000
M05
(End cutting path id: path9618)


(Start cutting path id: path9460)
(Change tool to Default tool)

G00 Z0.100000
G00 X222.312775 Y127.705159
M03 S35
G01 Z-1.000000 F800.0(Penetrate)
G01 X195.209860 Y127.723313 Z-1.000000 F2500.000000
G00 Z0.100000
M05
(End cutting path id: path9460)


(Start cutting path id: path9450)
(Change tool to Default tool)

G00 Z0.100000
G00 X220.230806 Y118.844324
M03 S35
G01 Z-1.000000 F800.0(Penetrate)
G01 X197.279958 Y118.859696 Z-1.000000 F2500.000000
G00 Z0.100000
M05
(End cutting path id: path9450)


(Start cutting path id: path9452)
(Change tool to Default tool)

G00 Z0.100000
G00 X221.192136 Y120.616126
M03 S35
G01 Z-1.000000 F800.0(Penetrate)
G01 X196.321002 Y120.632785 Z-1.000000 F2500.000000
G00 Z0.100000
M05
(End cutting path id: path9452)


(Start cutting path id: path9454)
(Change tool to Default tool)

G00 Z0.100000
G00 X221.846583 Y122.388134
M03 S35
G01 Z-1.000000 F800.0(Penetrate)
G01 X195.668930 Y122.405667 Z-1.000000 F2500.000000
G00 Z0.100000
M05
(End cutting path id: path9454)


(Start cutting path id: path9456)
(Change tool to Default tool)

G00 Z0.100000
G00 X222.238889 Y124.160317
M03 S35
G01 Z-1.000000 F800.0(Penetrate)
G01 X195.278997 Y124.178375 Z-1.000000 F2500.000000
G00 Z0.100000
M05
(End cutting path id: path9456)


(Start cutting path id: path9458)
(Change tool to Default tool)

G00 Z0.100000
G00 X222.391598 Y125.932661
M03 S35
G01 Z-1.000000 F800.0(Penetrate)
G01 X195.128663 Y125.950921 Z-1.000000 F2500.000000
G00 Z0.100000
M05
(End cutting path id: path9458)


(Start cutting path id: path9476)
(Change tool to Default tool)

G00 Z0.100000
G00 X221.841453 Y114.730284
M03 S35
G01 Z-1.000000 F800.0(Penetrate)
G01 X221.856826 Y137.681132 Z-1.000000 F2500.000000
G00 Z0.100000
M05
(End cutting path id: path9476)


(Start cutting path id: path9620)
(Change tool to Default tool)

G00 Z0.100000
G00 X222.390812 Y147.354262
M03 S35
G01 Z-1.000000 F800.0(Penetrate)
G01 X208.067275 Y133.049900 Z-1.000000 F2500.000000
G00 Z0.100000
M05
(End cutting path id: path9620)


(Start cutting path id: path9622)
(Change tool to Default tool)

G00 Z0.100000
G00 X222.096363 Y149.565154
M03 S35
G01 Z-1.000000 F800.0(Penetrate)
G01 X205.856779 Y133.347311 Z-1.000000 F2500.000000
G00 Z0.100000
M05
(End cutting path id: path9622)


(Start cutting path id: path9834)
(Change tool to Default tool)

G00 Z0.100000
G00 X215.335478 Y155.158023
M03 S35
G01 Z-1.000000 F800.0(Penetrate)
G01 X196.837458 Y173.680840 Z-1.000000 F2500.000000
G00 Z0.100000
M05
(End cutting path id: path9834)


(Start cutting path id: path9850)
(Change tool to Default tool)

G00 Z0.100000
G00 X222.381258 Y168.169194
M03 S35
G01 Z-1.000000 F800.0(Penetrate)
G01 X209.858055 Y180.709184 Z-1.000000 F2500.000000
G00 Z0.100000
M05
(End cutting path id: path9850)


(Start cutting path id: path10002)
(Change tool to Default tool)

G00 Z0.100000
G00 X222.297287 Y185.631138
M03 S35
G01 Z-1.000000 F800.0(Penetrate)
G01 X210.720538 Y174.069887 Z-1.000000 F2500.000000
G00 Z0.100000
M05
(End cutting path id: path10002)


(Start cutting path id: path9848)
(Change tool to Default tool)

G00 Z0.100000
G00 X222.347515 Y165.694677
M03 S35
G01 Z-1.000000 F800.0(Penetrate)
G01 X207.383495 Y180.678756 Z-1.000000 F2500.000000
G00 Z0.100000
M05
(End cutting path id: path9848)


(Start cutting path id: path10004)
(Change tool to Default tool)

G00 Z0.100000
G00 X222.418209 Y188.256845
M03 S35
G01 Z-1.000000 F800.0(Penetrate)
G01 X208.094672 Y173.952483 Z-1.000000 F2500.000000
G00 Z0.100000
M05
(End cutting path id: path10004)


(Start cutting path id: path9846)
(Change tool to Default tool)

G00 Z0.100000
G00 X221.954978 Y163.579435
M03 S35
G01 Z-1.000000 F800.0(Penetrate)
G01 X205.267752 Y180.289053 Z-1.000000 F2500.000000
G00 Z0.100000
M05
(End cutting path id: path9846)


(Start cutting path id: path10006)
(Change tool to Default tool)

G00 Z0.100000
G00 X222.123760 Y190.467737
M03 S35
G01 Z-1.000000 F800.0(Penetrate)
G01 X205.884176 Y174.249894 Z-1.000000 F2500.000000
G00 Z0.100000
M05
(End cutting path id: path10006)


(Start cutting path id: path9844)
(Change tool to Default tool)

G00 Z0.100000
G00 X221.307835 Y161.719141
M03 S35
G01 Z-1.000000 F800.0(Penetrate)
G01 X203.406570 Y179.644402 Z-1.000000 F2500.000000
G00 Z0.100000
M05
(End cutting path id: path9844)


(Start cutting path id: path10026)
(Change tool to Default tool)

G00 Z0.100000
G00 X207.749273 Y201.161897
M03 S35
G01 Z-1.000000 F800.0(Penetrate)
G01 X195.209282 Y188.638694 Z-1.000000 F2500.000000
G00 Z0.100000
M05
(End cutting path id: path10026)


(Start cutting path id: path10024)
(Change tool to Default tool)

G00 Z0.100000
G00 X210.223789 Y201.128154
M03 S35
G01 Z-1.000000 F800.0(Penetrate)
G01 X195.239710 Y186.164135 Z-1.000000 F2500.000000
G00 Z0.100000
M05
(End cutting path id: path10024)


(Start cutting path id: path10022)
(Change tool to Default tool)

G00 Z0.100000
G00 X212.339009 Y200.735618
M03 S35
G01 Z-1.000000 F800.0(Penetrate)
G01 X195.629413 Y184.048368 Z-1.000000 F2500.000000
G00 Z0.100000
M05
(End cutting path id: path10022)


(Start cutting path id: path10020)
(Change tool to Default tool)

G00 Z0.100000
G00 X214.199326 Y200.088474
M03 S35
G01 Z-1.000000 F800.0(Penetrate)
G01 X196.274064 Y182.187209 Z-1.000000 F2500.000000
G00 Z0.100000
M05
(End cutting path id: path10020)


(Start cutting path id: path10018)
(Change tool to Default tool)

G00 Z0.100000
G00 X215.854492 Y199.236478
M03 S35
G01 Z-1.000000 F800.0(Penetrate)
G01 X197.123842 Y180.530902 Z-1.000000 F2500.000000
G00 Z0.100000
M05
(End cutting path id: path10018)


(Start cutting path id: path10016)
(Change tool to Default tool)

G00 Z0.100000
G00 X217.330363 Y198.205471
M03 S35
G01 Z-1.000000 F800.0(Penetrate)
G01 X198.152871 Y179.053652 Z-1.000000 F2500.000000
G00 Z0.100000
M05
(End cutting path id: path10016)


(Start cutting path id: path10010)
(Change tool to Default tool)

G00 Z0.100000
G00 X220.760443 Y194.116117
M03 S35
G01 Z-1.000000 F800.0(Penetrate)
G01 X202.237626 Y175.618097 Z-1.000000 F2500.000000
G00 Z0.100000
M05
(End cutting path id: path10010)


(Start cutting path id: path9632)
(Change tool to Default tool)

G00 Z0.100000
G00 X217.302966 Y157.302888
M03 S35
G01 Z-1.000000 F800.0(Penetrate)
G01 X198.125474 Y138.151069 Z-1.000000 F2500.000000
G00 Z0.100000
M05
(End cutting path id: path9632)


(Start cutting path id: path9836)
(Change tool to Default tool)

G00 Z0.100000
G00 X216.866002 Y156.133752
M03 S35
G01 Z-1.000000 F800.0(Penetrate)
G01 X197.815236 Y175.210056 Z-1.000000 F2500.000000
G00 Z0.100000
M05
(End cutting path id: path9836)


(Start cutting path id: path9838)
(Change tool to Default tool)

G00 Z0.100000
G00 X218.227213 Y157.279000
M03 S35
G01 Z-1.000000 F800.0(Penetrate)
G01 X198.962306 Y176.569731 Z-1.000000 F2500.000000
G00 Z0.100000
M05
(End cutting path id: path9838)


(Start cutting path id: path9842)
(Change tool to Default tool)

G00 Z0.100000
G00 X220.455838 Y160.063974
M03 S35
G01 Z-1.000000 F800.0(Penetrate)
G01 X201.750263 Y178.794624 Z-1.000000 F2500.000000
G00 Z0.100000
M05
(End cutting path id: path9842)


(Start cutting path id: path10012)
(Change tool to Default tool)

G00 Z0.100000
G00 X219.784714 Y195.646642
M03 S35
G01 Z-1.000000 F800.0(Penetrate)
G01 X200.708410 Y176.595875 Z-1.000000 F2500.000000
G00 Z0.100000
M05
(End cutting path id: path10012)


(Start cutting path id: path9840)
(Change tool to Default tool)

G00 Z0.100000
G00 X219.424831 Y158.588103
M03 S35
G01 Z-1.000000 F800.0(Penetrate)
G01 X200.273013 Y177.765595 Z-1.000000 F2500.000000
G00 Z0.100000
M05
(End cutting path id: path9840)


(Start cutting path id: path10014)
(Change tool to Default tool)

G00 Z0.100000
G00 X218.639466 Y197.007852
M03 S35
G01 Z-1.000000 F800.0(Penetrate)
G01 X199.348735 Y177.742945 Z-1.000000 F2500.000000
G00 Z0.100000
M05
(End cutting path id: path10014)


(Start cutting path id: path9630)
(Change tool to Default tool)

G00 Z0.100000
G00 X218.612070 Y156.105269
M03 S35
G01 Z-1.000000 F800.0(Penetrate)
G01 X199.321338 Y136.840362 Z-1.000000 F2500.000000
G00 Z0.100000
M05
(End cutting path id: path9630)


(Start cutting path id: path9624)
(Change tool to Default tool)

G00 Z0.100000
G00 X221.523248 Y151.497754
M03 S35
G01 Z-1.000000 F800.0(Penetrate)
G01 X203.924949 Y133.923014 Z-1.000000 F2500.000000
G00 Z0.100000
M05
(End cutting path id: path9624)


(Start cutting path id: path9626)
(Change tool to Default tool)

G00 Z0.100000
G00 X220.733046 Y153.213534
M03 S35
G01 Z-1.000000 F800.0(Penetrate)
G01 X202.210229 Y134.715514 Z-1.000000 F2500.000000
G00 Z0.100000
M05
(End cutting path id: path9626)


(Start cutting path id: path9628)
(Change tool to Default tool)

G00 Z0.100000
G00 X219.757317 Y154.744059
M03 S35
G01 Z-1.000000 F800.0(Penetrate)
G01 X200.681013 Y135.693292 Z-1.000000 F2500.000000
G00 Z0.100000
M05
(End cutting path id: path9628)


(Start cutting path id: path9852)
(Change tool to Default tool)

G00 Z0.100000
G00 X223.874819 Y154.568737
M03 S35
G01 Z-1.000000 F800.0(Penetrate)
G01 X215.703793 Y168.743280 Z-1.000000 F2500.000000
G00 Z0.100000
M05
(End cutting path id: path9852)


(Start cutting path id: path9854)
(Change tool to Default tool)

G00 Z0.100000
G00 X226.379752 Y153.772345
M03 S35
G01 Z-1.000000 F800.0(Penetrate)
G01 X216.269991 Y171.310062 Z-1.000000 F2500.000000
G00 Z0.100000
M05
(End cutting path id: path9854)


(Start cutting path id: path9856)
(Change tool to Default tool)

G00 Z0.100000
G00 X228.591503 Y153.484545
M03 S35
G01 Z-1.000000 F800.0(Penetrate)
G01 X217.129392 Y173.368251 Z-1.000000 F2500.000000
G00 Z0.100000
M05
(End cutting path id: path9856)


(Start cutting path id: path9858)
(Change tool to Default tool)

G00 Z0.100000
G00 X230.606583 Y153.537914
M03 S35
G01 Z-1.000000 F800.0(Penetrate)
G01 X218.185466 Y175.085271 Z-1.000000 F2500.000000
G00 Z0.100000
M05
(End cutting path id: path9858)


(Start cutting path id: path9860)
(Change tool to Default tool)

G00 Z0.100000
G00 X232.468433 Y153.857139
M03 S35
G01 Z-1.000000 F800.0(Penetrate)
G01 X219.394792 Y176.536435 Z-1.000000 F2500.000000
G00 Z0.100000
M05
(End cutting path id: path9860)


(Start cutting path id: path9876)
(Change tool to Default tool)

G00 Z0.100000
G00 X242.641653 Y164.601369
M03 S35
G01 Z-1.000000 F800.0(Penetrate)
G01 X233.790753 Y179.955317 Z-1.000000 F2500.000000
G00 Z0.100000
M05
(End cutting path id: path9876)


(Start cutting path id: path10028)
(Change tool to Default tool)

G00 Z0.100000
G00 X251.325779 Y174.003559
M03 S35
G01 Z-1.000000 F800.0(Penetrate)
G01 X237.162194 Y182.193567 Z-1.000000 F2500.000000
G00 Z0.100000
M05
(End cutting path id: path10028)


(Start cutting path id: path10030)
(Change tool to Default tool)

G00 Z0.100000
G00 X253.893317 Y174.566341
M03 S35
G01 Z-1.000000 F800.0(Penetrate)
