%
(Header)
(Generated by gcodetools from Inkscape.)
(Using default header. To add your own header create file "header" in the output dir.)
M3
(Header end.)
G21 (All units in mm)

(Start cutting path id: path14334)
(Change tool to Default tool)
M05
G00 Z0.100000
G00 X93.987801 Y132.280466
M03 S35
G01 Z-1.000000 F800.0(Penetrate)
G02 X103.011512 Y128.480344 Z-1.000000 I-18.754408 J-57.147769 F2500.000000
G02 X111.299088 Y123.266479 Z-1.000000 I-27.778119 J-53.347647
G00 Z0.100000
M05
(End cutting path id: path14334)


(Start cutting path id: path14332)
(Change tool to Default tool)

G00 Z0.100000
G00 X132.822857 Y92.483493
M03 S35
G01 Z-1.000000 F800.0(Penetrate)
G01 X111.299088 Y123.266464 Z-1.000000 F2500.000000
G00 Z0.100000
M05
(End cutting path id: path14332)


(Start cutting path id: path14330)
(Change tool to Default tool)

G00 Z0.100000
G00 X135.346496 Y73.129828
M03 S35
G01 Z-1.000000 F800.0(Penetrate)
G02 X134.764552 Y66.551434 Z-1.000000 I-60.113093 J2.002841 F2500.000000
G02 X133.464897 Y60.076495 Z-1.000000 I-59.531149 J8.581236
G00 Z0.100000
M05
(End cutting path id: path14330)


(Start cutting path id: path14328)
(Change tool to Default tool)

G00 Z0.100000
G00 X135.346496 Y73.129828
M03 S35
G01 Z-1.000000 F800.0(Penetrate)
G01 X93.987801 Y132.280466 Z-1.000000 F2500.000000
G00 Z0.100000
M05
(End cutting path id: path14328)


(Start cutting path id: path14326)
(Change tool to Default tool)

G00 Z0.100000
G00 X70.031428 Y135.053761
M03 S35
G01 Z-1.000000 F800.0(Penetrate)
G02 X75.557955 Y135.278258 Z-1.000000 I5.201920 J-59.921076 F2500.000000
G02 X81.081737 Y134.994122 Z-1.000000 I-0.324607 J-60.145573
G00 Z0.100000
M05
(End cutting path id: path14326)


(Start cutting path id: path14324)
(Change tool to Default tool)

G00 Z0.100000
G00 X133.464897 Y60.076495
M03 S35
G01 Z-1.000000 F800.0(Penetrate)
G01 X81.081737 Y134.994122 Z-1.000000 F2500.000000
G00 Z0.100000
M05
(End cutting path id: path14324)


(Start cutting path id: path14322)
(Change tool to Default tool)

G00 Z0.100000
G00 X129.727558 Y49.677193
M03 S35
G01 Z-1.000000 F800.0(Penetrate)
G02 X127.429166 Y45.246276 Z-1.000000 I-54.494167 J25.455474 F2500.000000
G02 X124.771285 Y41.021197 Z-1.000000 I-52.195775 J29.886391
G00 Z0.100000
M05
(End cutting path id: path14322)


(Start cutting path id: path14320)
(Change tool to Default tool)

G00 Z0.100000
G00 X129.727558 Y49.677193
M03 S35
G01 Z-1.000000 F800.0(Penetrate)
G01 X70.031428 Y135.053761 Z-1.000000 F2500.000000
G00 Z0.100000
M05
(End cutting path id: path14320)


(Start cutting path id: path14318)
(Change tool to Default tool)

G00 Z0.100000
G00 X51.322588 Y130.322075
M03 S35
G01 Z-1.000000 F800.0(Penetrate)
G02 X55.701765 Y132.019513 Z-1.000000 I23.910837 J-55.189376 F2500.000000
G02 X60.200038 Y133.370080 Z-1.000000 I19.531661 J-56.886814
G00 Z0.100000
M05
(End cutting path id: path14318)


(Start cutting path id: path14316)
(Change tool to Default tool)

G00 Z0.100000
G00 X124.771285 Y41.021197
M03 S35
G01 Z-1.000000 F800.0(Penetrate)
G01 X60.200053 Y133.370080 Z-1.000000 F2500.000000
G00 Z0.100000
M05
(End cutting path id: path14316)


(Start cutting path id: path14314)
(Change tool to Default tool)

G00 Z0.100000
G00 X118.861071 Y33.729525
M03 S35
G01 Z-1.000000 F800.0(Penetrate)
G02 X115.606299 Y30.549903 Z-1.000000 I-43.627676 J41.403154 F2500.000000
G02 X112.120473 Y27.625430 Z-1.000000 I-40.372905 J44.582776
G00 Z0.100000
M05
(End cutting path id: path14314)


(Start cutting path id: path14312)
(Change tool to Default tool)

G00 Z0.100000
G00 X118.861071 Y33.729525
M03 S35
G01 Z-1.000000 F800.0(Penetrate)
G01 X51.322603 Y130.322075 Z-1.000000 F2500.000000
G00 Z0.100000
M05
(End cutting path id: path14312)


(Start cutting path id: path14310)
(Change tool to Default tool)

G00 Z0.100000
G00 X36.011371 Y120.731241
M03 S35
G01 Z-1.000000 F800.0(Penetrate)
G02 X39.542863 Y123.545304 Z-1.000000 I39.222050 J-45.598532 F2500.000000
G02 X43.275523 Y126.086493 Z-1.000000 I35.690558 J-48.412596
G00 Z0.100000
M05
(End cutting path id: path14310)


(Start cutting path id: path14308)
(Change tool to Default tool)

G00 Z0.100000
G00 X112.120473 Y27.625430
M03 S35
G01 Z-1.000000 F800.0(Penetrate)
G01 X43.275538 Y126.086493 Z-1.000000 F2500.000000
G00 Z0.100000
M05
(End cutting path id: path14308)


(Start cutting path id: path14306)
(Change tool to Default tool)

G00 Z0.100000
G00 X104.597007 Y22.641019
M03 S35
G01 Z-1.000000 F800.0(Penetrate)
G02 X100.512723 Y20.556573 Z-1.000000 I-29.363578 J52.491672 F2500.000000
G02 X96.281510 Y18.789336 Z-1.000000 I-25.279294 J54.576118
G00 Z0.100000
M05
(End cutting path id: path14306)


(Start cutting path id: path14304)
(Change tool to Default tool)

G00 Z0.100000
G00 X104.597007 Y22.641034
M03 S35
G01 Z-1.000000 F800.0(Penetrate)
G01 X36.011371 Y120.731226 Z-1.000000 F2500.000000
G00 Z0.100000
M05
(End cutting path id: path14304)


(Start cutting path id: path14302)
(Change tool to Default tool)

G00 Z0.100000
G00 X23.928309 Y106.523477
M03 S35
G01 Z-1.000000 F800.0(Penetrate)
G02 X26.580397 Y110.494814 Z-1.000000 I51.305139 J-31.390732 F2500.000000
G02 X29.539190 Y114.243231 Z-1.000000 I48.653051 J-35.362070
G00 Z0.100000
M05
(End cutting path id: path14302)


(Start cutting path id: path14300)
(Change tool to Default tool)

G00 Z0.100000
G00 X96.281510 Y18.789336
M03 S35
G01 Z-1.000000 F800.0(Penetrate)
G01 X29.539205 Y114.243231 Z-1.000000 F2500.000000
G00 Z0.100000
M05
(End cutting path id: path14300)


(Start cutting path id: path14298)
(Change tool to Default tool)

G00 Z0.100000
G00 X87.104758 Y16.169428
M03 S35
G01 Z-1.000000 F800.0(Penetrate)
G02 X82.030735 Y15.371571 Z-1.000000 I-11.871333 J58.963266 F2500.000000
G02 X76.907141 Y15.009537 Z-1.000000 I-6.797310 J59.761124
G00 Z0.100000
M05
(End cutting path id: path14298)


(Start cutting path id: path14296)
(Change tool to Default tool)

G00 Z0.100000
G00 X87.104743 Y16.169413
M03 S35
G01 Z-1.000000 F800.0(Penetrate)
G01 X23.928309 Y106.523477 Z-1.000000 F2500.000000
G00 Z0.100000
M05
(End cutting path id: path14296)


(Start cutting path id: path14294)
(Change tool to Default tool)

G00 Z0.100000
G00 X16.115525 Y86.208438
M03 S35
G01 Z-1.000000 F800.0(Penetrate)
G02 X17.458007 Y91.853902 Z-1.000000 I59.117869 J-11.075783 F2500.000000
G02 X19.338278 Y97.343720 Z-1.000000 I57.775386 J-16.721247
G00 Z0.100000
M05
(End cutting path id: path14294)


(Start cutting path id: path14292)
(Change tool to Default tool)

G00 Z0.100000
G00 X76.907141 Y15.009537
M03 S35
G01 Z-1.000000 F800.0(Penetrate)
G01 X19.338278 Y97.343720 Z-1.000000 F2500.000000
G00 Z0.100000
M05
(End cutting path id: path14292)


(Start cutting path id: path14290)
(Change tool to Default tool)

G00 Z0.100000
G00 X65.342230 Y15.805127
M03 S35
G01 Z-1.000000 F800.0(Penetrate)
G02 X58.294163 Y17.420845 Z-1.000000 I9.891178 J59.327565 F2500.000000
G02 X51.490923 Y19.870682 Z-1.000000 I16.939245 J57.711847
G00 Z0.100000
M05
(End cutting path id: path14290)


(Start cutting path id: path14288)
(Change tool to Default tool)

G00 Z0.100000
G00 X65.342215 Y15.805127
M03 S35
G01 Z-1.000000 F800.0(Penetrate)
G01 X16.115525 Y86.208453 Z-1.000000 F2500.000000
G00 Z0.100000
M05
(End cutting path id: path14288)


(Start cutting path id: path14286)
(Change tool to Default tool)

G00 Z0.100000
G00 X25.941222 Y40.667090
M03 S35
G01 Z-1.000000 F800.0(Penetrate)
G02 X18.386918 Y55.483955 Z-1.000000 I49.292188 J34.465571 F2500.000000
G02 X15.179185 Y71.803191 Z-1.000000 I56.846493 J19.648706
G00 Z0.100000
M05
(End cutting path id: path14286)


(Start cutting path id: path14284)
(Change tool to Default tool)

G00 Z0.100000
G00 X51.490908 Y19.870682
M03 S35
G01 Z-1.000000 F800.0(Penetrate)
G01 X15.179185 Y71.803206 Z-1.000000 F2500.000000
G00 Z0.100000
M05
(End cutting path id: path14284)


(Start cutting path id: path14282)
(Change tool to Default tool)

G00 Z0.100000
G00 X25.941222 Y40.667120
M03 S35
G01 Z-1.000000 F800.0(Penetrate)
G01 X25.941222 Y40.667090 Z-1.000000 F2500.000000
G00 Z0.100000
M05
(End cutting path id: path14282)


(Footer)
M5
G00 X0.0000 Y0.0000
M2
(Using default footer. To add your own footer create file "footer" in the output dir.)
(end)
%