%
(Header)
(Generated by gcodetools from Inkscape.)
(Using default header. To add your own header create file "header" in the output dir.)
M3
(Header end.)
G21 (All units in mm)

(Start cutting path id: path15647)
(Change tool to Default tool)
M05
G00 Z0.100000
G00 X126.927351 Y44.904623
M03 S35
G01 Z-1.000000 F800.0(Penetrate)
G01 X135.081904 Y75.256479 Z-1.000000 F2500.000000
G00 Z0.100000
M05
(End cutting path id: path15647)


(Start cutting path id: path15645)
(Change tool to Default tool)

G00 Z0.100000
G00 X126.721927 Y44.554167
M03 S35
G01 Z-1.000000 F800.0(Penetrate)
G01 X135.079785 Y75.662709 Z-1.000000 F2500.000000
G00 Z0.100000
M05
(End cutting path id: path15645)


(Start cutting path id: path15643)
(Change tool to Default tool)

G00 Z0.100000
G00 X104.882974 Y22.983688
M03 S35
G01 Z-1.000000 F800.0(Penetrate)
G01 X126.991590 Y105.273629 Z-1.000000 F2500.000000
G00 Z0.100000
M05
(End cutting path id: path15643)


(Start cutting path id: path15641)
(Change tool to Default tool)

G00 Z0.100000
G00 X107.621705 Y24.654767
M03 S35
G01 Z-1.000000 F800.0(Penetrate)
G01 X128.524098 Y102.454997 Z-1.000000 F2500.000000
G00 Z0.100000
M05
(End cutting path id: path15641)


(Start cutting path id: path15639)
(Change tool to Default tool)

G00 Z0.100000
G00 X91.352531 Y17.281904
M03 S35
G01 Z-1.000000 F800.0(Penetrate)
G01 X118.140464 Y116.988616 Z-1.000000 F2500.000000
G00 Z0.100000
M05
(End cutting path id: path15639)


(Start cutting path id: path15637)
(Change tool to Default tool)

G00 Z0.100000
G00 X102.659914 Y21.768865
M03 S35
G01 Z-1.000000 F800.0(Penetrate)
G01 X125.676660 Y107.438986 Z-1.000000 F2500.000000
G00 Z0.100000
M05
(End cutting path id: path15637)


(Start cutting path id: path15635)
(Change tool to Default tool)

G00 Z0.100000
G00 X124.100072 Y40.497014
M03 S35
G01 Z-1.000000 F800.0(Penetrate)
G01 X134.844220 Y80.487546 Z-1.000000 F2500.000000
G00 Z0.100000
M05
(End cutting path id: path15635)


(Start cutting path id: path15633)
(Change tool to Default tool)

G00 Z0.100000
G00 X83.120980 Y15.557620
M03 S35
G01 Z-1.000000 F800.0(Penetrate)
G01 X111.881386 Y122.606052 Z-1.000000 F2500.000000
G00 Z0.100000
M05
(End cutting path id: path15633)


(Start cutting path id: path15631)
(Change tool to Default tool)

G00 Z0.100000
G00 X95.227683 Y18.524460
M03 S35
G01 Z-1.000000 F800.0(Penetrate)
G01 X120.871122 Y113.971269 Z-1.000000 F2500.000000
G00 Z0.100000
M05
(End cutting path id: path15631)


(Start cutting path id: path15629)
(Change tool to Default tool)

G00 Z0.100000
G00 X99.186062 Y20.103511
M03 S35
G01 Z-1.000000 F800.0(Penetrate)
G01 X123.505173 Y110.621060 Z-1.000000 F2500.000000
G00 Z0.100000
M05
(End cutting path id: path15629)


(Start cutting path id: path15627)
(Change tool to Default tool)

G00 Z0.100000
G00 X75.606931 Y15.001772
M03 S35
G01 Z-1.000000 F800.0(Penetrate)
G01 X105.657628 Y126.852787 Z-1.000000 F2500.000000
G00 Z0.100000
M05
(End cutting path id: path15627)


(Start cutting path id: path15625)
(Change tool to Default tool)

G00 Z0.100000
G00 X105.493127 Y23.338774
M03 S35
G01 Z-1.000000 F800.0(Penetrate)
G01 X127.341622 Y104.660563 Z-1.000000 F2500.000000
G00 Z0.100000
M05
(End cutting path id: path15625)


(Start cutting path id: path15623)
(Change tool to Default tool)

G00 Z0.100000
G00 X84.840592 Y15.819218
M03 S35
G01 Z-1.000000 F800.0(Penetrate)
G01 X113.238358 Y121.517875 Z-1.000000 F2500.000000
G00 Z0.100000
M05
(End cutting path id: path15623)


(Start cutting path id: path15621)
(Change tool to Default tool)

G00 Z0.100000
G00 X104.064207 Y22.522071
M03 S35
G01 Z-1.000000 F800.0(Penetrate)
G01 X126.514404 Y106.083415 Z-1.000000 F2500.000000
G00 Z0.100000
M05
(End cutting path id: path15621)


(Start cutting path id: path15619)
(Change tool to Default tool)

G00 Z0.100000
G00 X99.181189 Y20.101349
M03 S35
G01 Z-1.000000 F800.0(Penetrate)
G01 X123.502033 Y110.625378 Z-1.000000 F2500.000000
G00 Z0.100000
M05
(End cutting path id: path15619)


(Start cutting path id: path15617)
(Change tool to Default tool)

G00 Z0.100000
G00 X70.598201 Y15.154621
M03 S35
G01 Z-1.000000 F800.0(Penetrate)
G01 X101.246696 Y129.230699 Z-1.000000 F2500.000000
G00 Z0.100000
M05
(End cutting path id: path15617)


(Start cutting path id: path15615)
(Change tool to Default tool)

G00 Z0.100000
G00 X103.008570 Y21.951416
M03 S35
G01 Z-1.000000 F800.0(Penetrate)
G01 X125.886904 Y107.106280 Z-1.000000 F2500.000000
G00 Z0.100000
M05
(End cutting path id: path15615)


(Start cutting path id: path15613)
(Change tool to Default tool)

G00 Z0.100000
G00 X75.996849 Y15.007390
M03 S35
G01 Z-1.000000 F800.0(Penetrate)
G01 X105.992239 Y126.652515 Z-1.000000 F2500.000000
G00 Z0.100000
M05
(End cutting path id: path15613)


(Start cutting path id: path15611)
(Change tool to Default tool)

G00 Z0.100000
G00 X62.512965 Y16.294880
M03 S35
G01 Z-1.000000 F800.0(Penetrate)
G01 X93.678655 Y132.295960 Z-1.000000 F2500.000000
G00 Z0.100000
M05
(End cutting path id: path15611)


(Start cutting path id: path15609)
(Change tool to Default tool)

G00 Z0.100000
G00 X69.356245 Y15.257371
M03 S35
G01 Z-1.000000 F800.0(Penetrate)
G01 X100.120480 Y129.764216 Z-1.000000 F2500.000000
G00 Z0.100000
M05
(End cutting path id: path15609)


(Start cutting path id: path15607)
(Change tool to Default tool)

G00 Z0.100000
G00 X99.674281 Y20.321199
M03 S35
G01 Z-1.000000 F800.0(Penetrate)
G01 X123.818547 Y110.188006 Z-1.000000 F2500.000000
G00 Z0.100000
M05
(End cutting path id: path15607)


(Start cutting path id: path15605)
(Change tool to Default tool)

G00 Z0.100000
G00 X79.648203 Y15.182933
M03 S35
G01 Z-1.000000 F800.0(Penetrate)
G01 X109.063960 Y124.670707 Z-1.000000 F2500.000000
G00 Z0.100000
M05
(End cutting path id: path15605)


(Start cutting path id: path15603)
(Change tool to Default tool)

G00 Z0.100000
G00 X68.139131 Y15.383246
M03 S35
G01 Z-1.000000 F800.0(Penetrate)
G01 X99.004151 Y130.265232 Z-1.000000 F2500.000000
G00 Z0.100000
M05
(End cutting path id: path15603)


(Start cutting path id: path15601)
(Change tool to Default tool)

G00 Z0.100000
G00 X50.354480 Y20.250346
M03 S35
G01 Z-1.000000 F800.0(Penetrate)
G01 X81.174912 Y134.966433 Z-1.000000 F2500.000000
G00 Z0.100000
M05
(End cutting path id: path15601)


(Start cutting path id: path15599)
(Change tool to Default tool)

G00 Z0.100000
G00 X75.995571 Y15.007376
M03 S35
G01 Z-1.000000 F800.0(Penetrate)
G01 X105.991142 Y126.653178 Z-1.000000 F2500.000000
G00 Z0.100000
M05
(End cutting path id: path15599)


(Start cutting path id: path15597)
(Change tool to Default tool)

G00 Z0.100000
G00 X83.636333 Y15.630669
M03 S35
G01 Z-1.000000 F800.0(Penetrate)
G01 X112.290723 Y122.284550 Z-1.000000 F2500.000000
G00 Z0.100000
M05
(End cutting path id: path15597)


(Start cutting path id: path15595)
(Change tool to Default tool)

G00 Z0.100000
G00 X55.328058 Y18.283759
M03 S35
G01 Z-1.000000 F800.0(Penetrate)
G01 X86.464414 Y134.175663 Z-1.000000 F2500.000000
G00 Z0.100000
M05
(End cutting path id: path15595)


(Start cutting path id: path15593)
(Change tool to Default tool)

G00 Z0.100000
G00 X42.525881 Y24.476849
M03 S35
G01 Z-1.000000 F800.0(Penetrate)
G01 X72.282255 Y135.232372 Z-1.000000 F2500.000000
G00 Z0.100000
M05
(End cutting path id: path15593)


(Start cutting path id: path15591)
(Change tool to Default tool)

G00 Z0.100000
G00 X49.805826 Y20.499329
M03 S35
G01 Z-1.000000 F800.0(Penetrate)
G01 X80.575366 Y135.025928 Z-1.000000 F2500.000000
G00 Z0.100000
M05
(End cutting path id: path15591)


(Start cutting path id: path15589)
(Change tool to Default tool)

G00 Z0.100000
G00 X70.705166 Y15.146986
M03 S35
G01 Z-1.000000 F800.0(Penetrate)
G01 X101.343079 Y129.183705 Z-1.000000 F2500.000000
G00 Z0.100000
M05
(End cutting path id: path15589)


(Start cutting path id: path15587)
(Change tool to Default tool)

G00 Z0.100000
G00 X55.028868 Y18.387817
M03 S35
G01 Z-1.000000 F800.0(Penetrate)
G01 X86.153361 Y134.235552 Z-1.000000 F2500.000000
G00 Z0.100000
M05
(End cutting path id: path15587)


(Start cutting path id: path15585)
(Change tool to Default tool)

G00 Z0.100000
G00 X73.297003 Y15.020341
M03 S35
G01 Z-1.000000 F800.0(Penetrate)
G01 X103.649411 Y127.994343 Z-1.000000 F2500.000000
G00 Z0.100000
M05
(End cutting path id: path15585)


(Start cutting path id: path15583)
(Change tool to Default tool)

G00 Z0.100000
G00 X46.423401 Y22.185515
M03 S35
G01 Z-1.000000 F800.0(Penetrate)
G01 X76.803319 Y135.261913 Z-1.000000 F2500.000000
G00 Z0.100000
M05
(End cutting path id: path15583)


(Start cutting path id: path15581)
(Change tool to Default tool)

G00 Z0.100000
G00 X64.695023 Y15.876213
M03 S35
G01 Z-1.000000 F800.0(Penetrate)
G01 X95.776720 Y131.564693 Z-1.000000 F2500.000000
G00 Z0.100000
M05
(End cutting path id: path15581)


(Start cutting path id: path15579)
(Change tool to Default tool)

G00 Z0.100000
G00 X45.510383 Y22.687297
M03 S35
G01 Z-1.000000 F800.0(Penetrate)
G01 X75.761763 Y135.285256 Z-1.000000 F2500.000000
G00 Z0.100000
M05
(End cutting path id: path15579)


(Start cutting path id: path15577)
(Change tool to Default tool)

G00 Z0.100000
G00 X49.756731 Y20.521932
M03 S35
G01 Z-1.000000 F800.0(Penetrate)
G01 X80.521569 Y135.030972 Z-1.000000 F2500.000000
G00 Z0.100000
M05
(End cutting path id: path15577)


(Start cutting path id: path15575)
(Change tool to Default tool)

G00 Z0.100000
G00 X36.865764 Y28.579621
M03 S35
G01 Z-1.000000 F800.0(Penetrate)
G01 X65.328094 Y134.518641 Z-1.000000 F2500.000000
G00 Z0.100000
M05
(End cutting path id: path15575)


(Start cutting path id: path15573)
(Change tool to Default tool)

G00 Z0.100000
G00 X30.002996 Y35.161219
M03 S35
G01 Z-1.000000 F800.0(Penetrate)
G01 X56.090943 Y132.262554 Z-1.000000 F2500.000000
G00 Z0.100000
M05
(End cutting path id: path15573)


(Start cutting path id: path15571)
(Change tool to Default tool)

G00 Z0.100000
G00 X35.417775 Y29.802001
M03 S35
G01 Z-1.000000 F800.0(Penetrate)
G01 X63.462474 Y134.186529 Z-1.000000 F2500.000000
G00 Z0.100000
M05
(End cutting path id: path15571)


(Start cutting path id: path15569)
(Change tool to Default tool)

G00 Z0.100000
G00 X32.095528 Y32.926865
M03 S35
G01 Z-1.000000 F800.0(Penetrate)
G01 X59.021495 Y133.147391 Z-1.000000 F2500.000000
G00 Z0.100000
M05
(End cutting path id: path15569)


(Start cutting path id: path15567)
(Change tool to Default tool)

G00 Z0.100000
G00 X32.278445 Y32.742063
M03 S35
G01 Z-1.000000 F800.0(Penetrate)
G01 X59.272397 Y133.215639 Z-1.000000 F2500.000000
G00 Z0.100000
M05
(End cutting path id: path15567)


(Start cutting path id: path15565)
(Change tool to Default tool)

G00 Z0.100000
G00 X29.397182 Y35.852587
M03 S35
G01 Z-1.000000 F800.0(Penetrate)
G01 X55.220201 Y131.967893 Z-1.000000 F2500.000000
G00 Z0.100000
M05
(End cutting path id: path15565)


(Start cutting path id: path15563)
(Change tool to Default tool)

G00 Z0.100000
G00 X49.169901 Y20.796277
M03 S35
G01 Z-1.000000 F800.0(Penetrate)
G01 X79.876265 Y135.087656 Z-1.000000 F2500.000000
G00 Z0.100000
M05
(End cutting path id: path15563)


(Start cutting path id: path15561)
(Change tool to Default tool)

G00 Z0.100000
G00 X27.990467 Y37.544562
M03 S35
G01 Z-1.000000 F800.0(Penetrate)
G01 X53.154954 Y131.208725 Z-1.000000 F2500.000000
G00 Z0.100000
M05
(End cutting path id: path15561)


(Start cutting path id: path15559)
(Change tool to Default tool)

G00 Z0.100000
G00 X53.407793 Y18.982654
M03 S35
G01 Z-1.000000 F800.0(Penetrate)
G01 X84.452453 Y134.533228 Z-1.000000 F2500.000000
G00 Z0.100000
M05
(End cutting path id: path15559)


(Start cutting path id: path15557)
(Change tool to Default tool)

G00 Z0.100000
G00 X47.632041 Y21.552386
M03 S35
G01 Z-1.000000 F800.0(Penetrate)
G01 X78.166515 Y135.204087 Z-1.000000 F2500.000000
G00 Z0.100000
M05
(End cutting path id: path15557)


(Start cutting path id: path15555)
(Change tool to Default tool)

G00 Z0.100000
G00 X47.925411 Y21.403913
M03 S35
G01 Z-1.000000 F800.0(Penetrate)
G01 X78.494797 Y135.185522 Z-1.000000 F2500.000000
G00 Z0.100000
M05
(End cutting path id: path15555)


(Start cutting path id: path15553)
(Change tool to Default tool)

G00 Z0.100000
G00 X49.747892 Y20.526013
M03 S35
G01 Z-1.000000 F800.0(Penetrate)
G01 X80.511871 Y135.031865 Z-1.000000 F2500.000000
G00 Z0.100000
M05
(End cutting path id: path15553)


(Start cutting path id: path15551)
(Change tool to Default tool)

G00 Z0.100000
G00 X19.104419 Y52.773073
M03 S35
G01 Z-1.000000 F800.0(Penetrate)
G01 X37.833460 Y122.483991 Z-1.000000 F2500.000000
G00 Z0.100000
M05
(End cutting path id: path15551)


(Start cutting path id: path15549)
(Change tool to Default tool)

G00 Z0.100000
G00 X18.515812 Y54.302014
M03 S35
G01 Z-1.000000 F800.0(Penetrate)
G01 X36.557847 Y121.455890 Z-1.000000 F2500.000000
G00 Z0.100000
M05
(End cutting path id: path15549)


(Start cutting path id: path15547)
(Change tool to Default tool)

G00 Z0.100000
G00 X19.526231 Y51.747864
M03 S35
G01 Z-1.000000 F800.0(Penetrate)
G01 X38.712262 Y123.159765 Z-1.000000 F2500.000000
G00 Z0.100000
M05
(End cutting path id: path15547)


(Start cutting path id: path15545)
(Change tool to Default tool)

G00 Z0.100000
G00 X28.522280 Y36.890038
M03 S35
G01 Z-1.000000 F800.0(Penetrate)
G01 X53.943179 Y131.508598 Z-1.000000 F2500.000000
G00 Z0.100000
M05
(End cutting path id: path15545)


(Start cutting path id: path15543)
(Change tool to Default tool)

G00 Z0.100000
G00 X36.821581 Y28.615769
M03 S35
G01 Z-1.000000 F800.0(Penetrate)
G01 X65.271760 Y134.509506 Z-1.000000 F2500.000000
G00 Z0.100000
M05
(End cutting path id: path15543)


(Start cutting path id: path15541)
(Change tool to Default tool)

G00 Z0.100000
G00 X33.153209 Y31.879818
M03 S35
G01 Z-1.000000 F800.0(Penetrate)
G01 X60.461488 Y133.523379 Z-1.000000 F2500.000000
G00 Z0.100000
M05
(End cutting path id: path15541)


(Start cutting path id: path15539)
(Change tool to Default tool)

G00 Z0.100000
G00 X25.816273 Y40.432944
M03 S35
G01 Z-1.000000 F800.0(Penetrate)
G01 X49.825956 Y129.798881 Z-1.000000 F2500.000000
G00 Z0.100000
M05
(End cutting path id: path15539)


(Start cutting path id: path15537)
(Change tool to Default tool)

G00 Z0.100000
G00 X21.357987 Y47.812457
M03 S35
G01 Z-1.000000 F800.0(Penetrate)
G01 X42.269651 Y125.647280 Z-1.000000 F2500.000000
G00 Z0.100000
M05
(End cutting path id: path15537)


(Start cutting path id: path15535)
(Change tool to Default tool)

G00 Z0.100000
G00 X21.154105 Y48.215846
M03 S35
G01 Z-1.000000 F800.0(Penetrate)
G01 X41.891060 Y125.400392 Z-1.000000 F2500.000000
G00 Z0.100000
M05
(End cutting path id: path15535)


(Start cutting path id: path15533)
(Change tool to Default tool)

G00 Z0.100000
G00 X20.602538 Y49.346848
M03 S35
G01 Z-1.000000 F800.0(Penetrate)
G01 X40.846928 Y124.698084 Z-1.000000 F2500.000000
G00 Z0.100000
M05
(End cutting path id: path15533)


(Start cutting path id: path15531)
(Change tool to Default tool)

G00 Z0.100000
G00 X16.898656 Y59.354814
M03 S35
G01 Z-1.000000 F800.0(Penetrate)
G01 X32.626183 Y117.893883 Z-1.000000 F2500.000000
G00 Z0.100000
M05
(End cutting path id: path15531)


(Start cutting path id: path15529)
(Change tool to Default tool)

G00 Z0.100000
G00 X20.902628 Y48.724071
M03 S35
G01 Z-1.000000 F800.0(Penetrate)
G01 X41.418745 Y125.086624 Z-1.000000 F2500.000000
G00 Z0.100000
M05
(End cutting path id: path15529)


(Start cutting path id: path15527)
(Change tool to Default tool)

G00 Z0.100000
G00 X15.198033 Y82.146079
M03 S35
G01 Z-1.000000 F800.0(Penetrate)
G01 X19.732472 Y99.023643 Z-1.000000 F2500.000000
G00 Z0.100000
M05
(End cutting path id: path15527)


(Start cutting path id: path15525)
(Change tool to Default tool)

G00 Z0.100000
G00 X17.486947 Y57.332897
M03 S35
G01 Z-1.000000 F800.0(Penetrate)
G01 X34.148562 Y119.348724 Z-1.000000 F2500.000000
G00 Z0.100000
M05
(End cutting path id: path15525)


(Start cutting path id: path15523)
(Change tool to Default tool)

G00 Z0.100000
G00 X15.799364 Y86.121944
M03 S35
G01 Z-1.000000 F800.0(Penetrate)
G01 X18.260302 Y95.281745 Z-1.000000 F2500.000000
G00 Z0.100000
M05
(End cutting path id: path15523)


(Start cutting path id: path15521)
(Change tool to Default tool)

G00 Z0.100000
G00 X15.315708 Y83.085999
M03 S35
G01 Z-1.000000 F800.0(Penetrate)
G01 X19.363250 Y98.151300 Z-1.000000 F2500.000000
G00 Z0.100000
M05
(End cutting path id: path15521)


(Start cutting path id: path15519)
(Change tool to Default tool)

G00 Z0.100000
G00 X15.082743 Y69.208577
M03 S35
G01 Z-1.000000 F800.0(Penetrate)
G01 X26.116467 Y110.276950 Z-1.000000 F2500.000000
G00 Z0.100000
M05
(End cutting path id: path15519)


(Start cutting path id: path15517)
(Change tool to Default tool)

G00 Z0.100000
G00 X19.899680 Y99.406543
M03 S35
G01 Z-1.000000 F800.0(Penetrate)
G01 X15.150826 Y81.730935 Z-1.000000 F2500.000000
G00 Z0.100000
M05
(End cutting path id: path15517)


(Start cutting path id: path15515)
(Change tool to Default tool)

G00 Z0.100000
G00 X15.284815 Y82.850592
M03 S35
G01 Z-1.000000 F800.0(Penetrate)
G01 X19.454504 Y98.370488 Z-1.000000 F2500.000000
G00 Z0.100000
M05
(End cutting path id: path15515)


(Footer)
M5
G00 X0.0000 Y0.0000
M2
(Using default footer. To add your own footer create file "footer" in the output dir.)
(end)
%