%
(Header)
(Generated by gcodetools from Inkscape.)
(Using default header. To add your own header create file "header" in the output dir.)
M3
(Header end.)
G21 (All units in mm)

(Start cutting path id: path16052)
(Change tool to Default tool)
M05
G00 Z0.100000
G00 X106.378738 Y93.995838
M03 S35
G01 Z-1.000000 F800.0(Penetrate)
G03 X105.993715 Y93.773551 Z-1.000000 I-0.101512 J-0.268762 F2500.000000
G01 X105.908018 Y93.783235 Z-1.000000
G03 X105.685978 Y95.388283 Z-1.000000 I-4.069090 J0.254970
G02 X106.523622 Y96.308785 Z-1.000000 I0.667267 J0.234170
G02 X109.086269 Y95.140817 Z-1.000000 I-1.851119 J-7.456898
G02 X109.472427 Y92.898381 Z-1.000000 I-0.921627 J-1.313175
G02 X107.413903 Y91.713830 Z-1.000000 I-2.317865 J1.647072
G02 X104.127002 Y92.936130 Z-1.000000 I-0.369687 J4.036442
G02 X103.255171 Y95.644370 Z-1.000000 I2.325188 J2.242969
G02 X105.197866 Y97.329479 Z-1.000000 I1.948108 J-0.283514
G02 X106.118877 Y97.099435 Z-1.000000 I0.005327 J-1.937389
G02 X108.537851 Y95.577013 Z-1.000000 I-9.732899 J-18.147549
G02 X110.551286 Y93.811415 Z-1.000000 I-8.917225 J-12.199766
G02 X110.725797 Y92.954252 Z-1.000000 I-0.594345 J-0.567349
G02 X110.044145 Y92.180039 Z-1.000000 I-1.364878 J0.514514
G02 X106.806089 Y90.767446 Z-1.000000 I-10.879564 J20.521440
G02 X103.565311 Y89.956550 Z-1.000000 I-6.110518 J17.539510
G02 X102.580284 Y90.385352 Z-1.000000 I-0.154837 J0.990097
G02 X102.291216 Y91.596149 Z-1.000000 I1.463099 J0.989208
G02 X103.131583 Y95.733438 Z-1.000000 I28.099994 J-3.553682
G02 X104.560226 Y99.564626 Z-1.000000 I24.040926 J-6.782854
G02 X105.659336 Y100.447813 Z-1.000000 I1.452097 J-0.681604
G02 X107.097617 Y100.181683 Z-1.000000 I0.408597 J-1.811381
G02 X110.425741 Y97.501434 Z-1.000000 I-13.153148 J-19.738974
G02 X113.125946 Y94.331788 Z-1.000000 I-14.933573 J-15.456800
G02 X113.325371 Y92.809112 Z-1.000000 I-1.368613 J-0.953645
G02 X112.233880 Y91.558188 Z-1.000000 I-2.161517 J0.784377
G02 X107.724285 Y89.625250 Z-1.000000 I-14.450356 J27.486082
G02 X103.023835 Y88.461806 Z-1.000000 I-9.324558 J27.595407
G02 X101.470283 Y88.904071 Z-1.000000 I-0.303094 J1.885043
G02 X100.797755 Y90.397925 Z-1.000000 I1.276703 J1.473080
G02 X101.290057 Y95.317539 Z-1.000000 I27.786539 J-0.296137
G02 X102.644935 Y99.955074 Z-1.000000 I24.902560 J-4.758717
G02 X103.912909 Y100.966837 Z-1.000000 I1.522374 J-0.607474
G02 X105.657365 Y100.560467 Z-1.000000 I0.370400 J-2.357422
G02 X110.214488 Y96.843381 Z-1.000000 I-23.988486 J-34.061778
G02 X114.153541 Y92.547154 Z-1.000000 I-27.051570 J-28.756491
G02 X114.482431 Y90.948484 Z-1.000000 I-1.427748 J-1.126892
G02 X113.395474 Y89.753993 Z-1.000000 I-1.702188 J0.457150
G02 X108.029576 Y88.298896 Z-1.000000 I-10.588841 J28.426662
G02 X102.615347 Y87.873237 Z-1.000000 I-4.950615 J28.323702
G02 X100.655960 Y88.839697 Z-1.000000 I0.041168 J2.552910
G02 X99.929636 Y91.048151 Z-1.000000 I2.636517 J2.090771
G02 X100.656639 Y97.269425 Z-1.000000 I38.517233 J-1.347917
G02 X102.396101 Y103.157516 Z-1.000000 I33.650133 J-6.739950
G02 X103.859385 Y104.344378 Z-1.000000 I1.786342 J-0.706911
G02 X105.834162 Y103.855620 Z-1.000000 I0.427544 J-2.506373
G02 X111.011169 Y99.181658 Z-1.000000 I-26.498919 J-34.554996
G02 X115.257612 Y93.846204 Z-1.000000 I-29.554089 J-27.879429
G02 X115.649375 Y91.397349 Z-1.000000 I-2.476887 J-1.652012
G02 X114.070987 Y89.422145 Z-1.000000 I-3.104148 J0.862280
G02 X107.649121 Y86.670466 Z-1.000000 I-18.708848 J34.793188
G02 X100.912090 Y85.140111 Z-1.000000 I-11.580450 J35.385947
G02 X98.744045 Y85.929214 Z-1.000000 I-0.325272 J2.479204
G02 X97.918914 Y88.236905 Z-1.000000 I2.325508 J2.132863
G02 X98.984861 Y95.909942 Z-1.000000 I46.871502 J-2.600882
G02 X101.284527 Y103.121664 Z-1.000000 I41.999550 J-9.420255
G02 X103.295356 Y104.867230 Z-1.000000 I2.770705 J-1.160766
G02 X106.059172 Y104.452699 Z-1.000000 I0.897888 J-3.434387
G02 X112.803714 Y99.495160 Z-1.000000 I-27.394364 J-44.335595
G02 X118.555943 Y93.573853 Z-1.000000 I-31.615491 J-36.467385
G02 X118.947589 Y91.211383 Z-1.000000 I-1.862449 J-1.522451
G02 X117.126503 Y89.415884 Z-1.000000 I-2.838727 J1.057911
G02 X108.216278 Y86.949117 Z-1.000000 I-21.438438 J60.112198
G02 X99.105929 Y85.813856 Z-1.000000 I-12.252225 J61.200392
G02 X96.583057 Y86.855634 Z-1.000000 I-0.160619 J3.186733
G02 X95.899249 Y89.416233 Z-1.000000 I2.139886 J1.943062
G02 X98.459390 Y97.520057 Z-1.000000 I45.837548 J-10.024580
G02 X102.413077 Y104.973501 Z-1.000000 I42.804131 J-17.930154
G02 X105.019813 Y106.550079 Z-1.000000 I2.943158 J-1.922962
G02 X108.067596 Y105.642228 Z-1.000000 I0.404802 J-4.210867
G02 X114.719822 Y99.320838 Z-1.000000 I-33.743884 J-42.170783
G02 X120.015314 Y92.104246 Z-1.000000 I-36.128213 J-32.061863
G02 X120.127960 Y89.119105 Z-1.000000 I-2.659372 J-1.595049
G02 X117.679244 Y86.992871 Z-1.000000 I-3.803754 J1.907491
G02 X107.570334 Y84.455217 Z-1.000000 I-21.260500 J63.289008
G02 X97.358867 Y83.577057 Z-1.000000 I-10.446484 J61.664495
G02 X94.229832 Y85.033482 Z-1.000000 I-0.015244 J4.056725
G02 X93.319126 Y88.386695 Z-1.000000 I3.194782 J2.667955
G02 X95.890557 Y98.291934 Z-1.000000 I57.032756 J-9.519490
G02 X100.155926 Y107.528596 Z-1.000000 I53.304355 J-19.012073
G02 X103.074823 Y109.539669 Z-1.000000 I3.568562 J-2.055657
G02 X106.606192 Y108.632316 Z-1.000000 I0.721606 J-4.517175
G02 X114.544361 Y101.303583 Z-1.000000 I-39.504366 J-50.752939
G02 X121.041525 Y92.818775 Z-1.000000 I-44.998423 J-41.187107
G02 X121.364869 Y89.368264 Z-1.000000 I-3.214986 J-2.041679
G02 X118.777303 Y86.857546 Z-1.000000 I-4.093248 J1.629792
G02 X107.682756 Y83.821129 Z-1.000000 I-24.103228 J66.282056
G02 X96.384118 Y82.678317 Z-1.000000 I-12.379045 J65.963373
G02 X93.017556 Y84.280442 Z-1.000000 I-0.067559 J4.196197
G02 X92.091790 Y88.002830 Z-1.000000 I3.676021 J2.890549
G02 X95.187641 Y99.470680 Z-1.000000 I68.970415 J-12.467391
G02 X100.139353 Y110.055685 Z-1.000000 I61.753778 J-22.437972
G02 X103.442716 Y112.160541 Z-1.000000 I3.688726 J-2.144512
G02 X107.358796 Y110.877982 Z-1.000000 I0.470149 J-5.184307
G02 X116.285336 Y101.621426 Z-1.000000 I-53.191712 J-60.227739
G02 X123.508794 Y91.152447 Z-1.000000 I-59.178152 J-48.558681
G02 X123.775268 Y87.069765 Z-1.000000 I-4.032675 J-2.313248
G02 X120.718096 Y84.267052 Z-1.000000 I-4.518049 J1.859520
G02 X108.067390 Y81.453209 Z-1.000000 I-22.878669 J73.014828
G02 X95.203723 Y80.834588 Z-1.000000 I-10.018764 J74.277704
G02 X91.378968 Y82.849436 Z-1.000000 I0.189849 J4.998047
G02 X90.433689 Y87.140060 Z-1.000000 I4.302963 J3.197438
G02 X94.225031 Y99.782823 Z-1.000000 I75.227696 J-15.669603
G02 X100.097962 Y111.469150 Z-1.000000 I68.904744 J-27.309013
G02 X103.867242 Y113.860893 Z-1.000000 I4.351829 J-2.692308
G02 X108.245421 Y112.498957 Z-1.000000 I0.646327 J-5.640445
G02 X117.835798 Y102.602339 Z-1.000000 I-54.078878 J-62.000579
G02 X125.556457 Y91.310796 Z-1.000000 I-61.556015 J-50.374584
G02 X125.840099 Y86.798173 Z-1.000000 I-4.518671 J-2.549248
G02 X122.480071 Y83.660818 Z-1.000000 I-5.086487 J2.079569
G02 X108.737159 Y80.354523 Z-1.000000 I-26.624845 J80.453582
G02 X94.685528 Y79.397204 Z-1.000000 I-12.671784 J82.393461
G02 X90.614183 Y81.444750 Z-1.000000 I0.086815 J5.244131
G02 X89.618181 Y85.939495 Z-1.000000 I4.309109 J3.312592
G02 X93.905948 Y99.595294 Z-1.000000 I82.288349 J-18.336555
G02 X100.413773 Y112.212277 Z-1.000000 I75.601957 J-31.008545
G02 X104.426800 Y114.653051 Z-1.000000 I4.462438 J-2.817551
G02 X108.994193 Y113.054186 Z-1.000000 I0.503046 J-5.886123
G02 X119.024157 Y101.852825 Z-1.000000 I-63.298776 J-66.770437
G02 X126.988541 Y89.259733 Z-1.000000 I-70.314015 J-53.284494
G02 X127.033672 Y84.557286 Z-1.000000 I-4.608572 J-2.395671
G02 X123.274464 Y81.545581 Z-1.000000 I-5.118838 J2.537357
G02 X107.976758 Y79.107161 Z-1.000000 I-22.444464 J91.602718
G02 X92.585404 Y79.220371 Z-1.000000 I-7.016944 J92.332964
G02 X88.143409 Y81.803023 Z-1.000000 I0.550066 J6.057375
G02 X87.243638 Y86.864974 Z-1.000000 I5.037545 J3.506377
G02 X92.388726 Y101.193668 Z-1.000000 I83.316765 J-21.828953
G02 X99.948429 Y114.299997 Z-1.000000 I76.436654 J-35.355127
G02 X104.538831 Y116.875141 Z-1.000000 I4.985193 J-3.507555
G02 X109.630783 Y115.041822 Z-1.000000 I0.439267 J-6.767940
G02 X120.349461 Y103.092250 Z-1.000000 I-65.903627 J-69.897137
G02 X128.819612 Y89.612302 Z-1.000000 I-73.490014 J-55.578690
G02 X128.886897 Y84.447437 Z-1.000000 I-5.159329 J-2.650083
G02 X124.811082 Y81.065493 Z-1.000000 I-5.727724 J2.755882
G02 X108.407042 Y78.083980 Z-1.000000 I-26.096946 J96.965662
G02 X91.869616 Y77.888720 Z-1.000000 I-9.416279 J97.094775
G02 X87.096704 Y80.624101 Z-1.000000 I0.464182 J6.341712
G02 X86.137566 Y86.117809 Z-1.000000 I5.506743 J3.791995
G02 X91.811472 Y102.071963 Z-1.000000 I97.193656 J-25.579770
G02 X100.066563 Y116.759956 Z-1.000000 I89.309964 J-40.531068
G02 X104.800948 Y119.424996 Z-1.000000 I5.056309 J-3.444638
G02 X109.951155 Y117.378615 Z-1.000000 I0.349102 J-6.625454
G02 X120.875281 Y103.812129 Z-1.000000 I-75.283155 J-71.801620
G02 X129.296911 Y88.717143 Z-1.000000 I-84.144955 J-56.841982
G02 X129.208466 Y82.842987 Z-1.000000 I-6.303482 J-2.842834
G02 X124.638501 Y79.043053 Z-1.000000 I-6.501574 J3.171087
G02 X107.376179 Y75.844567 Z-1.000000 I-26.945678 J97.244746
G02 X89.987289 Y75.737086 Z-1.000000 I-9.290426 J96.367471
G02 X84.983425 Y78.793708 Z-1.000000 I0.547322 J6.520114
G02 X84.109446 Y84.825775 Z-1.000000 I6.428276 J4.010733
G02 X90.579557 Y102.522563 Z-1.000000 I112.963797 J-31.269458
G02 X99.777277 Y118.832550 Z-1.000000 I103.223771 J-47.462726
G02 X104.907123 Y121.792359 Z-1.000000 I5.616854 J-3.809604
G02 X110.439247 Y119.614049 Z-1.000000 I0.493577 J-6.860449
G02 X121.974286 Y104.847179 Z-1.000000 I-80.263590 J-74.586046
G02 X130.767581 Y88.411036 Z-1.000000 I-90.625119 J-59.054476
G02 X130.533485 Y82.070798 Z-1.000000 I-6.817975 J-2.922705
G02 X125.497257 Y78.067349 Z-1.000000 I-6.996165 J3.631540
G02 X106.701381 Y74.930597 Z-1.000000 I-27.607401 J107.545402
G02 X87.788441 Y75.096128 Z-1.000000 I-8.520478 J107.026282
G02 X82.393496 Y78.419849 Z-1.000000 I0.697546 J7.172532
G02 X81.455068 Y84.870629 Z-1.000000 I6.773543 J4.279031
G02 X88.461644 Y103.575133 Z-1.000000 I114.690542 J-32.297719
G02 X98.433006 Y120.622133 Z-1.000000 I102.779006 J-48.679093
G02 X104.213711 Y123.733906 Z-1.000000 I6.024631 J-4.266626
G02 X110.466200 Y121.163881 Z-1.000000 I0.272041 J-8.228864
G02 X123.548887 Y104.854911 Z-1.000000 I-93.038499 J-88.035181
G02 X133.719094 Y86.713714 Z-1.000000 I-103.416212 J-69.897947
G02 X133.545173 Y80.110894 Z-1.000000 I-6.854151 J-3.123160
G02 X128.237584 Y76.100026 Z-1.000000 I-6.875795 J3.581548
G02 X107.419421 Y73.611641 Z-1.000000 I-25.059934 J121.326833
G02 X86.571621 Y74.675467 Z-1.000000 I-4.198069 J122.539546
G02 X80.654213 Y78.504759 Z-1.000000 I1.127999 J8.229831
G02 X79.743788 Y85.533370 Z-1.000000 I7.217811 J4.508203
G02 X87.667269 Y105.026900 Z-1.000000 I117.828410 J-36.536305
G02 X98.787561 Y122.858486 Z-1.000000 I108.791011 J-55.461956
G02 X104.870028 Y126.020745 Z-1.000000 I6.334652 J-4.753616
G02 X111.227862 Y123.296227 Z-1.000000 I0.260391 J-8.172823
G02 X124.093414 Y106.193538 Z-1.000000 I-94.775202 J-84.685369
G02 X133.861315 Y87.231317 Z-1.000000 I-106.422281 J-66.817656
G02 X133.496831 Y80.188202 Z-1.000000 I-7.616092 J-3.136852
G02 X127.811300 Y75.944565 Z-1.000000 I-7.402916 J3.987768
G02 X106.413303 Y73.344994 Z-1.000000 I-25.991110 J124.575059
G02 X84.942748 Y74.411890 Z-1.000000 I-4.529650 J125.417471
G02 X79.152913 Y78.279351 Z-1.000000 I1.072634 J7.873407
G02 X78.480507 Y85.315817 Z-1.000000 I7.272478 J4.245320
G02 X87.522600 Y105.441392 Z-1.000000 I123.446263 J-43.368371
G02 X99.747214 Y123.578168 Z-1.000000 I110.800514 J-61.493928
G02 X106.364734 Y126.667201 Z-1.000000 I6.469137 J-5.225841
G02 X113.121723 Y123.476023 Z-1.000000 I-0.162265 J-9.092780
G02 X126.445644 Y104.936863 Z-1.000000 I-104.723721 J-89.321425
G02 X136.424239 Y84.552578 Z-1.000000 I-114.771993 J-68.818162
G02 X135.800334 Y77.268406 Z-1.000000 I-7.741764 J-3.005706
G02 X129.653921 Y73.114573 Z-1.000000 I-7.539599 J4.531989
G02 X106.499066 Y71.385660 Z-1.000000 I-21.781616 J135.797447
G02 X83.542614 Y73.590470 Z-1.000000 I1.344102 J134.608310
G02 X77.202354 Y78.151312 Z-1.000000 I1.647776 J8.978040
G02 X76.558718 Y86.041401 Z-1.000000 I8.424403 J4.658520
G02 X86.344802 Y107.485680 Z-1.000000 I129.576308 J-46.176996
G02 X99.595115 Y126.772004 Z-1.000000 I115.844153 J-65.393728
G02 X106.674183 Y129.939695 Z-1.000000 I6.736218 J-5.560015
G02 X113.818558 Y126.388021 Z-1.000000 I-0.382283 J-9.730458
G02 X127.884251 Y106.044672 Z-1.000000 I-116.090320 J-95.300857
G02 X138.310515 Y83.802231 Z-1.000000 I-126.597710 J-72.908263
G02 X137.571705 Y75.779673 Z-1.000000 I-8.758893 J-3.238678
G02 X130.862906 Y71.218706 Z-1.000000 I-8.250583 J4.921391
G02 X106.186207 Y69.354951 Z-1.000000 I-23.172647 J142.517569
G02 X81.645897 Y71.740068 Z-1.000000 I1.486936 J142.738311
G02 X74.862510 Y76.608149 Z-1.000000 I1.790442 J9.655044
G02 X74.159828 Y85.013405 Z-1.000000 I8.914730 J4.977275
G02 X84.584309 Y107.850542 Z-1.000000 I137.928770 J-49.162628
G02 X98.714901 Y128.434191 Z-1.000000 I124.308402 J-70.195095
G02 X106.254411 Y131.871453 Z-1.000000 I7.292591 J-6.008580
G02 X113.871874 Y128.165747 Z-1.000000 I-0.267489 J-10.231946
G02 X128.817384 Y106.725761 Z-1.000000 I-121.971675 J-100.953869
G02 X139.935585 Y83.225267 Z-1.000000 I-133.596910 J-77.585652
G02 X139.131702 Y74.928031 Z-1.000000 I-8.897947 J-3.325477
G02 X132.088172 Y70.335706 Z-1.000000 I-8.371508 J5.142186
G02 X105.726234 Y68.947949 Z-1.000000 I-21.522884 J157.769793
G02 X79.487554 Y71.926683 Z-1.000000 I4.860703 J159.869609
G02 X72.534303 Y76.974944 Z-1.000000 I1.993932 J10.059034
G02 X71.996000 Y85.447501 Z-1.000000 I8.566651 J4.797660
G02 X83.638054 Y108.283249 Z-1.000000 I135.454539 J-54.671499
G02 X99.079198 Y128.720363 Z-1.000000 I123.914561 J-77.571146
G02 X107.119810 Y132.087960 Z-1.000000 I7.602394 J-6.868940
G02 X115.010850 Y128.125153 Z-1.000000 I-0.460382 J-10.754767
G02 X129.811874 Y106.383030 Z-1.000000 I-120.052994 J-97.635470
G02 X140.594113 Y82.579566 Z-1.000000 I-130.620667 J-73.510896
G02 X139.546522 Y74.106252 Z-1.000000 I-9.052476 J-3.182221
G02 X132.121353 Y69.452642 Z-1.000000 I-8.827945 J5.835120
G02 X104.686455 Y68.068016 Z-1.000000 I-22.087461 J165.150669
G02 X77.602488 Y71.234339 Z-1.000000 I5.197962 J161.880197
G02 X70.472658 Y76.644506 Z-1.000000 I2.057206 J10.114238
G02 X70.106195 Y85.690845 Z-1.000000 I9.608358 J4.919823
G02 X82.843869 Y110.288473 Z-1.000000 I149.756170 J-61.953107
G02 X99.502099 Y132.168435 Z-1.000000 I133.266969 J-84.181000
G02 X108.069535 Y135.580637 Z-1.000000 I7.782385 J-7.078434
G02 X116.365221 Y131.083014 Z-1.000000 I-0.859428 J-11.484521
G02 X131.857795 Y106.854993 Z-1.000000 I-137.951196 J-105.280065
G02 X143.042663 Y80.510894 Z-1.000000 I-149.987286 J-79.226260
G02 X141.831215 Y71.304424 Z-1.000000 I-10.187028 J-3.342463
G02 X133.870871 Y66.417304 Z-1.000000 I-9.150740 J5.978476
G02 X104.943908 Y65.691355 Z-1.000000 I-18.772866 J171.353351
G02 X76.315531 Y69.812872 Z-1.000000 I10.148101 J171.977693
G02 X68.909291 Y75.641284 Z-1.000000 I2.491680 J10.786021
G02 X68.698811 Y85.042801 Z-1.000000 I9.829179 J4.923169
G02 X82.601300 Y110.159287 Z-1.000000 I152.677373 J-68.104151
G02 X100.569277 Y132.478254 Z-1.000000 I137.960418 J-92.673527
G02 X109.492527 Y135.869061 Z-1.000000 I8.030159 J-7.695552
G02 X117.920043 Y131.167779 Z-1.000000 I-0.932550 J-11.575911
G02 X133.134883 Y106.243795 Z-1.000000 I-137.935617 J-101.308702
G02 X143.767156 Y79.260995 Z-1.000000 I-148.840593 J-74.235148
G02 X142.164308 Y69.740002 Z-1.000000 I-10.535656 J-3.121750
G02 X133.612341 Y64.789027 Z-1.000000 I-9.754679 J6.988027
G02 X103.255574 Y64.255007 Z-1.000000 I-18.395387 J182.606050
G02 X73.399597 Y68.757650 Z-1.000000 I11.662812 J178.568723
G02 X65.844009 Y74.939470 Z-1.000000 I2.595156 J10.880102
G02 X65.893451 Y84.791033 Z-1.000000 I10.528389 J4.873067
G02 X81.314527 Y111.234321 Z-1.000000 I163.935873 J-77.885135
G02 X100.912994 Y134.636634 Z-1.000000 I147.485357 J-103.605264
G02 X110.493177 Y138.166221 Z-1.000000 I8.579442 J-8.520452
G02 X119.374853 Y133.110638 Z-1.000000 I-1.004392 J-12.094000
G02 X134.861749 Y106.836488 Z-1.000000 I-144.478892 J-102.862211
G02 X145.583226 Y78.333831 Z-1.000000 I-158.523709 J-75.897625
G02 X143.837935 Y68.462146 Z-1.000000 I-11.142152 J-3.120218
G02 X135.015822 Y63.454920 Z-1.000000 I-9.848006 J7.075621
G02 X103.867082 Y63.448445 Z-1.000000 I-15.612595 J183.883258
G02 X73.301726 Y68.687108 Z-1.000000 I15.293586 J181.018739
G02 X65.348015 Y75.332114 Z-1.000000 I3.066097 J11.752536
G02 X65.325049 Y85.783073 Z-1.000000 I11.328057 J5.250398
G02 X80.828339 Y113.188856 Z-1.000000 I168.203310 J-77.063669
G02 X89.295917 Y124.538556 Z-1.000000 I142.675021 J-97.610867
G02 X96.979865 Y132.944616 Z-1.000000 I75.478076 J-61.279268
G02 X105.705149 Y139.785467 Z-1.000000 I36.291904 J-37.304312
G02 X110.307042 Y140.807083 Z-1.000000 I3.746128 J-5.999046
G02 X114.622323 Y138.762165 Z-1.000000 I-0.914979 J-7.506440
G02 X122.180226 Y129.947436 Z-1.000000 I-40.939875 J-42.750073
G02 X128.429554 Y119.888636 Z-1.000000 I-88.855021 J-62.174513
G02 X134.953283 Y106.790238 Z-1.000000 I-163.707754 J-89.709319
G02 X140.426230 Y93.221357 Z-1.000000 I-168.933131 J-76.026611
G02 X143.777481 Y81.881903 Z-1.000000 I-98.516531 J-35.280416
G02 X145.256897 Y70.426239 Z-1.000000 I-55.001076 J-12.926350
G02 X143.804091 Y65.768846 Z-1.000000 I-7.560595 J-0.196869
G02 X139.811120 Y62.952021 Z-1.000000 I-6.167428 J4.504078
G02 X128.465954 Y60.814582 Z-1.000000 I-16.062286 J54.078071
G02 X116.660925 Y60.500866 Z-1.000000 I-8.644362 J103.017773
G02 X102.107113 Y61.543978 Z-1.000000 I5.445447 J178.027647
G02 X87.690505 Y63.777939 Z-1.000000 I19.879597 J175.925588
G02 X76.245637 Y66.745475 Z-1.000000 I19.501662 J98.765312
G02 X65.711553 Y71.425683 Z-1.000000 I16.802462 J52.013537
G02 X62.399593 Y75.207516 Z-1.000000 I3.904360 J6.760413
G02 X62.005102 Y80.268048 Z-1.000000 I7.603470 J3.138366
G02 X65.929631 Y91.539005 Z-1.000000 I58.579246 J-14.078463
G02 X71.660187 Y102.281383 Z-1.000000 I99.072319 J-45.950761
G02 X79.929716 Y114.742110 Z-1.000000 I159.471654 J-96.858560
G02 X89.174849 Y126.497486 Z-1.000000 I149.910130 J-108.385174
G02 X97.517936 Y135.195172 Z-1.000000 I79.420312 J-67.832085
G02 X106.919392 Y142.251097 Z-1.000000 I38.291106 J-41.228531
G02 X111.812381 Y143.276530 Z-1.000000 I3.930757 J-6.569635
G02 X116.342286 Y141.088806 Z-1.000000 I-0.993335 J-7.840476
G02 X124.051651 Y131.866758 Z-1.000000 I-41.783268 J-42.763030
G02 X130.362120 Y121.330351 Z-1.000000 I-90.864380 J-61.578469
G02 X136.881506 Y107.615301 Z-1.000000 I-168.427582 J-88.468272
G02 X142.284065 Y93.424935 Z-1.000000 I-174.436889 J-74.535271
G02 X145.530775 Y81.553756 Z-1.000000 I-102.807364 J-34.496884
G02 X146.829103 Y69.592976 Z-1.000000 I-57.741361 J-12.318613
G02 X145.228288 Y64.713725 Z-1.000000 I-8.086943 J-0.049014
G02 X141.012715 Y61.780500 Z-1.000000 I-6.492470 J4.834969
G02 X129.220920 Y59.605936 Z-1.000000 I-16.439962 J56.088976
G02 X116.957840 Y59.334562 Z-1.000000 I-8.489366 J106.411963
G02 X101.880236 Y60.490540 Z-1.000000 I6.495574 J183.630655
G02 X86.950509 Y62.885515 Z-1.000000 I21.455998 J181.483526
G02 X75.122109 Y66.023312 Z-1.000000 I20.709432 J101.930692
G02 X64.250013 Y70.931676 Z-1.000000 I17.650424 J53.591048
G02 X60.862409 Y74.860029 Z-1.000000 I4.055593 J6.922150
G02 X60.507729 Y80.089675 Z-1.000000 I7.855405 J3.159613
G02 X64.717717 Y91.777051 Z-1.000000 I61.081679 J-15.400702
G02 X70.791335 Y102.895351 Z-1.000000 I103.158744 J-49.134677
G02 X79.519908 Y115.779702 Z-1.000000 I165.368818 J-102.631206
G02 X89.255502 Y127.920910 Z-1.000000 I154.860028 J-114.202722
G02 X98.007744 Y136.867152 Z-1.000000 I81.265961 J-70.749361
G02 X107.841059 Y144.071852 Z-1.000000 I38.798427 J-42.641090
G02 X112.919992 Y145.038572 Z-1.000000 I3.913274 J-6.734317
G02 X117.571416 Y142.656528 Z-1.000000 I-1.231752 J-8.137693
G02 X125.479828 Y132.780917 Z-1.000000 I-45.652841 J-44.663241
G02 X131.905865 Y121.580597 Z-1.000000 I-98.257945 J-63.817794
G02 X138.506739 Y107.043346 Z-1.000000 I-180.524616 J-90.737372
G02 X143.934487 Y92.031193 Z-1.000000 I-185.892123 J-75.697876
G02 X147.133952 Y79.518339 Z-1.000000 I-108.380162 J-34.377655
G02 X148.278027 Y66.954771 Z-1.000000 I-60.383606 J-11.832586
G02 X146.494692 Y61.898374 Z-1.000000 I-8.340989 J0.099095
G02 X142.003010 Y58.956110 Z-1.000000 I-6.617307 J5.202378
G02 X129.521327 Y57.032861 Z-1.000000 I-15.598252 J59.766988
G02 X116.601842 Y57.117394 Z-1.000000 I-5.719281 J113.209034
G02 X100.732732 Y58.775336 Z-1.000000 I12.504662 J196.464395
G02 X85.050729 Y61.713646 Z-1.000000 I28.337133 J194.554896
G02 X72.641945 Y65.324475 Z-1.000000 I25.234611 J109.847001
G02 X61.238680 Y70.743238 Z-1.000000 I20.491155 J57.829583
G02 X57.762002 Y74.878953 Z-1.000000 I4.397125 J7.225619
G02 X57.474381 Y80.288658 Z-1.000000 I7.995319 J3.137591
G02 X62.064218 Y92.140763 Z-1.000000 I60.336226 J-16.550980
G02 X68.611390 Y103.361809 Z-1.000000 I101.674487 J-51.803699
G02 X77.996805 Y116.343164 Z-1.000000 I163.467097 J-108.301932
G02 X88.412157 Y128.511269 Z-1.000000 I153.178967 J-120.572727
G02 X97.788146 Y137.481724 Z-1.000000 I81.317907 J-75.608947
G02 X108.236528 Y144.627167 Z-1.000000 I39.122385 J-45.994715
G02 X113.666623 Y145.552015 Z-1.000000 I4.082388 J-7.565695
G02 X118.606254 Y143.023078 Z-1.000000 I-1.400709 J-8.824547
G02 X126.815238 Y132.910823 Z-1.000000 I-46.302312 J-45.975649
G02 X133.488605 Y121.410896 Z-1.000000 I-99.035080 J-65.155929
G02 X140.293698 Y106.552280 Z-1.000000 I-181.220249 J-91.984647
G02 X145.878641 Y91.192915 Z-1.000000 I-186.703925 J-76.584000
G02 X149.145487 Y78.428025 Z-1.000000 I-108.851407 J-34.658208
G02 X150.279355 Y65.625043 Z-1.000000 I-60.461784 J-11.806366
G02 X148.414093 Y60.489698 Z-1.000000 I-8.374884 J0.135505
G02 X143.774776 Y57.542204 Z-1.000000 I-6.705440 J5.429417
G02 X130.752935 Y55.690521 Z-1.000000 I-15.686062 J63.597749
G02 X117.316280 Y55.894961 Z-1.000000 I-4.891549 J120.166113
G02 X100.813778 Y57.734244 Z-1.000000 I14.793923 J207.686563
G02 X84.512139 Y60.885137 Z-1.000000 I31.164431 J204.979111
G02 X71.637582 Y64.698294 Z-1.000000 I26.996744 J114.791569
G02 X59.815675 Y70.376799 Z-1.000000 I21.588141 J60.088776
G02 X56.265305 Y74.660096 Z-1.000000 I4.518194 J7.358150
G02 X56.049831 Y80.230020 Z-1.000000 I8.145627 J3.104246
G02 X61.050780 Y92.442409 Z-1.000000 I62.217947 J-18.347991
G02 X68.073373 Y103.968291 Z-1.000000 I105.118671 J-56.145318
G02 X78.080100 Y117.292120 Z-1.000000 I170.272868 J-117.462081
G02 X89.128109 Y129.765948 Z-1.000000 I159.813426 J-130.416469
G02 X98.992520 Y138.922850 Z-1.000000 I84.720345 J-81.374526
G02 X109.929976 Y146.202518 Z-1.000000 I40.457624 J-48.929808
G02 X115.427293 Y147.048225 Z-1.000000 I3.979379 J-7.577152
G02 X120.324455 Y144.358120 Z-1.000000 I-1.556307 J-8.635691
G02 X128.315462 Y133.701907 Z-1.000000 I-48.563919 J-44.741985
G02 X134.674942 Y121.667704 Z-1.000000 I-103.666923 J-62.480271
G02 X141.062565 Y106.111069 Z-1.000000 I-189.819255 J-87.030339
G02 X146.173436 Y90.091891 Z-1.000000 I-195.110538 J-71.074331
G02 X149.019604 Y76.779546 Z-1.000000 I-113.784091 J-31.287367
G02 X149.669131 Y63.508955 Z-1.000000 I-63.239361 J-9.746432
G02 X147.537579 Y58.211173 Z-1.000000 I-8.864680 J0.488982
G02 X142.616396 Y55.246902 Z-1.000000 I-6.952669 J5.975462
G02 X129.175278 Y53.587609 Z-1.000000 I-14.938033 J65.736101
G02 X115.353059 Y54.061059 Z-1.000000 I-2.721787 J122.542628
G02 X98.479336 Y56.291039 Z-1.000000 I18.937045 J208.246808
G02 X81.846061 Y59.892661 Z-1.000000 I35.437472 J203.869279
G02 X68.782475 Y64.126082 Z-1.000000 I29.296655 J112.676940
G02 X56.918729 Y70.291721 Z-1.000000 I22.798685 J58.365335
G02 X53.417417 Y74.897357 Z-1.000000 I4.872743 J7.338081
G02 X53.420471 Y80.757832 Z-1.000000 I8.965855 J2.925565
G02 X59.063283 Y93.571434 Z-1.000000 I67.739460 J-22.181596
G02 X66.746487 Y105.605058 Z-1.000000 I113.051769 J-63.711473
G02 X77.568056 Y119.468525 Z-1.000000 I180.731036 J-129.920056
G02 X89.453484 Y132.430095 Z-1.000000 I168.651239 J-142.718765
G02 X100.017701 Y141.923666 Z-1.000000 I88.760111 J-88.145520
G02 X111.678715 Y149.439888 Z-1.000000 I42.284912 J-52.798940
G02 X117.498183 Y150.271897 Z-1.000000 I4.133005 J-8.140141
G02 X122.628791 Y147.386481 Z-1.000000 I-1.695146 J-9.018291
G02 X130.833466 Y136.125083 Z-1.000000 I-50.725650 J-45.576517
G02 X137.294013 Y123.419188 Z-1.000000 I-108.293268 J-63.059152
G02 X143.710683 Y107.019263 Z-1.000000 I-198.925916 J-87.287451
G02 X148.775193 Y90.153884 Z-1.000000 I-204.629524 J-70.641365
G02 X151.510603 Y76.175682 Z-1.000000 I-119.435578 J-30.629227
G02 X151.943933 Y62.283863 Z-1.000000 I-66.153144 J-9.016196
G02 X149.613992 Y56.815586 Z-1.000000 I-9.155206 J0.670366
G02 X144.417021 Y53.863460 Z-1.000000 I-7.027153 J6.320235
G02 X130.296033 Y52.527081 Z-1.000000 I-13.685508 J69.335715
G02 X115.832947 Y53.427044 Z-1.000000 I0.797910 J129.489321
G02 X98.184663 Y56.238015 Z-1.000000 I26.450530 J222.872515
G02 X80.815994 Y60.446416 Z-1.000000 I43.966996 J219.403750
G02 X67.189733 Y65.179245 Z-1.000000 I34.925824 J122.536780
G02 X54.778081 Y71.854298 Z-1.000000 I26.240672 J63.668837
G02 X51.221093 Y76.581628 Z-1.000000 I5.126564 J7.559242
G02 X51.297870 Y82.502810 Z-1.000000 I8.732464 J2.847859
G02 X57.349524 Y95.239895 Z-1.000000 I65.020708 J-23.086516
G02 X65.528101 Y107.124950 Z-1.000000 I108.586167 J-65.965915
G02 X77.035945 Y120.786515 Z-1.000000 I174.286648 J-135.133057
G02 X89.610981 Y133.468599 Z-1.000000 I162.330709 J-148.385022
G02 X100.775407 Y142.708999 Z-1.000000 I85.651181 J-92.120636
G02 X112.985058 Y149.867627 Z-1.000000 I40.579813 J-55.220714
G02 X119.062962 Y150.494855 Z-1.000000 I3.972771 J-8.735193
G02 X124.327591 Y147.346096 Z-1.000000 I-2.152991 J-9.575266
G02 X132.558748 Y135.635714 Z-1.000000 I-53.507866 J-46.358360
G02 X138.980225 Y122.495902 Z-1.000000 I-112.267286 J-63.004469
G02 X145.267139 Y105.639913 Z-1.000000 I-203.608111 J-85.541784
G02 X150.156619 Y88.327160 Z-1.000000 I-208.550294 J-68.245748
G02 X152.699539 Y74.020025 Z-1.000000 I-121.191991 J-28.919966
G02 X152.873554 Y59.851361 Z-1.000000 I-66.959485 J-7.907774
G02 X150.367354 Y54.288625 Z-1.000000 I-9.365190 J0.873400
G02 X144.964799 Y51.350255 Z-1.000000 I-7.148740 J6.708024
G02 X130.413718 Y50.195873 Z-1.000000 I-13.033249 J71.999192
G02 X115.554704 Y51.335715 Z-1.000000 I2.770790 J133.541255
G02 X97.452527 Y54.486141 Z-1.000000 I30.372968 J228.103722
G02 X79.661331 Y59.074145 Z-1.000000 I48.227252 J223.802930
G02 X65.701283 Y64.163265 Z-1.000000 I37.568087 J124.745211
G02 X53.030214 Y71.242899 Z-1.000000 I27.949373 J64.902655
G02 X49.377488 Y76.231080 Z-1.000000 I5.543092 J7.890567
G02 X49.490438 Y82.422330 Z-1.000000 I9.275173 J2.927443
G02 X55.752875 Y95.570021 Z-1.000000 I67.160259 J-23.924121
G02 X64.211052 Y107.831527 Z-1.000000 I111.619965 J-67.949134
G02 X76.084653 Y121.884904 Z-1.000000 I178.753038 J-138.984557
G02 X89.060036 Y134.925819 Z-1.000000 I166.528051 J-152.715693
G02 X100.568485 Y144.416141 Z-1.000000 I88.028083 J-95.024311
G02 X113.150383 Y151.765389 Z-1.000000 I41.730351 J-56.997558
G02 X119.400035 Y152.404144 Z-1.000000 I4.077447 J-9.001188
G02 X124.799591 Y149.158421 Z-1.000000 I-2.203887 J-9.780553
G02 X133.215806 Y137.076311 Z-1.000000 I-55.088442 J-47.346138
G02 X139.762809 Y123.525090 Z-1.000000 I-115.800717 J-64.303942
G02 X146.161106 Y106.138883 Z-1.000000 I-210.845075 J-87.463513
G02 X151.125188 Y88.289858 Z-1.000000 I-216.256957 J-69.759113
G02 X153.694856 Y73.550532 Z-1.000000 I-125.907106 J-29.544427
G02 X153.844492 Y58.953454 Z-1.000000 I-69.527425 J-8.012036
G02 X151.275979 Y53.269929 Z-1.000000 I-9.574728 J0.904889
G02 X145.753082 Y50.289614 Z-1.000000 I-7.239050 J6.807399
G02 X130.875972 Y49.201002 Z-1.000000 I-12.834691 J73.199941
G02 X115.692979 Y50.473149 Z-1.000000 I3.733544 J135.799634
G02 X97.189282 Y53.838570 Z-1.000000 I32.570597 J231.630151
G02 X79.019109 Y58.683216 Z-1.000000 I50.781277 J226.955161
G02 X64.759155 Y64.027696 Z-1.000000 I39.226929 J126.360117
G02 X51.854585 Y71.413024 Z-1.000000 I29.050445 J65.727483
G02 X48.128839 Y76.613441 Z-1.000000 I5.836676 J8.116414
G02 X48.284057 Y83.035321 Z-1.000000 I9.762029 J2.976865
G02 X54.787163 Y96.653166 Z-1.000000 I70.300664 J-25.209908
G02 X63.537120 Y109.351094 Z-1.000000 I116.352952 J-70.813427
G02 X75.774181 Y123.863280 Z-1.000000 I184.972179 J-143.558061
G02 X89.150167 Y137.332795 Z-1.000000 I171.591853 J-157.024042
G02 X100.959972 Y147.077413 Z-1.000000 I89.545347 J-96.494144
G02 X113.865351 Y154.574744 Z-1.000000 I41.887569 J-57.246446
G02 X120.214615 Y155.129198 Z-1.000000 I3.974102 J-8.877809
G02 X125.634777 Y151.671476 Z-1.000000 I-2.486638 J-9.874994
G02 X134.097649 Y138.813609 Z-1.000000 I-60.054249 J-48.740889
G02 X140.604782 Y124.509156 Z-1.000000 I-125.457865 J-65.703391
G02 X146.924759 Y106.161806 Z-1.000000 I-227.914025 J-88.770046
G02 X151.766488 Y87.371914 Z-1.000000 I-233.136496 J-70.092730
G02 X154.200195 Y71.861753 Z-1.000000 I-135.441871 J-29.198270
G02 X154.149800 Y56.518672 Z-1.000000 I-74.798978 J-7.425945
G02 X151.428207 Y50.601411 Z-1.000000 I-10.125053 J1.072414
G02 X145.675182 Y47.544959 Z-1.000000 I-7.400268 J6.986638
G02 X130.355593 Y46.624528 Z-1.000000 I-12.131320 J73.963540
G02 X114.731222 Y48.186875 Z-1.000000 I5.850736 J137.418221
G02 X95.731535 Y51.988561 Z-1.000000 I37.168336 J235.134420
G02 X77.105382 Y57.325934 Z-1.000000 I55.928406 J230.345850
G02 X62.563861 Y63.101941 Z-1.000000 I42.346025 J127.801904
G02 X49.490131 Y70.963980 Z-1.000000 I30.698553 J65.849535
G02 X45.860396 Y76.373096 Z-1.000000 I6.000195 J7.948780
G02 X46.271591 Y82.928697 Z-1.000000 I10.080188 J2.658424
G02 X53.553535 Y96.817062 Z-1.000000 I73.009852 J-29.427290
G02 X63.092808 Y109.675179 Z-1.000000 I120.276103 J-79.263715
G02 X76.329009 Y124.358424 Z-1.000000 I191.335631 J-159.171875
G02 X90.689646 Y137.941510 Z-1.000000 I177.401911 J-173.174224
G02 X103.324607 Y147.769890 Z-1.000000 I93.046601 J-106.581189
G02 X117.038936 Y155.309158 Z-1.000000 I43.737060 J-63.316857
G02 X123.678114 Y155.824170 Z-1.000000 I4.087971 J-9.647949
G02 X129.274874 Y152.228384 Z-1.000000 I-2.535323 J-10.099683
G02 X137.694350 Y139.135979 Z-1.000000 I-59.051172 J-47.228086
G02 X144.057479 Y124.530852 Z-1.000000 I-123.671960 J-62.569825
G02 X150.099354 Y105.823648 Z-1.000000 I-225.091877 J-83.027312
G02 X154.586714 Y86.684826 Z-1.000000 I-230.399980 J-64.115914
G02 X156.662748 Y70.915303 Z-1.000000 I-134.058520 J-25.670018
G02 X156.160578 Y55.408620 Z-1.000000 I-73.841469 J-5.370181
G02 X153.154153 Y49.439069 Z-1.000000 I-10.240014 J1.415311
G02 X147.110634 Y46.470670 Z-1.000000 I-7.523212 J7.680540
G02 X131.181023 Y45.862598 Z-1.000000 I-10.997643 J79.147008
G02 X115.017867 Y47.772189 Z-1.000000 I8.999641 J145.533604
G02 X95.421037 Y52.017503 Z-1.000000 I43.376297 J247.582887
G02 X76.226207 Y57.815035 Z-1.000000 I62.670005 J242.166260
G02 X61.249157 Y63.977855 Z-1.000000 I46.557091 J134.424511
G02 X47.764664 Y72.249241 Z-1.000000 I33.309692 J69.430683
G02 X44.040343 Y77.817722 Z-1.000000 I6.314519 J8.252981
G02 X44.474633 Y84.514983 Z-1.000000 I10.120804 J2.706418
G02 X52.007726 Y98.542597 Z-1.000000 I72.281198 J-29.779849
G02 X61.883290 Y111.490866 Z-1.000000 I118.918198 J-80.458022
G02 X75.580276 Y126.228843 Z-1.000000 I188.745404 J-161.679955
G02 X90.425541 Y139.806855 Z-1.000000 I174.304809 J-175.668505
G02 X103.456713 Y149.556833 Z-1.000000 I90.716225 J-107.661977
G02 X117.540794 Y156.892129 Z-1.000000 I42.061203 J-63.570634
G02 X124.335760 Y157.206944 Z-1.000000 I3.857759 J-9.777203
G02 X129.972398 Y153.323922 Z-1.000000 I-3.040169 J-10.445759
G02 X138.396405 Y139.492043 Z-1.000000 I-64.355266 J-48.675352
G02 X144.690705 Y124.194617 Z-1.000000 I-132.903883 J-63.628458
G02 X150.601768 Y104.672127 Z-1.000000 I-239.851604 J-83.278928
G02 X154.922359 Y84.738548 Z-1.000000 I-244.532401 J-63.437279
G02 X156.826809 Y68.348218 Z-1.000000 I-141.680932 J-24.768217
G02 X156.099932 Y52.251694 Z-1.000000 I-77.915670 J-4.546205
G02 X152.946491 Y46.121336 Z-1.000000 I-10.626814 J1.590167
G02 X146.711081 Y43.133007 Z-1.000000 I-7.593195 J7.844334
G02 X130.450370 Y42.759565 Z-1.000000 I-9.959482 J79.458656
G02 X113.973870 Y45.006478 Z-1.000000 I11.531143 J146.091411
G02 X94.008620 Y49.739745 Z-1.000000 I48.455546 J248.862907
G02 X74.493169 Y56.073843 Z-1.000000 I68.229061 J243.445520
G02 X59.267080 Y62.726084 Z-1.000000 I50.193496 J135.637556
G02 X45.627053 Y71.520523 Z-1.000000 I35.597092 J70.185436
G02 X41.871589 Y77.382787 Z-1.000000 I6.819290 J8.502589
G02 X42.405611 Y84.344061 Z-1.000000 I10.726609 J2.678247
G02 X50.258147 Y98.739153 Z-1.000000 I74.541114 J-31.322919
G02 X60.504811 Y112.003830 Z-1.000000 I121.818457 J-83.512016
G02 X74.661045 Y127.045788 Z-1.000000 I192.374240 J-166.864243
G02 X89.992069 Y140.887637 Z-1.000000 I177.363365 J-181.033875
G02 X103.423554 Y150.798772 Z-1.000000 I92.178034 J-110.862196
G02 X117.919296 Y158.222026 Z-1.000000 I42.631805 J-65.384263
G02 X124.888945 Y158.494182 Z-1.000000 I3.882444 J-10.046576
G02 X130.637276 Y154.464079 Z-1.000000 I-3.191213 J-10.666395
G02 X139.191223 Y140.138975 Z-1.000000 I-66.907309 J-49.668806
G02 X145.543362 Y124.328265 Z-1.000000 I-137.843926 J-64.561803
G02 X151.466494 Y104.177007 Z-1.000000 I-247.900606 J-83.812449
G02 X155.748252 Y83.615650 Z-1.000000 I-251.998790 J-63.203479
G02 X157.561136 Y66.759754 Z-1.000000 I-144.900467 J-24.109763
G02 X156.649277 Y50.249652 Z-1.000000 I-79.105833 J-3.911186
G02 X153.321528 Y44.038688 Z-1.000000 I-10.668176 J1.718898
G02 X146.857096 Y41.117537 Z-1.000000 I-7.604445 J8.215055
G02 X129.939339 Y41.090347 Z-1.000000 I-8.593818 J83.948630
G02 X112.864769 Y43.753443 Z-1.000000 I15.248831 J153.837394
G02 X92.196721 Y49.044129 Z-1.000000 I55.832408 J261.124296
G02 X72.019828 Y55.971278 Z-1.000000 I76.129217 J254.592106
G02 X56.325823 Y63.130748 Z-1.000000 I54.746802 J140.789243
G02 X42.311876 Y72.478757 Z-1.000000 I38.145036 J72.363064
G02 X38.558795 Y78.580919 Z-1.000000 I7.090337 J8.566079
G02 X39.280652 Y85.726016 Z-1.000000 I10.994521 J2.498254
G02 X47.801234 Y100.377503 Z-1.000000 I75.876851 J-34.322913
G02 X58.773145 Y113.795859 Z-1.000000 I123.585758 J-89.858575
G02 X73.870315 Y128.979237 Z-1.000000 I195.478568 J-179.271264
G02 X90.142911 Y142.893637 Z-1.000000 I180.106287 J-194.158066
G02 X104.365555 Y152.830602 Z-1.000000 I93.925584 J-119.287601
G02 X119.632752 Y160.205478 Z-1.000000 I43.423971 J-70.404477
G02 X126.886473 Y160.376077 Z-1.000000 I3.881006 J-10.720766
G02 X132.788859 Y156.140271 Z-1.000000 I-3.393714 J-10.959217
G02 X141.307115 Y141.402096 Z-1.000000 I-67.668277 J-48.941130
G02 X147.519081 Y125.141147 Z-1.000000 I-139.227019 J-62.504163
G02 X153.180791 Y104.448959 Z-1.000000 I-250.802722 J-79.744258
G02 X157.134106 Y83.364224 Z-1.000000 I-255.227262 J-58.767206
G02 X158.625920 Y66.091985 Z-1.000000 I-147.416494 J-21.433002
G02 X157.323298 Y49.234649 Z-1.000000 I-80.587261 J-2.251752
G02 X153.760918 Y42.906498 Z-1.000000 I-11.002140 J2.026782
G02 X147.042608 Y39.999588 Z-1.000000 I-7.757463 J8.711702
G02 X129.634962 Y40.183707 Z-1.000000 I-7.784245 J87.034426
G02 X112.108886 Y43.122394 Z-1.000000 I17.553561 J158.419259
G02 X90.956815 Y48.793084 Z-1.000000 I60.221956 J266.916792
G02 X70.329577 Y56.142823 Z-1.000000 I80.761452 J259.279472
G02 X54.334223 Y63.677252 Z-1.000000 I57.337530 J142.471795
G02 X40.116869 Y73.446624 Z-1.000000 I39.582156 J72.833790
G02 X36.374932 Y79.778831 Z-1.000000 I7.348903 J8.614470
G02 X37.260682 Y87.122907 Z-1.000000 I11.414227 J2.348812
G02 X46.370986 Y102.194528 Z-1.000000 I79.139093 J-37.547756
G02 X57.969230 Y115.951082 Z-1.000000 I128.312120 J-96.413259
G02 X73.843815 Y131.473168 Z-1.000000 I201.559148 J-190.257873
G02 X90.912117 Y145.670589 Z-1.000000 I184.688837 J-204.676473
G02 X105.745241 Y155.735509 Z-1.000000 I95.029677 J-124.086916
G02 X121.609910 Y163.105832 Z-1.000000 I43.274479 J-72.389032
G02 X129.027085 Y163.102306 Z-1.000000 I3.703464 J-10.776650
G02 X134.933204 Y158.555702 Z-1.000000 I-3.813849 J-11.063635
G02 X143.282647 Y142.886623 Z-1.000000 I-73.094463 J-49.008283
G02 X149.202648 Y125.733991 Z-1.000000 I-149.465021 J-61.183766
G02 X154.446692 Y103.930431 Z-1.000000 I-269.104703 J-76.255646
G02 X157.923875 Y81.778529 Z-1.000000 I-273.415998 J-54.266956
G02 X158.983194 Y63.647887 Z-1.000000 I-158.040540 J-18.330103
G02 X157.184759 Y45.995592 Z-1.000000 I-86.467039 J-0.108402
G02 X153.356128 Y39.453148 Z-1.000000 I-11.617901 J2.407306
G02 X146.342241 Y36.542882 Z-1.000000 I-7.856097 J9.026545
G02 X128.507825 Y37.105279 Z-1.000000 I-6.168920 J87.433390
G02 X110.591744 Y40.558453 Z-1.000000 I21.342794 J158.936224
G02 X89.029081 Y46.944967 Z-1.000000 I67.777651 J268.430407
G02 X68.057661 Y55.064498 Z-1.000000 I88.912564 J260.789261
G02 X51.856509 Y63.258808 Z-1.000000 I62.404418 J143.494137
G02 X37.563843 Y73.708137 Z-1.000000 I42.438176 J73.046704
G02 X33.926724 Y80.333396 Z-1.000000 I7.775480 J8.579542
G02 X35.081871 Y87.857690 Z-1.000000 I11.857369 J2.030447
G02 X44.953017 Y103.111761 Z-1.000000 I80.886916 J-41.522254
G02 X57.329603 Y116.939109 Z-1.000000 I130.270149 J-104.149547
G02 X74.170237 Y132.485522 Z-1.000000 I204.677645 J-204.822318
G02 X92.188204 Y146.649588 Z-1.000000 I187.487344 J-219.958505
G02 X107.797342 Y156.664107 Z-1.000000 I96.935541 J-133.916809
G02 X124.411560 Y163.948315 Z-1.000000 I44.201445 J-78.227641
G02 X132.053292 Y163.856946 Z-1.000000 I3.684844 J-11.421875
G02 X138.049685 Y159.158696 Z-1.000000 I-3.890968 J-11.141790
G02 X146.207502 Y143.245045 Z-1.000000 I-72.252721 J-47.086719
G02 X151.831645 Y125.814477 Z-1.000000 I-148.008205 J-57.378921
G02 X156.628398 Y103.674980 Z-1.000000 I-267.250712 J-69.492041
G02 X159.593199 Y81.218749 Z-1.000000 I-271.775187 J-47.305152
G02 X160.183504 Y62.854577 Z-1.000000 I-157.657572 J-14.259375
G02 X157.857189 Y45.068984 Z-1.000000 I-86.258354 J2.237458
G02 X153.740339 Y38.491665 Z-1.000000 I-11.816238 J2.818913
G02 X146.466050 Y35.682067 Z-1.000000 I-7.906563 J9.649090
G02 X128.208868 Y36.593883 Z-1.000000 I-4.612341 J90.884275
G02 X109.934280 Y40.428307 Z-1.000000 I24.872026 J164.003180
G02 X88.011337 Y47.288541 Z-1.000000 I74.455103 J276.392057
G02 X66.708881 Y55.888595 Z-1.000000 I96.006456 J268.492629
G02 X50.283595 Y64.462971 Z-1.000000 I66.769576 J147.924968
G02 X35.788853 Y75.289962 Z-1.000000 I44.957217 J75.302905
G02 X32.161492 Y82.004506 Z-1.000000 I7.968446 J8.641815
G02 X33.394176 Y89.559426 Z-1.000000 I11.774209 J1.956908
G02 X43.559327 Y104.748423 Z-1.000000 I79.565375 J-42.252696
G02 X56.267511 Y118.448404 Z-1.000000 I127.544757 J-105.567192
G02 X73.556388 Y133.799694 Z-1.000000 I198.678550 J-206.343926
G02 X92.026306 Y147.701124 Z-1.000000 I180.593450 J-220.722067
G02 X108.036063 Y157.450247 Z-1.000000 I92.417487 J-133.745630
G02 X124.993407 Y164.333459 Z-1.000000 I41.548645 J-78.028920
G02 X132.881738 Y163.992011 Z-1.000000 I3.437746 J-11.870310
G02 X139.012061 Y158.961716 Z-1.000000 I-4.556746 J-11.803819
G02 X147.314202 Y142.363242 Z-1.000000 I-77.643127 J-49.210645
G02 X153.027421 Y124.281149 Z-1.000000 I-156.610306 J-59.426217
G02 X157.867253 Y101.454784 Z-1.000000 I-279.475289 J-71.182911
G02 X160.841197 Y78.310608 Z-1.000000 I-282.874324 J-48.111494
G02 X161.393744 Y59.487399 Z-1.000000 I-162.436617 J-14.187970
G02 X158.959675 Y41.276820 Z-1.000000 I-88.078861 J2.504870
G02 X154.746526 Y34.681847 Z-1.000000 I-11.696857 J2.829193
G02 X147.345958 Y31.991292 Z-1.000000 I-7.727030 J9.730578
G02 X128.614702 Y33.384290 Z-1.000000 I-2.459166 J93.565744
G02 X109.937424 Y37.772518 Z-1.000000 I29.782777 J168.703603
G02 X87.500634 Y45.381219 Z-1.000000 I83.469261 J283.022439
G02 X65.751673 Y54.769513 Z-1.000000 I105.253393 J273.716472
G02 X48.977068 Y64.053892 Z-1.000000 I72.108679 J150.078760
G02 X34.273570 Y75.630698 Z-1.000000 I48.178148 J76.315953
G02 X30.616747 Y82.783569 Z-1.000000 I8.703802 J8.960909
G02 X32.027140 Y90.729211 Z-1.000000 I12.656730 J1.851361
G02 X42.723385 Y106.441007 Z-1.000000 I82.777618 J-44.856397
G02 X56.038342 Y120.583145 Z-1.000000 I131.765197 J-110.719031
G02 X74.052313 Y136.344267 Z-1.000000 I204.641473 J-215.717365
G02 X93.278142 Y150.602439 Z-1.000000 I185.884934 J-230.557463
G02 X109.853653 Y160.545603 Z-1.000000 I94.854989 J-139.338227
G02 X127.381830 Y167.532195 Z-1.000000 I42.341175 J-80.745934
G02 X135.377525 Y167.097270 Z-1.000000 I3.362902 J-11.890375
G02 X141.481099 Y161.864829 Z-1.000000 I-4.728295 J-11.691583
G02 X149.570437 Y144.524231 Z-1.000000 I-81.326269 J-48.495593
G02 X154.955715 Y125.722537 Z-1.000000 I-164.055503 J-57.161703
G02 X159.339065 Y101.961606 Z-1.000000 I-293.090578 J-66.353314
G02 X161.795019 Y77.927122 Z-1.000000 I-296.195372 J-42.409319
G02 X161.873730 Y58.376891 Z-1.000000 I-170.004909 J-10.459730
G02 X158.890320 Y39.523701 Z-1.000000 I-92.203437 J4.928020
G02 X154.364752 Y32.737582 Z-1.000000 I-12.244777 J3.263792
G02 X146.627341 Y30.066448 Z-1.000000 I-7.864561 J10.239133
G02 X127.390670 Y31.831971 Z-1.000000 I-0.939962 J95.440043
G02 X108.254409 Y36.705639 Z-1.000000 I33.525625 J171.642716
G02 X85.340718 Y44.967301 Z-1.000000 I91.297031 J289.118374
G02 X63.164924 Y55.043981 Z-1.000000 I113.927662 J280.160637
G02 X46.121266 Y64.889446 Z-1.000000 I77.679562 J154.147470
G02 X31.218491 Y77.036011 Z-1.000000 I51.317979 J78.178162
G02 X27.638681 Y84.344283 Z-1.000000 I8.931134 J8.905622
G02 X29.249045 Y92.335110 Z-1.000000 I12.629532 J1.612491
G02 X40.576543 Y107.976857 Z-1.000000 I82.029548 J-47.481989
G02 X54.546613 Y121.943455 Z-1.000000 I130.032528 J-116.094782
G02 X73.415273 Y137.462876 Z-1.000000 I202.008858 J-226.374238
G02 X93.470188 Y151.412435 Z-1.000000 I183.044344 J-241.767055
G02 X110.756495 Y161.094205 Z-1.000000 I93.624159 J-146.888378
G02 X128.942708 Y167.765011 Z-1.000000 I41.653461 J-85.431911
G02 X137.201834 Y167.162709 Z-1.000000 I3.227710 J-12.667906
G02 X143.433640 Y161.718895 Z-1.000000 I-5.017842 J-12.033010
G02 X151.408216 Y144.187070 Z-1.000000 I-80.845475 J-47.353188
G02 X156.597757 Y125.173135 Z-1.000000 I-162.618345 J-54.599166
G02 X160.667067 Y101.198016 Z-1.000000 I-291.359758 J-61.785561
G02 X162.766753 Y76.971112 Z-1.000000 I-295.383096 J-37.804558
G02 X162.531716 Y57.255438 Z-1.000000 I-171.276946 J-7.817391
G02 X159.225208 Y38.274166 Z-1.000000 I-93.454772 J6.501047
G02 X154.555491 Y31.419224 Z-1.000000 I-12.590765 J3.559047
G02 X146.695534 Y28.728474 Z-1.000000 I-7.983936 J10.496653
G02 X127.381455 Y30.520211 Z-1.000000 I-0.896261 J95.332957
G02 X108.173300 Y35.453907 Z-1.000000 I33.618855 J170.744904
G02 X85.215997 Y43.810400 Z-1.000000 I91.216678 J286.307090
G02 X63.014812 Y54.007223 Z-1.000000 I113.799727 J277.039497
G02 X45.957441 Y63.981381 Z-1.000000 I77.696618 J152.445841
G02 X31.091365 Y76.272835 Z-1.000000 I51.459075 J77.373638
G02 X27.504107 Y83.724745 Z-1.000000 I9.181128 J9.009069
G02 X29.154888 Y91.866511 Z-1.000000 I13.052375 J1.591805
G02 X40.606401 Y107.827763 Z-1.000000 I84.547930 J-48.570901
G02 X54.716422 Y122.103268 Z-1.000000 I133.662409 J-118.001996
G02 X73.726056 Y137.942859 Z-1.000000 I206.275180 J-228.231036
G02 X93.949640 Y152.199043 Z-1.000000 I186.322982 J-242.842144
G02 X111.328335 Y162.059348 Z-1.000000 I94.324280 J-146.000618
G02 X129.614911 Y168.829656 Z-1.000000 I41.577242 J-84.218832
G02 X137.878502 Y168.166546 Z-1.000000 I3.165917 J-12.368218
G02 X144.064217 Y162.583724 Z-1.000000 I-5.233516 J-12.016957
G02 X152.017956 Y144.396554 Z-1.000000 I-85.892355 J-48.395813
G02 X157.139510 Y124.770777 Z-1.000000 I-172.005412 J-55.367780
G02 X161.103903 Y100.043436 Z-1.000000 I-305.848966 J-61.716490
G02 X163.067023 Y75.079447 Z-1.000000 I-308.173146 J-36.793322
G02 X162.675270 Y54.839364 Z-1.000000 I-176.073778 J-6.715871
G02 X159.124809 Y35.402649 Z-1.000000 I-95.022821 J7.314970
G02 X154.270981 Y28.516505 Z-1.000000 I-12.496543 J3.654695
G02 X146.194784 Y25.972823 Z-1.000000 I-7.847641 J10.823468
G02 X126.249259 Y28.337608 Z-1.000000 I1.704203 J99.670493
G02 X106.499657 Y33.914913 Z-1.000000 I39.598043 J177.975243
G02 X82.917853 Y43.111916 Z-1.000000 I102.202063 J296.884991
G02 X60.157930 Y54.183561 Z-1.000000 I124.983795 J285.858095
G02 X42.739930 Y64.891287 Z-1.000000 I83.703881 J155.679663
G02 X27.664622 Y77.946766 Z-1.000000 I54.608155 J78.288200
G02 X24.178658 Y85.727581 Z-1.000000 I9.570203 J8.958946
G02 X26.146180 Y94.083014 Z-1.000000 I13.537521 J1.221580
G02 X38.542716 Y110.292437 Z-1.000000 I86.678336 J-53.444304
G02 X53.627794 Y124.675846 Z-1.000000 I135.948641 J-127.478460
G02 X73.856701 Y140.561157 Z-1.000000 I208.855912 J-245.141623
G02 X95.289970 Y154.777268 Z-1.000000 I187.852214 J-259.954760
G02 X113.657609 Y164.541043 Z-1.000000 I94.804419 J-156.187806
G02 X132.890351 Y171.105282 Z-1.000000 I41.455055 J-90.002901
G02 X141.482434 Y170.239395 Z-1.000000 I3.018003 J-13.114745
G02 X147.798141 Y164.335248 Z-1.000000 I-5.612974 J-12.334287
G02 X155.572745 Y145.527901 Z-1.000000 I-87.617025 J-47.229846
G02 X160.370740 Y125.269552 Z-1.000000 I-175.035019 J-52.152718
G02 X163.831564 Y99.779440 Z-1.000000 I-312.137389 J-55.359271
G02 X165.212838 Y74.094518 Z-1.000000 I-315.171622 J-29.828786
G02 X164.288116 Y53.253005 Z-1.000000 I-181.714257 J-2.378747
G02 X160.144036 Y33.294200 Z-1.000000 I-98.661293 J10.075586
G02 X154.971626 Y26.207590 Z-1.000000 I-13.178094 J4.187555
G02 X146.567764 Y23.635661 Z-1.000000 I-8.076279 J11.373596
G02 X126.217149 Y26.200987 Z-1.000000 I2.367421 J100.783539
G02 X106.087190 Y32.083564 Z-1.000000 I41.472653 J179.301148
G02 X82.122245 Y41.709936 Z-1.000000 I106.396969 J299.519933
G02 X59.018916 Y53.253587 Z-1.000000 I129.923304 J288.918198
G02 X41.359844 Y64.371848 Z-1.000000 I87.309007 J158.255433
G02 X26.099311 Y77.859686 Z-1.000000 I56.888014 J79.741781
G02 X22.602876 Y85.824136 Z-1.000000 I9.909792 J9.100153
G02 X24.658858 Y94.321985 Z-1.000000 I13.768691 J1.166421
G02 X37.384448 Y110.716855 Z-1.000000 I87.425724 J-54.723078
G02 X52.844553 Y125.227892 Z-1.000000 I136.657466 J-130.104164
G02 X73.561122 Y141.216681 Z-1.000000 I208.987836 J-249.368613
G02 X95.496554 Y155.483007 Z-1.000000 I187.291679 J-263.976730
G02 X114.290961 Y165.235999 Z-1.000000 I94.066392 J-158.284437
G02 X133.929838 Y171.688866 Z-1.000000 I40.826134 J-91.140397
G02 X142.732026 Y170.687195 Z-1.000000 I2.924911 J-13.472797
G02 X149.167045 Y164.547159 Z-1.000000 I-5.998908 J-12.729216
G02 X157.060810 Y145.125871 Z-1.000000 I-91.628193 J-48.557045
G02 X161.909495 Y124.255590 Z-1.000000 I-181.995365 J-53.280428
G02 X165.370455 Y98.072430 Z-1.000000 I-322.695527 J-55.975075
G02 X166.705861 Y71.695536 Z-1.000000 I-324.755182 J-29.663916
G02 X165.694003 Y50.386463 Z-1.000000 I-185.504464 J-1.869901
G02 X161.375719 Y30.017842 Z-1.000000 I-99.793266 J10.514776
G02 X156.064491 Y22.927559 Z-1.000000 I-13.003375 J4.206216
G02 X147.496896 Y20.516233 Z-1.000000 I-7.880240 J11.572727
G02 X126.563287 Y23.681614 Z-1.000000 I5.156262 J104.902713
G02 X105.940804 Y30.224784 Z-1.000000 I47.837760 J186.543120
G02 X81.370806 Y40.715733 Z-1.000000 I118.426033 J311.373134
G02 X57.724085 Y53.144825 Z-1.000000 I142.405305 J299.639218
G02 X39.668663 Y65.011324 Z-1.000000 I94.521589 J163.488264
G02 X24.116245 Y79.268102 Z-1.000000 I60.993936 J82.148284
G02 X20.638472 Y87.549791 Z-1.000000 I10.430588 J9.251235
G02 X22.908815 Y96.264009 Z-1.000000 I14.089214 J0.982153
G02 X36.315658 Y112.809301 Z-1.000000 I87.794176 J-57.436141
G02 X52.519642 Y127.357750 Z-1.000000 I136.670997 J-135.925240
G02 X74.163250 Y143.305387 Z-1.000000 I209.665560 J-261.890369
G02 X97.015462 Y157.468241 Z-1.000000 I187.848486 J-277.581677
G02 X116.504272 Y167.075554 Z-1.000000 I94.374999 J-166.872798
G02 X136.796124 Y173.329328 Z-1.000000 I40.590073 J-95.656365
G02 X145.661751 Y172.157306 Z-1.000000 I2.710961 J-13.610769
G02 X151.979246 Y165.823079 Z-1.000000 I-6.171470 J-12.472685
G02 X159.341082 Y145.926398 Z-1.000000 I-93.083271 J-45.751402
G02 X163.547422 Y124.632287 Z-1.000000 I-184.787347 J-47.564540
G02 X166.163571 Y97.907582 Z-1.000000 I-328.161035 J-45.614916
G02 X166.604540 Y71.061935 Z-1.000000 I-330.030337 J-18.847560
G02 X164.826104 Y49.361815 Z-1.000000 I-189.131646 J4.577376
G02 X159.714835 Y28.720457 Z-1.000000 I-102.020054 J14.308971
G02 X154.025568 Y21.550051 Z-1.000000 I-13.499166 J4.868498
G02 X145.141215 Y19.225471 Z-1.000000 I-7.954617 J12.261968
G02 X123.950398 Y22.755812 Z-1.000000 I6.747983 J105.868594
G02 X103.131228 Y29.730748 Z-1.000000 I50.964642 J186.680613
G02 X78.450273 Y40.768617 Z-1.000000 I123.829904 J309.999372
G02 X54.745292 Y53.771562 Z-1.000000 I147.931359 J297.794933
G02 X36.713948 Y66.108366 Z-1.000000 I97.860308 J162.377221
G02 X21.279826 Y80.825828 Z-1.000000 I62.819811 J81.330366
G02 X17.930180 Y89.294962 Z-1.000000 I10.745396 J9.146915
G02 X20.406979 Y98.100876 Z-1.000000 I14.426135 J0.693702
G02 X34.317667 Y114.698189 Z-1.000000 I88.719451 J-60.230205
G02 X51.018880 Y129.219272 Z-1.000000 I136.945866 J-140.641422
G02 X73.275175 Y145.074837 Z-1.000000 I207.840190 J-268.194915
G02 X96.735033 Y159.083426 Z-1.000000 I184.928629 J-283.047545
G02 X116.761563 Y168.525271 Z-1.000000 I92.274954 J-169.759396
G02 X137.547888 Y174.507846 Z-1.000000 I39.332985 J-97.559493
G02 X146.735688 Y173.149854 Z-1.000000 I2.571974 J-14.358788
G02 X153.268982 Y166.524807 Z-1.000000 I-6.674405 J-13.115898
G02 X160.834280 Y146.105649 Z-1.000000 I-96.003130 J-47.180213
G02 X165.168546 Y124.264876 Z-1.000000 I-189.358087 J-48.928253
G02 X167.863402 Y96.962361 Z-1.000000 I-335.021660 J-46.852095
G02 X168.333489 Y69.530520 Z-1.000000 I-336.677421 J-19.489429
G02 X166.535861 Y47.439314 Z-1.000000 I-192.314772 J4.530489
G02 X161.333703 Y26.440692 Z-1.000000 I-103.178346 J14.417508
G02 X155.564464 Y19.255832 Z-1.000000 I-13.383394 J4.837788
G02 X146.574967 Y17.039930 Z-1.000000 I-7.806165 J12.325841
G02 X124.928819 Y21.025502 Z-1.000000 I8.862215 J108.906084
G02 X103.719925 Y28.508130 Z-1.000000 I55.897480 J192.235560
G02 X78.541152 Y40.224093 Z-1.000000 I133.265823 J319.315386
G02 X54.387378 Y53.924509 Z-1.000000 I157.768573 J306.287014
G02 X36.013147 Y66.864197 Z-1.000000 I103.632221 J166.672205
G02 X20.319135 Y82.206766 Z-1.000000 I66.200250 J83.414697
G02 X16.956487 Y90.958408 Z-1.000000 I11.234804 J9.338591
G02 X19.576677 Y99.987047 Z-1.000000 I14.813094 J0.595632
G02 X33.949410 Y116.816629 Z-1.000000 I89.615266 J-61.980814
G02 X51.175749 Y131.488756 Z-1.000000 I137.751400 J-144.283321
G02 X74.082877 Y147.441072 Z-1.000000 I208.536745 J-275.030367
G02 X98.205257 Y161.486602 Z-1.000000 I185.041038 J-290.060059
G02 X118.737609 Y170.882798 Z-1.000000 I91.856747 J-173.591742
G02 X139.997521 Y176.721986 Z-1.000000 I38.706491 J-99.304328
G02 X149.294329 Y175.192866 Z-1.000000 I2.397577 J-14.449232
G02 X155.795138 Y168.325765 Z-1.000000 I-7.030629 J-13.166192
G02 X163.126617 Y147.224449 Z-1.000000 I-100.143480 J-46.618318
G02 X167.138386 Y124.747418 Z-1.000000 I-196.752462 J-46.713513
G02 X169.385171 Y96.670460 Z-1.000000 I-347.145531 J-41.907796
G02 X169.360587 Y68.504703 Z-1.000000 I-348.084272 J-13.779058
G02 X167.116441 Y45.841571 Z-1.000000 I-198.354943 J8.198803
G02 X161.408460 Y24.350241 Z-1.000000 I-106.294321 J16.727525
G02 X155.366872 Y17.048455 Z-1.000000 I-13.745252 J5.222656
G02 X146.102994 Y14.896308 Z-1.000000 I-7.844897 J12.754048
G02 X124.024534 Y19.286223 Z-1.000000 I10.540625 J110.727789
G02 X102.442454 Y27.265361 Z-1.000000 I59.760027 J194.817059
G02 X76.883883 Y39.640661 Z-1.000000 I140.645170 J323.053484
G02 X52.408478 Y54.037255 Z-1.000000 I165.526302 J309.411874
G02 X33.850897 Y67.558397 Z-1.000000 I108.181483 J167.973179
G02 X18.088753 Y83.494714 Z-1.000000 I68.657293 J83.670010
G02 X14.831554 Y92.486059 Z-1.000000 I11.555987 J9.271913
G02 X17.706495 Y101.646975 Z-1.000000 I15.120406 J0.286387
G02 X32.845532 Y118.622712 Z-1.000000 I91.201653 J-66.095639
G02 X50.848436 Y133.332253 Z-1.000000 I139.444412 J-152.293461
G02 X74.705832 Y149.259054 Z-1.000000 I210.412432 J-289.353356
G02 X99.764110 Y163.220063 Z-1.000000 I185.960426 J-304.307131
G02 X121.008416 Y172.479162 Z-1.000000 I91.659646 J-181.304882
G02 X142.932130 Y178.096538 Z-1.000000 I38.101964 J-103.114776
G02 X152.349247 Y176.367113 Z-1.000000 I2.178501 J-14.641453
G02 X158.778472 Y169.241434 Z-1.000000 I-7.332028 J-13.078666
G02 X165.656203 Y147.508820 Z-1.000000 I-102.950418 J-44.535378
G02 X169.097431 Y124.453054 Z-1.000000 I-201.912102 J-41.921437
G02 X170.577331 Y95.671611 Z-1.000000 I-356.699372 J-32.769729
G02 X169.736447 Y66.866581 Z-1.000000 I-357.446120 J-3.980123
G02 X166.788894 Y43.711686 Z-1.000000 I-203.961820 J14.198707
G02 X160.344155 Y21.835381 Z-1.000000 I-109.286404 J20.308215
G02 X153.967155 Y14.485243 Z-1.000000 I-14.082263 J5.776389
G02 X144.433235 Y12.481588 Z-1.000000 I-7.753430 J13.208587
G02 X122.092135 Y17.445640 Z-1.000000 I13.047843 J111.478787
G02 X100.332785 Y26.077444 Z-1.000000 I64.912057 J195.374317
G02 X74.647728 Y39.283448 Z-1.000000 I150.636960 J324.562916
G02 X50.111333 Y54.519351 Z-1.000000 I176.147441 J311.048639
G02 X31.565916 Y68.710642 Z-1.000000 I114.907733 J169.376725
G02 X15.887183 Y85.283540 Z-1.000000 I72.430391 J84.225376
G02 X12.778680 Y94.439197 Z-1.000000 I11.920193 J9.152634
G02 X15.877095 Y103.613407 Z-1.000000 I15.140350 J-0.003045
G02 X31.566310 Y120.348791 Z-1.000000 I89.645090 J-68.319242
G02 X50.114334 Y134.715340 Z-1.000000 I135.877703 J-156.269224
G02 X74.643382 Y150.163081 Z-1.000000 I203.664030 J-296.194188
G02 X100.337269 Y163.580926 Z-1.000000 I178.707976 J-310.899066
G02 X122.093307 Y172.360054 Z-1.000000 I87.407196 J-185.261580
G02 X144.438817 Y177.428063 Z-1.000000 I35.635515 J-105.325493
G02 X153.999499 Y175.417697 Z-1.000000 I1.817383 J-15.096099
G02 X160.419138 Y168.013842 Z-1.000000 I-7.880942 J-13.318363
G02 X167.032010 Y145.895026 Z-1.000000 I-105.116807 J-43.474751
G02 X170.140535 Y122.500953 Z-1.000000 I-204.308360 J-39.051361
G02 X171.152640 Y93.393252 Z-1.000000 I-357.880011 J-27.015305
G02 X169.796471 Y64.302376 Z-1.000000 I-357.383840 J2.083603
G02 X166.382418 Y40.953698 Z-1.000000 I-203.277530 J17.799378
G02 X159.421396 Y18.993071 Z-1.000000 I-108.766281 J22.392891
G02 X152.742374 Y11.617687 Z-1.000000 I-14.283278 J6.222799
G02 X142.928578 Y9.719145 Z-1.000000 I-7.783043 J13.917872
G02 X120.097187 Y15.032401 Z-1.000000 I14.810906 J115.353959
G02 X97.911704 Y24.051878 Z-1.000000 I68.583285 J200.491296
G02 X71.815947 Y37.741533 Z-1.000000 I156.083325 J329.249354
G02 X46.915242 Y53.501470 Z-1.000000 I181.093522 J313.679356
G02 X28.176302 Y68.131128 Z-1.000000 I116.809209 J168.935470
G02 X12.452648 Y85.171541 Z-1.000000 I73.146545 J83.268839
G02 X9.455900 Y94.587229 Z-1.000000 I12.143523 J9.049675
G02 X12.839330 Y103.941232 Z-1.000000 I15.669244 J-0.378800
G02 X29.388996 Y120.998874 Z-1.000000 I93.006891 J-73.679919
G02 X48.798001 Y135.583199 Z-1.000000 I140.290423 J-166.493239
G02 X74.385216 Y151.231479 Z-1.000000 I209.548883 J-313.899372
G02 X101.134184 Y164.794644 Z-1.000000 I183.414263 J-328.567033
G02 X123.735263 Y173.635649 Z-1.000000 I89.405157 J-195.245565
G02 X146.915834 Y178.683422 Z-1.000000 I36.265910 J-110.792415
G02 X156.729841 Y176.561989 Z-1.000000 I1.762851 J-15.605943
G02 X163.238076 Y168.928730 Z-1.000000 I-8.016092 J-13.425785
G02 X169.671147 Y146.249525 Z-1.000000 I-106.390628 J-42.430227
G02 X172.463030 Y122.281846 Z-1.000000 I-207.363665 J-36.301277
G02 X172.995913 Y92.462752 Z-1.000000 I-365.390591 J-21.444024
G02 X171.098424 Y62.701220 Z-1.000000 I-365.589595 J8.367428
G02 X167.196649 Y38.840481 Z-1.000000 I-208.733750 J21.883348
G02 X159.697980 Y16.447263 Z-1.000000 I-111.639769 J24.931944
G02 X152.765864 Y9.021524 Z-1.000000 I-14.503511 J6.590875
G02 X142.729012 Y7.237704 Z-1.000000 I-7.715476 J14.283322
G02 X119.546415 Y13.027778 Z-1.000000 I16.899497 J116.967955
G02 X97.083771 Y22.597627 Z-1.000000 I73.026264 J202.556915
G02 X70.705126 Y37.012483 Z-1.000000 I164.033512 J331.518569
G02 X45.589207 Y53.527656 Z-1.000000 I189.211764 J315.104633
G02 X26.720455 Y68.811424 Z-1.000000 I121.634682 J169.454704
G02 X10.989608 Y86.509886 Z-1.000000 I75.990659 J83.382667
G02 X8.070862 Y96.260384 Z-1.000000 I12.745479 J9.127376
G02 X11.678920 Y105.862311 Z-1.000000 I16.306886 J-0.648688
G02 X28.808318 Y123.211071 Z-1.000000 I95.093780 J-76.760606
G02 X48.832635 Y137.997981 Z-1.000000 I142.422384 J-171.915431
G02 X75.147298 Y153.785907 Z-1.000000 I210.936711 J-321.756532
G02 X102.638463 Y167.419879 Z-1.000000 I183.616408 J-335.705846
G02 X125.810015 Y176.226695 Z-1.000000 I88.650178 J-198.360218
G02 X149.519688 Y181.105995 Z-1.000000 I35.417566 J-112.057208
G02 X159.518684 Y178.775238 Z-1.000000 I1.583804 J-15.818774
G02 X166.045905 Y170.820320 Z-1.000000 I-8.507512 J-13.635976
G02 X172.305036 Y147.234857 Z-1.000000 I-112.225251 J-42.405694
G02 X174.819978 Y122.404360 Z-1.000000 I-217.916302 J-34.614140
G02 X174.948629 Y91.563648 Z-1.000000 I-383.476841 J-17.020275
G02 X172.599296 Y60.813146 Z-1.000000 I-383.061647 J13.800844
G02 X168.293372 Y36.235575 Z-1.000000 I-217.717244 J25.477495
G02 X160.323403 Y13.195690 Z-1.000000 I-115.812748 J27.163577
G02 X153.183174 Y5.724604 Z-1.000000 I-14.581179 J6.787897
G02 X142.962695 Y4.118423 Z-1.000000 I-7.492954 J14.358639
G02 X119.437505 Y10.665467 Z-1.000000 I20.150470 J117.945256
G02 X96.738342 Y21.090145 Z-1.000000 I80.200268 J204.557108
G02 X70.074820 Y36.635942 Z-1.000000 I178.691199 J337.122917
G02 X44.757676 Y54.286410 Z-1.000000 I205.034790 J321.076121
G02 X25.737404 Y70.524519 Z-1.000000 I132.006850 J173.882910
G02 X9.924058 Y89.151362 Z-1.000000 I82.241465 J85.845106
G02 X7.067544 Y99.219688 Z-1.000000 I13.537381 J9.280108
G02 X10.859424 Y108.995438 Z-1.000000 I16.548496 J-0.795651
G02 X28.401943 Y126.245087 Z-1.000000 I93.186322 J-77.223464
G02 X48.899798 Y140.826251 Z-1.000000 I138.332765 J-172.766657
G02 X75.787348 Y156.253507 Z-1.000000 I203.634061 J-323.761419
G02 X103.838233 Y169.448405 Z-1.000000 I176.065880 J-337.882497
G02 X127.431107 Y177.827166 Z-1.000000 I84.267817 J-199.875193
G02 X151.469843 Y182.181688 Z-1.000000 I32.818577 J-112.642847
G02 X161.540569 Y179.548280 Z-1.000000 I1.199601 J-15.985496
G02 X167.967947 Y171.288709 Z-1.000000 I-9.121200 J-13.728468
G02 X173.836809 Y147.054434 Z-1.000000 I-117.086885 J-41.182935
G02 X175.898340 Y121.661421 Z-1.000000 I-225.564819 J-31.092662
G02 X175.431772 Y90.207669 Z-1.000000 I-394.511332 J-9.878364
G02 X172.457573 Y58.892473 Z-1.000000 I-392.785451 J21.506436
G02 X167.619066 Y33.926885 Z-1.000000 I-222.150119 J30.102599
G02 X159.083666 Y10.591596 Z-1.000000 I-117.728637 J29.833209
G02 X151.692300 Y3.130982 Z-1.000000 I-14.671955 J7.144085
G02 X141.281404 Y1.707637 Z-1.000000 I-7.306576 J14.656793
G02 X117.505472 Y8.886122 Z-1.000000 I23.002031 J119.148749
G02 X94.652901 Y20.001001 Z-1.000000 I86.044331 J205.960366
G02 X67.865638 Y36.428527 Z-1.000000 I189.455402 J338.986047
G02 X42.496702 Y54.967619 Z-1.000000 I216.043528 J322.261476
G02 X23.496037 Y71.932137 Z-1.000000 I138.489267 J174.234129
G02 X7.809007 Y91.255842 Z-1.000000 I85.810239 J85.690194
G02 X5.119913 Y101.570891 Z-1.000000 I14.009017 J9.160141
G00 Z0.100000
M05
(End cutting path id: path16052)


(Footer)
M5
G00 X0.0000 Y0.0000
M2
(Using default footer. To add your own footer create file "footer" in the output dir.)
(end)
%